presets/lightroom/_presets/Develop Presets/01-20 BASE - SOFT STYLIZED/21c. Neutral Fade - B&W.lrtemplate
s = {
	id = "A81C2071-2E3A-4759-9F75-BEA20137726A",
	internalName = "22c. Neutral Fade - B&W",
	title = "21c. Neutral Fade - B&W",
	type = "Develop",
	value = {
		settings = {
			Blacks2012 = 0,
			Clarity2012 = 0,
			ColorNoiseReduction = 25,
			ColorNoiseReductionDetail = 50,
			Contrast2012 = 25,
			ConvertToGrayscale = true,
			EnableCircularGradientBasedCorrections = true,
			EnableDetail = true,
			EnableEffects = true,
			EnableGradientBasedCorrections = true,
			EnableGrayscaleMix = true,
			EnableLensCorrections = true,
			EnableSplitToning = true,
			GrainAmount = 0,
			GrainFrequency = 50,
			GrainSize = 25,
			GrayMixerAqua = 0,
			GrayMixerBlue = 0,
			GrayMixerGreen = 0,
			GrayMixerMagenta = 0,
			GrayMixerOrange = 0,
			GrayMixerPurple = 0,
			GrayMixerRed = 0,
			GrayMixerYellow = 0,
			Highlights2012 = -30,
			LuminanceNoiseReductionContrast = 0,
			LuminanceNoiseReductionDetail = 50,
			LuminanceSmoothing = 0,
			ParametricDarks = 0,
			ParametricHighlightSplit = 75,
			ParametricHighlights = 0,
			ParametricLights = 0,
			ParametricMidtoneSplit = 50,
			ParametricShadowSplit = 25,
			ParametricShadows = 0,
			PostCropVignetteAmount = 0,
			PostCropVignetteFeather = 50,
			PostCropVignetteHighlightContrast = 0,
			PostCropVignetteMidpoint = 50,
			PostCropVignetteRoundness = 0,
			PostCropVignetteStyle = 1,
			ProcessVersion = "6.7",
			Shadows2012 = 0,
			SharpenDetail = 10,
			SharpenEdgeMasking = 30,
			SharpenRadius = 1.5,
			Sharpness = 70,
			SplitToningBalance = 0,
			SplitToningHighlightHue = 0,
			SplitToningHighlightSaturation = 0,
			SplitToningShadowHue = 0,
			SplitToningShadowSaturation = 0,
			ToneCurveName2012 = "Custom",
			ToneCurvePV2012 = {
				0,
				34,
				59,
				70,
				105,
				113,
				150,
				156,
				192,
				194,
				255,
				227,
			},
			ToneCurvePV2012Blue = {
				0,
				0,
				255,
				255,
			},
			ToneCurvePV2012Green = {
				0,
				0,
				255,
				255,
			},
			ToneCurvePV2012Red = {
				0,
				0,
				255,
				255,
			},
			VignetteAmount = 30,
			VignetteMidpoint = 30,
			Whites2012 = -30,
			orientation = "AB",
		},
		uuid = "87AD84CE-A371-4AA7-A875-528F25CC06AA",
	},
	version = 0,
}
