presets/lightroom/_presets/Develop Presets/01-20 BASE - SOFT STYLIZED/23d. Dark Fade - Filmic B&W.lrtemplate
s = {
	id = "1DE9860C-BE0D-4C13-B076-5DF8237C21E2",
	internalName = "23d. Dark Fade - Filmic B&W",
	title = "23d. Dark Fade - Filmic B&W",
	type = "Develop",
	value = {
		settings = {
			Blacks2012 = -60,
			Clarity2012 = 0,
			ColorNoiseReduction = 25,
			ColorNoiseReductionDetail = 50,
			Contrast2012 = 50,
			ConvertToGrayscale = true,
			EnableCircularGradientBasedCorrections = true,
			EnableDetail = true,
			EnableEffects = true,
			EnableGradientBasedCorrections = true,
			EnableGrayscaleMix = true,
			EnableLensCorrections = true,
			EnableSplitToning = true,
			GrainAmount = 50,
			GrainFrequency = 30,
			GrainSize = 30,
			GrayMixerAqua = 0,
			GrayMixerBlue = 0,
			GrayMixerGreen = 0,
			GrayMixerMagenta = 0,
			GrayMixerOrange = 0,
			GrayMixerPurple = 0,
			GrayMixerRed = 0,
			GrayMixerYellow = 0,
			Highlights2012 = -30,
			LuminanceNoiseReductionContrast = 0,
			LuminanceNoiseReductionDetail = 50,
			LuminanceSmoothing = 0,
			ParametricDarks = 0,
			ParametricHighlightSplit = 75,
			ParametricHighlights = 0,
			ParametricLights = 0,
			ParametricMidtoneSplit = 50,
			ParametricShadowSplit = 25,
			ParametricShadows = 0,
			PostCropVignetteAmount = 0,
			PostCropVignetteFeather = 50,
			PostCropVignetteHighlightContrast = 0,
			PostCropVignetteMidpoint = 50,
			PostCropVignetteRoundness = 0,
			PostCropVignetteStyle = 1,
			ProcessVersion = "6.7",
			Shadows2012 = -30,
			SharpenDetail = 10,
			SharpenEdgeMasking = 30,
			SharpenRadius = 1.5,
			Sharpness = 70,
			SplitToningBalance = 0,
			SplitToningHighlightHue = 0,
			SplitToningHighlightSaturation = 0,
			SplitToningShadowHue = 0,
			SplitToningShadowSaturation = 0,
			ToneCurveName2012 = "Custom",
			ToneCurvePV2012 = {
				0,
				39,
				43,
				53,
				94,
				81,
				159,
				131,
				212,
				178,
				255,
				217,
			},
			ToneCurvePV2012Blue = {
				0,
				0,
				255,
				255,
			},
			ToneCurvePV2012Green = {
				0,
				0,
				255,
				255,
			},
			ToneCurvePV2012Red = {
				0,
				0,
				255,
				255,
			},
			VignetteAmount = -30,
			VignetteMidpoint = 30,
			Whites2012 = -30,
			orientation = "AB",
		},
		uuid = "AE331F36-1C11-482A-B2BD-B0A415855996",
	},
	version = 0,
}
