presets/lightroom/_presets/Develop Presets/User Presets/Brown&White.lrtemplate
s = {
	id = "4998D047-B1C1-4CA2-897B-88CF4D55FA00",
	internalName = "Brown&White",
	title = "Brown&White",
	type = "Develop",
	value = {
		settings = {
			AutoBrightness = false,
			AutoContrast = false,
			AutoExposure = false,
			AutoShadows = false,
			BlueHue = 0,
			BlueSaturation = 0,
			Brightness = 54,
			CameraProfile = "Adobe Standard",
			ChromaticAberrationB = 0,
			ChromaticAberrationR = 0,
			Clarity = 63,
			ColorNoiseReduction = 66,
			ColorNoiseReductionDetail = 50,
			Contrast = 52,
			ConvertToGrayscale = true,
			CropConstrainToWarp = 0,
			Defringe = 0,
			EnableCalibration = true,
			EnableDetail = true,
			EnableEffects = true,
			EnableGradientBasedCorrections = true,
			EnableGrayscaleMix = true,
			EnableLensCorrections = true,
			EnableSplitToning = true,
			Exposure = 0.15,
			FillLight = 0,
			GrainAmount = 0,
			GrainFrequency = 50,
			GrainSize = 25,
			GrayMixerAqua = 9,
			GrayMixerBlue = -21,
			GrayMixerGreen = 47,
			GrayMixerMagenta = 6,
			GrayMixerOrange = -30,
			GrayMixerPurple = 20,
			GrayMixerRed = -4,
			GrayMixerYellow = 19,
			GreenHue = 0,
			GreenSaturation = 0,
			HighlightRecovery = 0,
			LensManualDistortionAmount = 0,
			LensProfileEnable = 0,
			LensProfileSetup = "LensDefaults",
			LuminanceNoiseReductionContrast = 0,
			LuminanceNoiseReductionDetail = 23,
			LuminanceSmoothing = 62,
			ParametricDarks = 0,
			ParametricHighlightSplit = 75,
			ParametricHighlights = 0,
			ParametricLights = 0,
			ParametricMidtoneSplit = 50,
			ParametricShadowSplit = 25,
			ParametricShadows = 0,
			PerspectiveHorizontal = 0,
			PerspectiveRotate = 0,
			PerspectiveScale = 100,
			PerspectiveVertical = 0,
			PostCropVignetteAmount = 1,
			PostCropVignetteFeather = 0,
			PostCropVignetteHighlightContrast = 0,
			PostCropVignetteMidpoint = 100,
			PostCropVignetteRoundness = 0,
			PostCropVignetteStyle = 1,
			ProcessVersion = "5.7",
			RedHue = 0,
			RedSaturation = 0,
			ShadowTint = 0,
			Shadows = 9,
			SharpenDetail = 14,
			SharpenEdgeMasking = 45,
			SharpenRadius = 2.2,
			Sharpness = 150,
			SplitToningBalance = -35,
			SplitToningHighlightHue = 0,
			SplitToningHighlightSaturation = 0,
			SplitToningShadowHue = 41,
			SplitToningShadowSaturation = 26,
			ToneCurve = {
				0,
				0,
				32,
				22,
				64,
				56,
				128,
				128,
				192,
				196,
				255,
				255,
			},
			ToneCurveName = "Medium Contrast",
			VignetteAmount = 0,
			VignetteMidpoint = 50,
			WhiteBalance = "As Shot",
			orientation = "DA",
		},
		uuid = "D2C48CC4-3BD5-4568-AFBA-633F63416868",
	},
	version = 0,
}
