presets/lightroom/_presets/Develop Presets/User Presets/Hawaii Five-O (Strong).lrtemplate
s = {
	id = "DE11508E-10DB-4917-812F-EB9062BA15AF",
	internalName = "Hawaii Five-O (Strong)",
	title = "Hawaii Five-O (Strong)",
	type = "Develop",
	value = {
		settings = {
			AutoBrightness = false,
			AutoContrast = false,
			AutoExposure = false,
			AutoShadows = false,
			BlueHue = 0,
			BlueSaturation = -55,
			Brightness = 57,
			CameraProfile = "ACR 4.4",
			Clarity = 63,
			Contrast = 57,
			ConvertToGrayscale = false,
			EnableCalibration = true,
			EnableColorAdjustments = true,
			EnableDetail = true,
			EnableEffects = true,
			EnableSplitToning = true,
			Exposure = 0,
			FillLight = 0,
			GrainAmount = 0,
			GrainFrequency = 50,
			GrainSize = 25,
			GreenHue = 0,
			GreenSaturation = 25,
			HighlightRecovery = 87,
			HueAdjustmentAqua = 0,
			HueAdjustmentBlue = 0,
			HueAdjustmentGreen = 0,
			HueAdjustmentMagenta = 0,
			HueAdjustmentOrange = 0,
			HueAdjustmentPurple = 0,
			HueAdjustmentRed = 0,
			HueAdjustmentYellow = 0,
			IncrementalTemperature = 0,
			IncrementalTint = -25,
			LuminanceAdjustmentAqua = 0,
			LuminanceAdjustmentBlue = 0,
			LuminanceAdjustmentGreen = 0,
			LuminanceAdjustmentMagenta = 0,
			LuminanceAdjustmentOrange = 25,
			LuminanceAdjustmentPurple = 0,
			LuminanceAdjustmentRed = 13,
			LuminanceAdjustmentYellow = 29,
			ParametricDarks = 40,
			ParametricHighlightSplit = 75,
			ParametricHighlights = -21,
			ParametricLights = 13,
			ParametricMidtoneSplit = 50,
			ParametricShadowSplit = 25,
			ParametricShadows = 19,
			PostCropVignetteAmount = -33,
			PostCropVignetteFeather = 63,
			PostCropVignetteHighlightContrast = 0,
			PostCropVignetteMidpoint = 44,
			PostCropVignetteRoundness = 0,
			PostCropVignetteStyle = 1,
			RedHue = -3,
			RedSaturation = -33,
			Saturation = -34,
			SaturationAdjustmentAqua = 0,
			SaturationAdjustmentBlue = -73,
			SaturationAdjustmentGreen = 0,
			SaturationAdjustmentMagenta = 0,
			SaturationAdjustmentOrange = 0,
			SaturationAdjustmentPurple = 0,
			SaturationAdjustmentRed = 25,
			SaturationAdjustmentYellow = 0,
			ShadowTint = 70,
			Shadows = 0,
			SharpenDetail = 25,
			SharpenEdgeMasking = 0,
			SharpenRadius = 1,
			Sharpness = 61,
			SplitToningBalance = 46,
			SplitToningHighlightHue = 55,
			SplitToningHighlightSaturation = 54,
			SplitToningShadowHue = 206,
			SplitToningShadowSaturation = 43,
			ToneCurve = {
				0,
				0,
				32,
				22,
				64,
				56,
				128,
				128,
				192,
				196,
				255,
				255,
			},
			ToneCurveName = "Medium Contrast",
			Vibrance = 0,
			WhiteBalance = "Custom",
		},
		uuid = "7725A1C1-5407-4EBB-B588-EC59602DD0E4",
	},
	version = 0,
}
