presets/lightroom/_presets/Develop Presets/VSCO Film 07 Night-Tungsten - Standard/S - Kodak Elite Chrome 160T ++.lrtemplate
s = {
	id = "7EB74C98-2B91-43A7-AD11-7D79947F4327",
	internalName = "S - Kodak Elite Chrome 160T ++",
	title = "S - Kodak Elite Chrome 160T ++",
	type = "Develop",
	value = {
		settings = {
			Blacks2012 = 15,
			BlueHue = -5,
			BlueSaturation = -10,
			CameraProfile = "Adobe Standard",
			Clarity2012 = 0,
			Contrast2012 = 0,
			ConvertToGrayscale = false,
			EnableCalibration = true,
			EnableColorAdjustments = true,
			EnableDetail = true,
			EnableEffects = true,
			EnableSplitToning = true,
			GrainAmount = 25,
			GrainFrequency = 60,
			GrainSize = 25,
			GreenHue = 40,
			GreenSaturation = -40,
			Highlights2012 = -15,
			HueAdjustmentAqua = -5,
			HueAdjustmentBlue = 15,
			HueAdjustmentGreen = -20,
			HueAdjustmentMagenta = 0,
			HueAdjustmentOrange = 0,
			HueAdjustmentPurple = 0,
			HueAdjustmentRed = 5,
			HueAdjustmentYellow = -5,
			LuminanceAdjustmentAqua = -20,
			LuminanceAdjustmentBlue = -15,
			LuminanceAdjustmentGreen = -20,
			LuminanceAdjustmentMagenta = -10,
			LuminanceAdjustmentOrange = -10,
			LuminanceAdjustmentPurple = -10,
			LuminanceAdjustmentRed = -20,
			LuminanceAdjustmentYellow = -15,
			ParametricDarks = 0,
			ParametricHighlightSplit = 75,
			ParametricHighlights = 5,
			ParametricLights = 8,
			ParametricMidtoneSplit = 47,
			ParametricShadowSplit = 25,
			ParametricShadows = 0,
			ProcessVersion = "6.7",
			RedHue = 15,
			RedSaturation = 0,
			Saturation = 0,
			SaturationAdjustmentAqua = -10,
			SaturationAdjustmentBlue = -20,
			SaturationAdjustmentGreen = -25,
			SaturationAdjustmentMagenta = -15,
			SaturationAdjustmentOrange = 0,
			SaturationAdjustmentPurple = -10,
			SaturationAdjustmentRed = -5,
			SaturationAdjustmentYellow = 10,
			ShadowTint = 0,
			Shadows2012 = 10,
			SharpenDetail = 25,
			SharpenEdgeMasking = 0,
			SharpenRadius = 1,
			Sharpness = 0,
			SplitToningBalance = 0,
			SplitToningHighlightHue = 0,
			SplitToningHighlightSaturation = 0,
			SplitToningShadowHue = 0,
			SplitToningShadowSaturation = 0,
			ToneCurveName2012 = "Kodak Elite Chrome 160T ++",
			ToneCurvePV2012 = {
				0,
				20,
				131,
				116,
				255,
				255,
			},
			ToneCurvePV2012Blue = {
				0,
				0,
				32,
				27,
				123,
				127,
				220,
				220,
				255,
				255,
			},
			ToneCurvePV2012Green = {
				0,
				0,
				31,
				23,
				131,
				127,
				221,
				225,
				255,
				255,
			},
			ToneCurvePV2012Red = {
				0,
				0,
				39,
				23,
				127,
				125,
				204,
				217,
				255,
				255,
			},
			Vibrance = 0,
			Whites2012 = -10,
		},
		uuid = "92471D49-A663-4B0E-8072-EFA2ACAB331E",
	},
	version = 0,
}
