presets/lightroom/_presets/Develop Presets/02-30 CURVES - ANTIQUE B&W/30. RESET CURVE.lrtemplate
s = {
	id = "3400C555-0627-40DA-873A-598245782886",
	internalName = "00 Reset Antique Curves (Standard)",
	title = "30. RESET CURVE",
	type = "Develop",
	value = {
		settings = {
			ConvertToGrayscale = false,
			ParametricDarks = 0,
			ParametricHighlightSplit = 75,
			ParametricHighlights = 0,
			ParametricLights = 0,
			ParametricMidtoneSplit = 50,
			ParametricShadowSplit = 25,
			ParametricShadows = 0,
			ProcessVersion = "6.7",
			Saturation = 0,
			ToneCurveName2012 = "Linear",
			ToneCurvePV2012 = {
				0,
				0,
				255,
				255,
			},
			ToneCurvePV2012Blue = {
				0,
				0,
				255,
				255,
			},
			ToneCurvePV2012Green = {
				0,
				0,
				255,
				255,
			},
			ToneCurvePV2012Red = {
				0,
				0,
				255,
				255,
			},
			Vibrance = 20,
		},
		uuid = "E225F4F1-7099-457A-ACDE-AC9379611AE4",
	},
	version = 0,
}
