presets/lightroom/_presets/Develop Presets/02-30 CURVES - ANTIQUE B&W/31b. Bright Wash - B&W Amber.lrtemplate
s = {
	id = "E2D9DBC6-3CF4-4784-9682-8ED07EDF4F2B",
	internalName = "02 Amber B&W + Bright Wash",
	title = "31b. Bright Wash - B&W Amber",
	type = "Develop",
	value = {
		settings = {
			ConvertToGrayscale = true,
			EnableGrayscaleMix = true,
			GrayMixerAqua = 0,
			GrayMixerBlue = 0,
			GrayMixerGreen = 0,
			GrayMixerMagenta = 0,
			GrayMixerOrange = 0,
			GrayMixerPurple = 0,
			GrayMixerRed = 0,
			GrayMixerYellow = 0,
			ParametricDarks = 0,
			ParametricHighlightSplit = 75,
			ParametricHighlights = 0,
			ParametricLights = 0,
			ParametricMidtoneSplit = 50,
			ParametricShadowSplit = 25,
			ParametricShadows = 0,
			ProcessVersion = "6.7",
			ToneCurveName2012 = "Custom",
			ToneCurvePV2012 = {
				0,
				46,
				46,
				79,
				95,
				120,
				159,
				180,
				222,
				227,
				255,
				237,
			},
			ToneCurvePV2012Blue = {
				0,
				0,
				255,
				255,
			},
			ToneCurvePV2012Green = {
				0,
				0,
				64,
				67,
				128,
				134,
				192,
				195,
				255,
				255,
			},
			ToneCurvePV2012Red = {
				0,
				0,
				64,
				70,
				128,
				139,
				192,
				199,
				255,
				255,
			},
		},
		uuid = "499F3648-7C64-4E54-9A1D-39E7AFE4DF38",
	},
	version = 0,
}
