presets/lightroom/_presets/Develop Presets/02-30 CURVES - ANTIQUE B&W/31c. Bright Wash - B&W Bronze.lrtemplate
s = {
	id = "A7847F5E-2A95-4947-BD2D-C7047AA27AB1",
	internalName = "03 Bronze B&W + Bright Wash",
	title = "31c. Bright Wash - B&W Bronze",
	type = "Develop",
	value = {
		settings = {
			ConvertToGrayscale = true,
			EnableGrayscaleMix = true,
			GrayMixerAqua = 0,
			GrayMixerBlue = 0,
			GrayMixerGreen = 0,
			GrayMixerMagenta = 0,
			GrayMixerOrange = 0,
			GrayMixerPurple = 0,
			GrayMixerRed = 0,
			GrayMixerYellow = 0,
			ParametricDarks = 0,
			ParametricHighlightSplit = 75,
			ParametricHighlights = 0,
			ParametricLights = 0,
			ParametricMidtoneSplit = 50,
			ParametricShadowSplit = 25,
			ParametricShadows = 0,
			ProcessVersion = "6.7",
			ToneCurveName2012 = "Custom",
			ToneCurvePV2012 = {
				0,
				46,
				46,
				79,
				95,
				120,
				159,
				180,
				222,
				227,
				255,
				237,
			},
			ToneCurvePV2012Blue = {
				0,
				0,
				255,
				255,
			},
			ToneCurvePV2012Green = {
				0,
				0,
				64,
				68,
				128,
				133,
				192,
				196,
				255,
				255,
			},
			ToneCurvePV2012Red = {
				0,
				0,
				64,
				74,
				128,
				141,
				192,
				201,
				255,
				255,
			},
		},
		uuid = "BC4DDAF1-A484-4A9E-8AD8-D2B06FC29153",
	},
	version = 0,
}
