presets/lightroom/_presets/Develop Presets/02-30 CURVES - ANTIQUE B&W/32b. Neutral Wash - B&W Amber.lrtemplate
s = {
	id = "3B791753-4F60-49D5-BE94-DF3280DC6E28",
	internalName = "06 Amber B&W + Neutral Wash",
	title = "32b. Neutral Wash - B&W Amber",
	type = "Develop",
	value = {
		settings = {
			ConvertToGrayscale = true,
			EnableGrayscaleMix = true,
			GrayMixerAqua = 0,
			GrayMixerBlue = 0,
			GrayMixerGreen = 0,
			GrayMixerMagenta = 0,
			GrayMixerOrange = 0,
			GrayMixerPurple = 0,
			GrayMixerRed = 0,
			GrayMixerYellow = 0,
			ParametricDarks = 0,
			ParametricHighlightSplit = 75,
			ParametricHighlights = 0,
			ParametricLights = 0,
			ParametricMidtoneSplit = 50,
			ParametricShadowSplit = 25,
			ParametricShadows = 0,
			ProcessVersion = "6.7",
			ToneCurveName2012 = "Custom",
			ToneCurvePV2012 = {
				0,
				34,
				59,
				70,
				105,
				113,
				150,
				156,
				192,
				194,
				255,
				227,
			},
			ToneCurvePV2012Blue = {
				0,
				0,
				255,
				255,
			},
			ToneCurvePV2012Green = {
				0,
				0,
				64,
				67,
				128,
				134,
				192,
				195,
				255,
				255,
			},
			ToneCurvePV2012Red = {
				0,
				0,
				64,
				70,
				128,
				139,
				192,
				199,
				255,
				255,
			},
		},
		uuid = "BE99163E-BD4D-4EEB-8C18-74F717204846",
	},
	version = 0,
}
