presets/lightroom/_presets/Develop Presets/02-30 CURVES - ANTIQUE B&W/33b. Neutral Punch - B&W Amber.lrtemplate
s = {
	id = "F304DD24-29A7-41C3-A611-88D1ED3FB9AC",
	internalName = "10 Amber B&W + Neutral Punch",
	title = "33b. Neutral Punch - B&W Amber",
	type = "Develop",
	value = {
		settings = {
			ConvertToGrayscale = true,
			EnableGrayscaleMix = true,
			GrayMixerAqua = 0,
			GrayMixerBlue = 0,
			GrayMixerGreen = 0,
			GrayMixerMagenta = 0,
			GrayMixerOrange = 0,
			GrayMixerPurple = 0,
			GrayMixerRed = 0,
			GrayMixerYellow = 0,
			ParametricDarks = 0,
			ParametricHighlightSplit = 75,
			ParametricHighlights = 0,
			ParametricLights = 0,
			ParametricMidtoneSplit = 50,
			ParametricShadowSplit = 25,
			ParametricShadows = 0,
			ProcessVersion = "6.7",
			ToneCurveName2012 = "Custom",
			ToneCurvePV2012 = {
				0,
				0,
				36,
				29,
				96,
				96,
				160,
				171,
				217,
				227,
				255,
				255,
			},
			ToneCurvePV2012Blue = {
				0,
				0,
				255,
				255,
			},
			ToneCurvePV2012Green = {
				0,
				0,
				64,
				67,
				128,
				134,
				192,
				195,
				255,
				255,
			},
			ToneCurvePV2012Red = {
				0,
				0,
				64,
				70,
				128,
				139,
				192,
				199,
				255,
				255,
			},
		},
		uuid = "8AA530CB-A6D8-44F2-BF40-9AE3AA04CBFC",
	},
	version = 0,
}
