presets/lightroom/_presets/Develop Presets/02-30 CURVES - ANTIQUE B&W/34b. Vintage Punch - B&W Amber.lrtemplate
s = {
	id = "2BB2F5C1-AADA-462B-99E4-2A16346106EF",
	internalName = "42 Amber B&W",
	title = "34b. Vintage Punch - B&W Amber",
	type = "Develop",
	value = {
		settings = {
			ConvertToGrayscale = true,
			EnableGrayscaleMix = true,
			GrayMixerAqua = 0,
			GrayMixerBlue = 0,
			GrayMixerGreen = 0,
			GrayMixerMagenta = 0,
			GrayMixerOrange = 0,
			GrayMixerPurple = 0,
			GrayMixerRed = 0,
			GrayMixerYellow = 0,
			ParametricDarks = 0,
			ParametricHighlightSplit = 75,
			ParametricHighlights = 0,
			ParametricLights = 0,
			ParametricMidtoneSplit = 50,
			ParametricShadowSplit = 25,
			ParametricShadows = 0,
			ProcessVersion = "6.7",
			ToneCurveName2012 = "Custom",
			ToneCurvePV2012 = {
				0,
				25,
				35,
				36,
				94,
				95,
				163,
				173,
				212,
				212,
				255,
				230,
			},
			ToneCurvePV2012Blue = {
				0,
				0,
				255,
				255,
			},
			ToneCurvePV2012Green = {
				0,
				0,
				64,
				67,
				128,
				134,
				192,
				195,
				255,
				255,
			},
			ToneCurvePV2012Red = {
				0,
				0,
				64,
				70,
				128,
				139,
				192,
				199,
				255,
				255,
			},
		},
		uuid = "2EA3FB98-DC62-439E-82EB-482E677EE0C1",
	},
	version = 0,
}
