presets/lightroom/_presets/Develop Presets/02-30 CURVES - ANTIQUE B&W/34c. Vintage Punch - B&W Bronze.lrtemplate
s = {
	id = "FB198A11-FE54-499A-8CEA-428B418B70CD",
	internalName = "43 Bronze B&W",
	title = "34c. Vintage Punch - B&W Bronze",
	type = "Develop",
	value = {
		settings = {
			ConvertToGrayscale = true,
			EnableGrayscaleMix = true,
			GrayMixerAqua = 0,
			GrayMixerBlue = 0,
			GrayMixerGreen = 0,
			GrayMixerMagenta = 0,
			GrayMixerOrange = 0,
			GrayMixerPurple = 0,
			GrayMixerRed = 0,
			GrayMixerYellow = 0,
			ParametricDarks = 0,
			ParametricHighlightSplit = 75,
			ParametricHighlights = 0,
			ParametricLights = 0,
			ParametricMidtoneSplit = 50,
			ParametricShadowSplit = 25,
			ParametricShadows = 0,
			ProcessVersion = "6.7",
			ToneCurveName2012 = "Custom",
			ToneCurvePV2012 = {
				0,
				25,
				35,
				36,
				94,
				95,
				163,
				173,
				212,
				212,
				255,
				230,
			},
			ToneCurvePV2012Blue = {
				0,
				0,
				255,
				255,
			},
			ToneCurvePV2012Green = {
				0,
				0,
				64,
				68,
				128,
				133,
				192,
				196,
				255,
				255,
			},
			ToneCurvePV2012Red = {
				0,
				0,
				64,
				74,
				128,
				141,
				192,
				201,
				255,
				255,
			},
		},
		uuid = "1C2CD0D7-E332-4646-9FF3-E04034D4549D",
	},
	version = 0,
}
