presets/lightroom/_presets/Develop Presets/01-10 BASE - SOFT/17b. HDR Heavy - B&W.lrtemplate
s = {
	id = "ADA9365B-71B5-4C87-B340-6EE0D684D676",
	internalName = "15b. HDR Heavy - B&W",
	title = "17b. HDR Heavy - B&W",
	type = "Develop",
	value = {
		settings = {
			Blacks2012 = 75,
			Clarity2012 = -10,
			ColorNoiseReduction = 40,
			ColorNoiseReductionDetail = 50,
			Contrast2012 = 75,
			ConvertToGrayscale = true,
			EnableCircularGradientBasedCorrections = true,
			EnableDetail = true,
			EnableEffects = true,
			EnableGradientBasedCorrections = true,
			EnableGrayscaleMix = true,
			EnableLensCorrections = true,
			EnableSplitToning = true,
			GrainAmount = 0,
			GrainFrequency = 50,
			GrainSize = 25,
			GrayMixerAqua = 0,
			GrayMixerBlue = 0,
			GrayMixerGreen = 0,
			GrayMixerMagenta = 0,
			GrayMixerOrange = 0,
			GrayMixerPurple = 0,
			GrayMixerRed = 0,
			GrayMixerYellow = 0,
			Highlights2012 = -75,
			LuminanceNoiseReductionContrast = 0,
			LuminanceNoiseReductionDetail = 70,
			LuminanceSmoothing = 40,
			ParametricDarks = 0,
			ParametricHighlightSplit = 75,
			ParametricHighlights = 0,
			ParametricLights = 0,
			ParametricMidtoneSplit = 50,
			ParametricShadowSplit = 25,
			ParametricShadows = 0,
			PostCropVignetteAmount = 0,
			PostCropVignetteFeather = 50,
			PostCropVignetteHighlightContrast = 0,
			PostCropVignetteMidpoint = 50,
			PostCropVignetteRoundness = 0,
			PostCropVignetteStyle = 1,
			ProcessVersion = "6.7",
			Shadows2012 = 75,
			SharpenDetail = 10,
			SharpenEdgeMasking = 30,
			SharpenRadius = 1.5,
			Sharpness = 70,
			SplitToningBalance = 0,
			SplitToningHighlightHue = 0,
			SplitToningHighlightSaturation = 0,
			SplitToningShadowHue = 0,
			SplitToningShadowSaturation = 0,
			ToneCurveName2012 = "Custom",
			ToneCurvePV2012 = {
				0,
				0,
				36,
				29,
				96,
				96,
				160,
				171,
				217,
				227,
				255,
				255,
			},
			ToneCurvePV2012Blue = {
				0,
				0,
				255,
				255,
			},
			ToneCurvePV2012Green = {
				0,
				0,
				255,
				255,
			},
			ToneCurvePV2012Red = {
				0,
				0,
				255,
				255,
			},
			VignetteAmount = 30,
			VignetteMidpoint = 30,
			Whites2012 = -75,
			orientation = "AB",
		},
		uuid = "6B2A286A-0634-4A8F-93B1-49D0225789BF",
	},
	version = 0,
}
