presets/lightroom/_presets/Develop Presets/VSCO Film 05 Night-Tungsten - Standard/S - Kodak Max 800 Night-Tungsten Alt.lrtemplate
s = {
	id = "C5B4E16A-B56B-48B1-B05F-0B1E2922AE01",
	internalName = "Kodak Max 800 Night+ Warm",
	title = "S - Kodak Max 800 Night/Tungsten Alt",
	type = "Develop",
	value = {
		settings = {
			Blacks2012 = 10,
			BlueHue = 0,
			BlueSaturation = -15,
			CameraProfile = "Adobe Standard",
			Clarity2012 = -5,
			Contrast2012 = 0,
			ConvertToGrayscale = false,
			EnableCalibration = true,
			EnableColorAdjustments = true,
			EnableDetail = true,
			EnableEffects = true,
			EnableSplitToning = true,
			GrainAmount = 30,
			GrainFrequency = 100,
			GrainSize = 30,
			GreenHue = 40,
			GreenSaturation = -15,
			Highlights2012 = -40,
			HueAdjustmentAqua = 10,
			HueAdjustmentBlue = -10,
			HueAdjustmentGreen = 0,
			HueAdjustmentMagenta = 20,
			HueAdjustmentOrange = 5,
			HueAdjustmentPurple = 20,
			HueAdjustmentRed = 10,
			HueAdjustmentYellow = 5,
			LuminanceAdjustmentAqua = 10,
			LuminanceAdjustmentBlue = -15,
			LuminanceAdjustmentGreen = 0,
			LuminanceAdjustmentMagenta = 5,
			LuminanceAdjustmentOrange = -10,
			LuminanceAdjustmentPurple = 15,
			LuminanceAdjustmentRed = -20,
			LuminanceAdjustmentYellow = 10,
			ParametricDarks = 20,
			ParametricHighlightSplit = 75,
			ParametricHighlights = 10,
			ParametricLights = 20,
			ParametricMidtoneSplit = 48,
			ParametricShadowSplit = 20,
			ParametricShadows = 30,
			ProcessVersion = "6.7",
			RedHue = 15,
			RedSaturation = 80,
			Saturation = -15,
			SaturationAdjustmentAqua = 0,
			SaturationAdjustmentBlue = -15,
			SaturationAdjustmentGreen = -40,
			SaturationAdjustmentMagenta = -35,
			SaturationAdjustmentOrange = -30,
			SaturationAdjustmentPurple = -35,
			SaturationAdjustmentRed = -40,
			SaturationAdjustmentYellow = -5,
			ShadowTint = -4,
			Shadows2012 = 25,
			SharpenDetail = 25,
			SharpenEdgeMasking = 0,
			SharpenRadius = 1,
			Sharpness = 0,
			SplitToningBalance = 0,
			SplitToningHighlightHue = 0,
			SplitToningHighlightSaturation = 0,
			SplitToningShadowHue = 0,
			SplitToningShadowSaturation = 0,
			ToneCurveName2012 = "Custom",
			ToneCurvePV2012 = {
				0,
				23,
				52,
				58,
				146,
				149,
				184,
				189,
				255,
				245,
			},
			ToneCurvePV2012Blue = {
				0,
				0,
				32,
				17,
				180,
				191,
				255,
				255,
			},
			ToneCurvePV2012Green = {
				0,
				0,
				39,
				18,
				117,
				124,
				172,
				196,
				255,
				255,
			},
			ToneCurvePV2012Red = {
				0,
				0,
				27,
				11,
				113,
				121,
				171,
				196,
				255,
				255,
			},
			Vibrance = 0,
			Whites2012 = -30,
		},
		uuid = "08F08679-5D1B-4EC9-9600-77F00C78CC65",
	},
	version = 0,
}
