presets/lightroom/_presets/Develop Presets/VSCO Film 05 Night-Tungsten - Standard/S - Kodak UltraMax 400 Night-Tungsten +.lrtemplate
s = {
	id = "F8BD476F-E408-4C2A-B9FC-BB6CBDBF6D70",
	internalName = "Kodak UltraMax 400 Night +",
	title = "S - Kodak UltraMax 400 Night/Tungsten +",
	type = "Develop",
	value = {
		settings = {
			Blacks2012 = 5,
			BlueHue = 0,
			BlueSaturation = -25,
			CameraProfile = "KAdobe Standard",
			Clarity2012 = -10,
			Contrast2012 = 0,
			ConvertToGrayscale = false,
			EnableCalibration = true,
			EnableColorAdjustments = true,
			EnableDetail = true,
			EnableEffects = true,
			EnableSplitToning = true,
			GrainAmount = 30,
			GrainFrequency = 65,
			GrainSize = 40,
			GreenHue = 35,
			GreenSaturation = -30,
			Highlights2012 = -45,
			HueAdjustmentAqua = 10,
			HueAdjustmentBlue = -5,
			HueAdjustmentGreen = 0,
			HueAdjustmentMagenta = 20,
			HueAdjustmentOrange = 10,
			HueAdjustmentPurple = 20,
			HueAdjustmentRed = 10,
			HueAdjustmentYellow = 0,
			LuminanceAdjustmentAqua = 10,
			LuminanceAdjustmentBlue = -15,
			LuminanceAdjustmentGreen = 0,
			LuminanceAdjustmentMagenta = 15,
			LuminanceAdjustmentOrange = -2,
			LuminanceAdjustmentPurple = 20,
			LuminanceAdjustmentRed = 5,
			LuminanceAdjustmentYellow = 15,
			ParametricDarks = 20,
			ParametricHighlightSplit = 75,
			ParametricHighlights = 20,
			ParametricLights = 20,
			ParametricMidtoneSplit = 48,
			ParametricShadowSplit = 14,
			ParametricShadows = 30,
			ProcessVersion = "6.7",
			RedHue = 12,
			RedSaturation = 65,
			Saturation = 0,
			SaturationAdjustmentAqua = 0,
			SaturationAdjustmentBlue = -15,
			SaturationAdjustmentGreen = -35,
			SaturationAdjustmentMagenta = -35,
			SaturationAdjustmentOrange = -25,
			SaturationAdjustmentPurple = -35,
			SaturationAdjustmentRed = -35,
			SaturationAdjustmentYellow = -20,
			ShadowTint = -2,
			Shadows2012 = 25,
			SharpenDetail = 25,
			SharpenEdgeMasking = 0,
			SharpenRadius = 1,
			Sharpness = 0,
			SplitToningBalance = 0,
			SplitToningHighlightHue = 0,
			SplitToningHighlightSaturation = 0,
			SplitToningShadowHue = 0,
			SplitToningShadowSaturation = 0,
			ToneCurveName2012 = "Custom",
			ToneCurvePV2012 = {
				0,
				33,
				77,
				74,
				133,
				133,
				191,
				187,
				255,
				245,
			},
			ToneCurvePV2012Blue = {
				0,
				43,
				113,
				117,
				168,
				193,
				232,
				243,
				255,
				255,
			},
			ToneCurvePV2012Green = {
				0,
				0,
				84,
				60,
				117,
				118,
				172,
				204,
				193,
				223,
				255,
				255,
			},
			ToneCurvePV2012Red = {
				0,
				0,
				29,
				9,
				70,
				43,
				119,
				121,
				175,
				201,
				255,
				255,
			},
			Vibrance = 0,
			Whites2012 = -30,
		},
		uuid = "86020303-621C-4936-A03B-6137DF486A40",
	},
	version = 0,
}
