presets/lightroom/_presets/Develop Presets/VSCO Film 05 Night-Tungsten - Standard/S - Agfa Vista 800 Night-Tungsten +.lrtemplate
s = {
	id = "E0398BD6-F263-44B1-9FA4-DF5397C4BF8B",
	internalName = "Agfa Vista 800 Night +",
	title = "S - Agfa Vista 800 Night/Tungsten +",
	type = "Develop",
	value = {
		settings = {
			Blacks2012 = 15,
			BlueHue = -5,
			BlueSaturation = -30,
			CameraProfile = "Adobe Standard",
			Clarity2012 = -10,
			Contrast2012 = 0,
			ConvertToGrayscale = false,
			EnableCalibration = true,
			EnableColorAdjustments = true,
			EnableDetail = true,
			EnableEffects = true,
			EnableSplitToning = true,
			GrainAmount = 35,
			GrainFrequency = 85,
			GrainSize = 25,
			GreenHue = 40,
			GreenSaturation = -45,
			Highlights2012 = -40,
			HueAdjustmentAqua = 10,
			HueAdjustmentBlue = -10,
			HueAdjustmentGreen = 0,
			HueAdjustmentMagenta = 5,
			HueAdjustmentOrange = 10,
			HueAdjustmentPurple = 0,
			HueAdjustmentRed = 15,
			HueAdjustmentYellow = 5,
			LuminanceAdjustmentAqua = 15,
			LuminanceAdjustmentBlue = -25,
			LuminanceAdjustmentGreen = 0,
			LuminanceAdjustmentMagenta = 10,
			LuminanceAdjustmentOrange = 0,
			LuminanceAdjustmentPurple = -5,
			LuminanceAdjustmentRed = 0,
			LuminanceAdjustmentYellow = 10,
			ParametricDarks = 20,
			ParametricHighlightSplit = 72,
			ParametricHighlights = 15,
			ParametricLights = 24,
			ParametricMidtoneSplit = 44,
			ParametricShadowSplit = 19,
			ParametricShadows = 30,
			ProcessVersion = "6.7",
			RedHue = 15,
			RedSaturation = 60,
			Saturation = -10,
			SaturationAdjustmentAqua = -35,
			SaturationAdjustmentBlue = -25,
			SaturationAdjustmentGreen = -30,
			SaturationAdjustmentMagenta = -40,
			SaturationAdjustmentOrange = -5,
			SaturationAdjustmentPurple = -45,
			SaturationAdjustmentRed = -25,
			SaturationAdjustmentYellow = -5,
			ShadowTint = -4,
			Shadows2012 = 30,
			SharpenDetail = 25,
			SharpenEdgeMasking = 0,
			SharpenRadius = 1,
			Sharpness = 0,
			SplitToningBalance = 75,
			SplitToningHighlightHue = 0,
			SplitToningHighlightSaturation = 0,
			SplitToningShadowHue = 240,
			SplitToningShadowSaturation = 10,
			ToneCurveName2012 = "Custom",
			ToneCurvePV2012 = {
				0,
				52,
				76,
				76,
				133,
				133,
				185,
				189,
				255,
				245,
			},
			ToneCurvePV2012Blue = {
				0,
				11,
				56,
				57,
				114,
				117,
				180,
				189,
				254,
				246,
			},
			ToneCurvePV2012Green = {
				0,
				0,
				32,
				10,
				80,
				65,
				114,
				120,
				175,
				194,
				255,
				255,
			},
			ToneCurvePV2012Red = {
				0,
				0,
				37,
				9,
				83,
				62,
				117,
				121,
				174,
				196,
				255,
				255,
			},
			Vibrance = 0,
			Whites2012 = -20,
		},
		uuid = "8E710AD2-468E-47E2-9122-05A891733BD5",
	},
	version = 0,
}
