presets/lightroom/_presets/Develop Presets/03-50 ADJUST - SATURATION/51d. Saturate - Heavy + Blues.lrtemplate
s = {
	id = "A4DFDB1A-268A-4DC6-BE3C-261B3C57BDEA",
	internalName = "44c Saturate - Heavy",
	title = "51d. Saturate - Heavy + Blues",
	type = "Develop",
	value = {
		settings = {
			ConvertToGrayscale = false,
			EnableColorAdjustments = true,
			HueAdjustmentAqua = 0,
			HueAdjustmentBlue = 0,
			HueAdjustmentGreen = 0,
			HueAdjustmentMagenta = 0,
			HueAdjustmentOrange = 0,
			HueAdjustmentPurple = 0,
			HueAdjustmentRed = 0,
			HueAdjustmentYellow = 0,
			LuminanceAdjustmentAqua = -10,
			LuminanceAdjustmentBlue = -20,
			LuminanceAdjustmentGreen = 0,
			LuminanceAdjustmentMagenta = 0,
			LuminanceAdjustmentOrange = 0,
			LuminanceAdjustmentPurple = -10,
			LuminanceAdjustmentRed = 0,
			LuminanceAdjustmentYellow = 0,
			ProcessVersion = "6.7",
			Saturation = 10,
			SaturationAdjustmentAqua = 5,
			SaturationAdjustmentBlue = 10,
			SaturationAdjustmentGreen = 0,
			SaturationAdjustmentMagenta = 0,
			SaturationAdjustmentOrange = 0,
			SaturationAdjustmentPurple = 5,
			SaturationAdjustmentRed = 0,
			SaturationAdjustmentYellow = 0,
			Vibrance = 30,
		},
		uuid = "86E7019E-E6C3-4298-87D5-70A66AF6D484",
	},
	version = 0,
}
