presets/lightroom/_presets/Develop Presets/RU_templates/15.lrtemplate
s = {
	id = "BE95A2C0-582D-48FD-9E04-345BA665970B",
	internalName = "15",
	title = "15",
	type = "Develop",
	value = {
		settings = {
			AutoLateralCA = 0,
			Blacks2012 = -63,
			BlueHue = -52,
			BlueSaturation = 25,
			CameraProfile = "Embedded",
			ChromaticAberrationB = 0,
			ChromaticAberrationR = 0,
			Clarity2012 = -5,
			ColorNoiseReduction = 25,
			ColorNoiseReductionDetail = 50,
			Contrast2012 = -34,
			ConvertToGrayscale = false,
			CropConstrainToWarp = 0,
			Defringe = 0,
			DefringeGreenAmount = 0,
			DefringeGreenHueHi = 60,
			DefringeGreenHueLo = 40,
			DefringePurpleAmount = 0,
			DefringePurpleHueHi = 70,
			DefringePurpleHueLo = 30,
			EnableCalibration = true,
			EnableColorAdjustments = true,
			EnableDetail = true,
			EnableEffects = true,
			EnableGradientBasedCorrections = true,
			EnableLensCorrections = true,
			EnableSplitToning = true,
			Exposure2012 = 0.89,
			GrainAmount = 0,
			GrainFrequency = 50,
			GrainSize = 25,
			GreenHue = -68,
			GreenSaturation = 64,
			Highlights2012 = -100,
			HueAdjustmentAqua = 41,
			HueAdjustmentBlue = 4,
			HueAdjustmentGreen = 11,
			HueAdjustmentMagenta = 0,
			HueAdjustmentOrange = -12,
			HueAdjustmentPurple = 0,
			HueAdjustmentRed = -100,
			HueAdjustmentYellow = -11,
			IncrementalTemperature = -4,
			IncrementalTint = -32,
			LensManualDistortionAmount = 0,
			LensProfileEnable = 0,
			LensProfileSetup = "LensDefaults",
			LuminanceAdjustmentAqua = 0,
			LuminanceAdjustmentBlue = 0,
			LuminanceAdjustmentGreen = 0,
			LuminanceAdjustmentMagenta = 0,
			LuminanceAdjustmentOrange = -19,
			LuminanceAdjustmentPurple = 0,
			LuminanceAdjustmentRed = 0,
			LuminanceAdjustmentYellow = 0,
			LuminanceNoiseReductionContrast = 0,
			LuminanceNoiseReductionDetail = 50,
			LuminanceSmoothing = 0,
			ParametricDarks = 8,
			ParametricHighlightSplit = 75,
			ParametricHighlights = 24,
			ParametricLights = 5,
			ParametricMidtoneSplit = 50,
			ParametricShadowSplit = 25,
			ParametricShadows = -35,
			PerspectiveAspect = 0,
			PerspectiveHorizontal = 0,
			PerspectiveRotate = 0,
			PerspectiveScale = 100,
			PerspectiveVertical = 0,
			PostCropVignetteAmount = -30,
			PostCropVignetteFeather = 50,
			PostCropVignetteHighlightContrast = 0,
			PostCropVignetteMidpoint = 30,
			PostCropVignetteRoundness = 100,
			PostCropVignetteStyle = 1,
			ProcessVersion = "6.7",
			RedHue = 15,
			RedSaturation = -59,
			Saturation = -38,
			SaturationAdjustmentAqua = 8,
			SaturationAdjustmentBlue = 0,
			SaturationAdjustmentGreen = 0,
			SaturationAdjustmentMagenta = 0,
			SaturationAdjustmentOrange = -30,
			SaturationAdjustmentPurple = 0,
			SaturationAdjustmentRed = -55,
			SaturationAdjustmentYellow = -26,
			ShadowTint = 23,
			Shadows2012 = 100,
			SharpenDetail = 25,
			SharpenEdgeMasking = 3,
			SharpenRadius = 2.9,
			Sharpness = 69,
			SplitToningBalance = -73,
			SplitToningHighlightHue = 176,
			SplitToningHighlightSaturation = 10,
			SplitToningShadowHue = 89,
			SplitToningShadowSaturation = 5,
			ToneCurveName2012 = "Custom",
			ToneCurvePV2012 = {
				0,
				30,
				71,
				50,
				201,
				177,
				255,
				200,
			},
			ToneCurvePV2012Blue = {
				0,
				0,
				77,
				58,
				203,
				198,
				255,
				255,
			},
			ToneCurvePV2012Green = {
				0,
				0,
				61,
				47,
				199,
				197,
				255,
				255,
			},
			ToneCurvePV2012Red = {
				0,
				0,
				62,
				53,
				200,
				195,
				255,
				245,
			},
			Vibrance = 33,
			VignetteAmount = 0,
			VignetteMidpoint = 50,
			WhiteBalance = "Custom",
			Whites2012 = 69,
			orientation = "AB",
		},
		uuid = "05E6AEE9-AEBB-4DE3-B402-2EEA83E1D713",
	},
	version = 0,
}
