presets/lightroom/_presets/Develop Presets/RU_templates/28.lrtemplate
s = {
	id = "2F0C29CC-1BAD-4CB5-B925-7AFC0A303DEA",
	internalName = "28",
	title = "28",
	type = "Develop",
	value = {
		settings = {
			AutoLateralCA = 0,
			Blacks2012 = -64,
			BlueHue = -50,
			BlueSaturation = 7,
			CameraProfile = "Adobe Standard",
			ChromaticAberrationB = 0,
			ChromaticAberrationR = 0,
			Clarity2012 = 14,
			ColorNoiseReduction = 25,
			ColorNoiseReductionDetail = 50,
			Contrast2012 = -42,
			ConvertToGrayscale = false,
			Defringe = 0,
			DefringeGreenAmount = 0,
			DefringeGreenHueHi = 60,
			DefringeGreenHueLo = 40,
			DefringePurpleAmount = 0,
			DefringePurpleHueHi = 70,
			DefringePurpleHueLo = 30,
			EnableCalibration = true,
			EnableColorAdjustments = true,
			EnableDetail = true,
			EnableEffects = true,
			EnableLensCorrections = true,
			EnableSplitToning = true,
			Exposure2012 = 0.4,
			GrainAmount = 0,
			GrainFrequency = 50,
			GrainSize = 25,
			GreenHue = -68,
			GreenSaturation = 64,
			Highlights2012 = -100,
			HueAdjustmentAqua = 62,
			HueAdjustmentBlue = -19,
			HueAdjustmentGreen = 38,
			HueAdjustmentMagenta = 0,
			HueAdjustmentOrange = -21,
			HueAdjustmentPurple = 0,
			HueAdjustmentRed = -100,
			HueAdjustmentYellow = -9,
			LuminanceAdjustmentAqua = 0,
			LuminanceAdjustmentBlue = 23,
			LuminanceAdjustmentGreen = 0,
			LuminanceAdjustmentMagenta = 0,
			LuminanceAdjustmentOrange = -19,
			LuminanceAdjustmentPurple = 0,
			LuminanceAdjustmentRed = 0,
			LuminanceAdjustmentYellow = 0,
			LuminanceNoiseReductionContrast = 0,
			LuminanceNoiseReductionDetail = 50,
			LuminanceSmoothing = 0,
			ParametricDarks = 0,
			ParametricHighlightSplit = 75,
			ParametricHighlights = 0,
			ParametricLights = 0,
			ParametricMidtoneSplit = 50,
			ParametricShadowSplit = 25,
			ParametricShadows = 0,
			PostCropVignetteAmount = -30,
			PostCropVignetteFeather = 50,
			PostCropVignetteHighlightContrast = 0,
			PostCropVignetteMidpoint = 30,
			PostCropVignetteRoundness = 100,
			PostCropVignetteStyle = 1,
			ProcessVersion = "6.7",
			RedHue = 36,
			RedSaturation = -73,
			Saturation = -34,
			SaturationAdjustmentAqua = 0,
			SaturationAdjustmentBlue = -100,
			SaturationAdjustmentGreen = 0,
			SaturationAdjustmentMagenta = 0,
			SaturationAdjustmentOrange = -34,
			SaturationAdjustmentPurple = 0,
			SaturationAdjustmentRed = 0,
			SaturationAdjustmentYellow = 0,
			ShadowTint = 0,
			Shadows2012 = 52,
			SharpenDetail = 25,
			SharpenEdgeMasking = 0,
			SharpenRadius = 3,
			Sharpness = 99,
			SplitToningBalance = -91,
			SplitToningHighlightHue = 184,
			SplitToningHighlightSaturation = 9,
			SplitToningShadowHue = 192,
			SplitToningShadowSaturation = 0,
			Temperature = 4878,
			Tint = -14,
			ToneCurveName2012 = "Custom",
			ToneCurvePV2012 = {
				0,
				30,
				71,
				50,
				201,
				177,
				255,
				200,
			},
			ToneCurvePV2012Blue = {
				0,
				0,
				77,
				64,
				201,
				186,
				255,
				255,
			},
			ToneCurvePV2012Green = {
				0,
				0,
				62,
				49,
				196,
				194,
				255,
				255,
			},
			ToneCurvePV2012Red = {
				0,
				0,
				63,
				49,
				199,
				199,
				255,
				255,
			},
			Vibrance = 41,
			VignetteAmount = 0,
			VignetteMidpoint = 50,
			WhiteBalance = "Custom",
			Whites2012 = 77,
		},
		uuid = "423DD76F-05AB-429F-9843-294BA1A13C44",
	},
	version = 0,
}
