presets/lightroom/_presets/Develop Presets/RU_templates/32.lrtemplate
s = {
	id = "41A3F033-3D37-49B4-AA8E-FA3EAA1C24BD",
	internalName = "32",
	title = "32",
	type = "Develop",
	value = {
		settings = {
			AutoLateralCA = 0,
			Blacks2012 = 36,
			BlueHue = -39,
			BlueSaturation = -10,
			CameraProfile = "Adobe Standard",
			ChromaticAberrationB = 0,
			ChromaticAberrationR = 0,
			Clarity2012 = 19,
			ColorNoiseReduction = 25,
			ColorNoiseReductionDetail = 50,
			ColorNoiseReductionSmoothness = 50,
			Contrast2012 = -1,
			ConvertToGrayscale = false,
			Defringe = 0,
			DefringeGreenAmount = 0,
			DefringeGreenHueHi = 60,
			DefringeGreenHueLo = 40,
			DefringePurpleAmount = 0,
			DefringePurpleHueHi = 70,
			DefringePurpleHueLo = 30,
			EnableCalibration = true,
			EnableColorAdjustments = true,
			EnableDetail = true,
			EnableEffects = true,
			EnableLensCorrections = true,
			EnableSplitToning = true,
			Exposure2012 = -0.05,
			GrainAmount = 0,
			GrainFrequency = 50,
			GrainSize = 25,
			GreenHue = 100,
			GreenSaturation = 39,
			Highlights2012 = 8,
			HueAdjustmentAqua = 100,
			HueAdjustmentBlue = 0,
			HueAdjustmentGreen = 100,
			HueAdjustmentMagenta = 0,
			HueAdjustmentOrange = 11,
			HueAdjustmentPurple = 14,
			HueAdjustmentRed = 28,
			HueAdjustmentYellow = -9,
			LuminanceAdjustmentAqua = -66,
			LuminanceAdjustmentBlue = -7,
			LuminanceAdjustmentGreen = -69,
			LuminanceAdjustmentMagenta = 0,
			LuminanceAdjustmentOrange = 16,
			LuminanceAdjustmentPurple = 0,
			LuminanceAdjustmentRed = 59,
			LuminanceAdjustmentYellow = 5,
			LuminanceNoiseReductionContrast = 0,
			LuminanceNoiseReductionDetail = 50,
			LuminanceSmoothing = 0,
			ParametricDarks = 0,
			ParametricHighlightSplit = 75,
			ParametricHighlights = 6,
			ParametricLights = 0,
			ParametricMidtoneSplit = 50,
			ParametricShadowSplit = 25,
			ParametricShadows = 0,
			PostCropVignetteAmount = 2,
			PostCropVignetteFeather = 50,
			PostCropVignetteHighlightContrast = 0,
			PostCropVignetteMidpoint = 57,
			PostCropVignetteRoundness = 0,
			PostCropVignetteStyle = 1,
			ProcessVersion = "6.7",
			RedHue = 38,
			RedSaturation = 22,
			Saturation = 0,
			SaturationAdjustmentAqua = 0,
			SaturationAdjustmentBlue = 0,
			SaturationAdjustmentGreen = 0,
			SaturationAdjustmentMagenta = 0,
			SaturationAdjustmentOrange = 7,
			SaturationAdjustmentPurple = 0,
			SaturationAdjustmentRed = -1,
			SaturationAdjustmentYellow = 0,
			ShadowTint = 3,
			Shadows2012 = 21,
			SharpenDetail = 25,
			SharpenEdgeMasking = 0,
			SharpenRadius = 2.6,
			Sharpness = 47,
			SplitToningBalance = 0,
			SplitToningHighlightHue = 197,
			SplitToningHighlightSaturation = 6,
			SplitToningShadowHue = 199,
			SplitToningShadowSaturation = 5,
			Temperature = 4801,
			Tint = -2,
			ToneCurveName2012 = "Linear",
			ToneCurvePV2012 = {
				0,
				0,
				255,
				255,
			},
			ToneCurvePV2012Blue = {
				0,
				0,
				255,
				255,
			},
			ToneCurvePV2012Green = {
				0,
				0,
				255,
				255,
			},
			ToneCurvePV2012Red = {
				0,
				0,
				255,
				255,
			},
			Vibrance = 0,
			VignetteAmount = 0,
			VignetteMidpoint = 50,
			WhiteBalance = "Custom",
			Whites2012 = 26,
		},
		uuid = "61B32444-198A-4555-8D94-FDA7D0C2028C",
	},
	version = 0,
}
