presets/lightroom/_presets/Develop Presets/RU_templates/35.lrtemplate
s = {
	id = "AFA9E862-B7D2-4CC3-916F-971ACA73C9E9",
	internalName = "35",
	title = "35",
	type = "Develop",
	value = {
		settings = {
			AutoLateralCA = 0,
			Blacks2012 = 32,
			BlueHue = -100,
			BlueSaturation = 23,
			CameraProfile = "Embedded",
			ChromaticAberrationB = 0,
			ChromaticAberrationR = 0,
			Clarity2012 = 18,
			ColorNoiseReduction = 0,
			ColorNoiseReductionDetail = 50,
			Contrast2012 = -70,
			ConvertToGrayscale = false,
			Defringe = 0,
			DefringeGreenAmount = 0,
			DefringeGreenHueHi = 60,
			DefringeGreenHueLo = 40,
			DefringePurpleAmount = 0,
			DefringePurpleHueHi = 70,
			DefringePurpleHueLo = 30,
			EnableCalibration = true,
			EnableColorAdjustments = true,
			EnableDetail = true,
			EnableEffects = true,
			EnableLensCorrections = true,
			EnableSplitToning = true,
			Exposure2012 = 0.91,
			GrainAmount = 0,
			GrainFrequency = 50,
			GrainSize = 25,
			GreenHue = -77,
			GreenSaturation = -100,
			Highlights2012 = 34,
			HueAdjustmentAqua = -100,
			HueAdjustmentBlue = 0,
			HueAdjustmentGreen = 36,
			HueAdjustmentMagenta = 0,
			HueAdjustmentOrange = -34,
			HueAdjustmentPurple = 0,
			HueAdjustmentRed = 26,
			HueAdjustmentYellow = 0,
			IncrementalTemperature = -9,
			IncrementalTint = 34,
			LuminanceAdjustmentAqua = 0,
			LuminanceAdjustmentBlue = 0,
			LuminanceAdjustmentGreen = 40,
			LuminanceAdjustmentMagenta = 0,
			LuminanceAdjustmentOrange = -19,
			LuminanceAdjustmentPurple = 0,
			LuminanceAdjustmentRed = 0,
			LuminanceAdjustmentYellow = 0,
			LuminanceNoiseReductionContrast = 0,
			LuminanceNoiseReductionDetail = 50,
			LuminanceSmoothing = 0,
			ParametricDarks = 0,
			ParametricHighlightSplit = 75,
			ParametricHighlights = 0,
			ParametricLights = 0,
			ParametricMidtoneSplit = 50,
			ParametricShadowSplit = 25,
			ParametricShadows = 0,
			PostCropVignetteAmount = 0,
			PostCropVignetteFeather = 50,
			PostCropVignetteHighlightContrast = 0,
			PostCropVignetteMidpoint = 50,
			PostCropVignetteRoundness = 0,
			PostCropVignetteStyle = 1,
			ProcessVersion = "6.7",
			RedHue = 23,
			RedSaturation = 0,
			Saturation = 34,
			SaturationAdjustmentAqua = 0,
			SaturationAdjustmentBlue = 0,
			SaturationAdjustmentGreen = -4,
			SaturationAdjustmentMagenta = 0,
			SaturationAdjustmentOrange = 2,
			SaturationAdjustmentPurple = 0,
			SaturationAdjustmentRed = 0,
			SaturationAdjustmentYellow = 0,
			ShadowTint = 0,
			Shadows2012 = -20,
			SharpenDetail = 25,
			SharpenEdgeMasking = 0,
			SharpenRadius = 1,
			Sharpness = 9,
			SplitToningBalance = -7,
			SplitToningHighlightHue = 143,
			SplitToningHighlightSaturation = 8,
			SplitToningShadowHue = 344,
			SplitToningShadowSaturation = 23,
			ToneCurveName2012 = "Custom",
			ToneCurvePV2012 = {
				0,
				27,
				70,
				60,
				125,
				121,
				255,
				255,
			},
			ToneCurvePV2012Blue = {
				0,
				0,
				255,
				255,
			},
			ToneCurvePV2012Green = {
				0,
				0,
				255,
				255,
			},
			ToneCurvePV2012Red = {
				0,
				0,
				255,
				255,
			},
			Vibrance = -9,
			VignetteAmount = 0,
			VignetteMidpoint = 50,
			WhiteBalance = "Custom",
			Whites2012 = 0,
		},
		uuid = "11FAD968-023E-44F9-A9EC-ECBFFDC0BB9E",
	},
	version = 0,
}
