presets/lightroom/_presets/Develop Presets/RU_templates/68.lrtemplate
s = {
	id = "B0B0A51B-E86C-4C6F-AFAD-DEADC0192F21",
	internalName = "68",
	title = "68",
	type = "Develop",
	value = {
		settings = {
			AutoLateralCA = 0,
			Blacks2012 = 29,
			BlueHue = 0,
			BlueSaturation = 0,
			CameraProfile = "// Fuji Pro 400H (Noritsu)",
			ChromaticAberrationB = 0,
			ChromaticAberrationR = 0,
			Clarity2012 = 2,
			ColorNoiseReduction = 8,
			ColorNoiseReductionDetail = 50,
			ColorNoiseReductionSmoothness = 50,
			Contrast2012 = 0,
			ConvertToGrayscale = false,
			Defringe = 0,
			DefringeGreenAmount = 0,
			DefringeGreenHueHi = 60,
			DefringeGreenHueLo = 40,
			DefringePurpleAmount = 0,
			DefringePurpleHueHi = 70,
			DefringePurpleHueLo = 30,
			EnableCalibration = true,
			EnableColorAdjustments = true,
			EnableDetail = true,
			EnableEffects = true,
			EnableLensCorrections = true,
			EnableSplitToning = true,
			Exposure2012 = 0,
			GrainAmount = 0,
			GrainFrequency = 40,
			GrainSize = 23,
			GreenHue = 0,
			GreenSaturation = 0,
			Highlights2012 = -17,
			HueAdjustmentAqua = 4,
			HueAdjustmentBlue = 2,
			HueAdjustmentGreen = 0,
			HueAdjustmentMagenta = 0,
			HueAdjustmentOrange = -7,
			HueAdjustmentPurple = -4,
			HueAdjustmentRed = -4,
			HueAdjustmentYellow = 0,
			LuminanceAdjustmentAqua = 9,
			LuminanceAdjustmentBlue = 9,
			LuminanceAdjustmentGreen = 9,
			LuminanceAdjustmentMagenta = 9,
			LuminanceAdjustmentOrange = 9,
			LuminanceAdjustmentPurple = 9,
			LuminanceAdjustmentRed = 9,
			LuminanceAdjustmentYellow = 9,
			LuminanceNoiseReductionContrast = 0,
			LuminanceNoiseReductionDetail = 50,
			LuminanceSmoothing = 0,
			ParametricDarks = -20,
			ParametricHighlightSplit = 75,
			ParametricHighlights = -38,
			ParametricLights = 20,
			ParametricMidtoneSplit = 49,
			ParametricShadowSplit = 28,
			ParametricShadows = -20,
			PostCropVignetteAmount = 0,
			PostCropVignetteFeather = 50,
			PostCropVignetteHighlightContrast = 0,
			PostCropVignetteMidpoint = 50,
			PostCropVignetteRoundness = 0,
			PostCropVignetteStyle = 1,
			ProcessVersion = "6.7",
			RedHue = 0,
			RedSaturation = 0,
			Saturation = 0,
			SaturationAdjustmentAqua = 0,
			SaturationAdjustmentBlue = -20,
			SaturationAdjustmentGreen = -2,
			SaturationAdjustmentMagenta = 0,
			SaturationAdjustmentOrange = -7,
			SaturationAdjustmentPurple = -2,
			SaturationAdjustmentRed = 0,
			SaturationAdjustmentYellow = 0,
			ShadowTint = 0,
			Shadows2012 = 31,
			SharpenDetail = 25,
			SharpenEdgeMasking = 0,
			SharpenRadius = 1,
			Sharpness = 0,
			SplitToningBalance = 0,
			SplitToningHighlightHue = 0,
			SplitToningHighlightSaturation = 0,
			SplitToningShadowHue = 0,
			SplitToningShadowSaturation = 0,
			Temperature = 4381,
			Tint = 10,
			ToneCurveName2012 = "Custom",
			ToneCurvePV2012 = {
				0,
				0,
				255,
				255,
			},
			ToneCurvePV2012Blue = {
				0,
				14,
				37,
				36,
				80,
				76,
				174,
				170,
				214,
				211,
				255,
				248,
			},
			ToneCurvePV2012Green = {
				0,
				14,
				49,
				52,
				136,
				139,
				219,
				219,
				255,
				249,
			},
			ToneCurvePV2012Red = {
				0,
				19,
				38,
				44,
				129,
				131,
				182,
				186,
				255,
				255,
			},
			Vibrance = 14,
			VignetteAmount = 0,
			VignetteMidpoint = 50,
			WhiteBalance = "Custom",
			Whites2012 = -22,
		},
		uuid = "0F773396-9650-42D0-AA42-DC35F6B792CA",
	},
	version = 0,
}
