presets/lightroom/_presets/Develop Presets/RU_templates/70.lrtemplate
s = {
	id = "E7273D24-32FC-4C3A-9DBF-B07059EF0C65",
	internalName = "70",
	title = "70",
	type = "Develop",
	value = {
		settings = {
			AutoLateralCA = 0,
			Blacks2012 = 62,
			BlueHue = 0,
			BlueSaturation = -18,
			CameraProfile = "Adobe Standard",
			ChromaticAberrationB = 0,
			ChromaticAberrationR = 0,
			Clarity2012 = 2,
			ColorNoiseReduction = 1,
			ColorNoiseReductionDetail = 50,
			Contrast2012 = 38,
			ConvertToGrayscale = false,
			Defringe = 0,
			DefringeGreenAmount = 0,
			DefringeGreenHueHi = 60,
			DefringeGreenHueLo = 40,
			DefringePurpleAmount = 0,
			DefringePurpleHueHi = 70,
			DefringePurpleHueLo = 30,
			EnableCalibration = true,
			EnableColorAdjustments = true,
			EnableDetail = true,
			EnableEffects = true,
			EnableLensCorrections = true,
			EnableSplitToning = true,
			Exposure2012 = 0.95,
			GrainAmount = 0,
			GrainFrequency = 50,
			GrainSize = 50,
			GreenHue = 0,
			GreenSaturation = 8,
			Highlights2012 = -71,
			HueAdjustmentAqua = 0,
			HueAdjustmentBlue = 0,
			HueAdjustmentGreen = 0,
			HueAdjustmentMagenta = 0,
			HueAdjustmentOrange = 0,
			HueAdjustmentPurple = 0,
			HueAdjustmentRed = 0,
			HueAdjustmentYellow = 0,
			LensProfileEnable = 0,
			LensProfileSetup = "LensDefaults",
			LuminanceAdjustmentAqua = 0,
			LuminanceAdjustmentBlue = 0,
			LuminanceAdjustmentGreen = 0,
			LuminanceAdjustmentMagenta = 0,
			LuminanceAdjustmentOrange = 8,
			LuminanceAdjustmentPurple = 0,
			LuminanceAdjustmentRed = 3,
			LuminanceAdjustmentYellow = 10,
			LuminanceNoiseReductionContrast = 0,
			LuminanceNoiseReductionDetail = 50,
			LuminanceSmoothing = 0,
			ParametricDarks = 1,
			ParametricHighlightSplit = 75,
			ParametricHighlights = 5,
			ParametricLights = -22,
			ParametricMidtoneSplit = 50,
			ParametricShadowSplit = 25,
			ParametricShadows = 46,
			PostCropVignetteAmount = 5,
			PostCropVignetteFeather = 55,
			PostCropVignetteHighlightContrast = 0,
			PostCropVignetteMidpoint = 50,
			PostCropVignetteRoundness = 17,
			PostCropVignetteStyle = 1,
			ProcessVersion = "6.7",
			RedHue = 1,
			RedSaturation = -12,
			Saturation = 0,
			SaturationAdjustmentAqua = -42,
			SaturationAdjustmentBlue = -25,
			SaturationAdjustmentGreen = -44,
			SaturationAdjustmentMagenta = -29,
			SaturationAdjustmentOrange = -7,
			SaturationAdjustmentPurple = -20,
			SaturationAdjustmentRed = -16,
			SaturationAdjustmentYellow = -24,
			ShadowTint = 23,
			Shadows2012 = 26,
			SharpenDetail = 75,
			SharpenEdgeMasking = 0,
			SharpenRadius = 1.4,
			Sharpness = 9,
			SplitToningBalance = 27,
			SplitToningHighlightHue = 0,
			SplitToningHighlightSaturation = 0,
			SplitToningShadowHue = 189,
			SplitToningShadowSaturation = 0,
			Temperature = 4079,
			Tint = -11,
			ToneCurveName2012 = "Linear",
			ToneCurvePV2012 = {
				0,
				0,
				255,
				255,
			},
			ToneCurvePV2012Blue = {
				0,
				0,
				255,
				255,
			},
			ToneCurvePV2012Green = {
				0,
				0,
				255,
				255,
			},
			ToneCurvePV2012Red = {
				0,
				0,
				255,
				255,
			},
			Vibrance = 29,
			VignetteAmount = -51,
			VignetteMidpoint = 0,
			WhiteBalance = "Custom",
			Whites2012 = -55,
		},
		uuid = "CE573AA7-F88B-4F35-9EB3-AE6E911E0266",
	},
	version = 0,
}
