presets/lightroom/_presets/Develop Presets/RU_templates/80 .lrtemplate
s = {
	id = "84174863-6FC3-4446-A6C9-6D3522DFAFDD",
	internalName = "70",
	title = "70",
	type = "Develop",
	value = {
		settings = {
			AutoBrightness = false,
			AutoContrast = false,
			AutoExposure = false,
			AutoLateralCA = 0,
			AutoShadows = false,
			BlueHue = 0,
			BlueSaturation = -18,
			Brightness = 33,
			CameraProfile = "ACR 4.4",
			ChromaticAberrationB = 0,
			ChromaticAberrationR = 0,
			Clarity = 20,
			ColorNoiseReduction = 1,
			ColorNoiseReductionDetail = 50,
			ColorNoiseReductionSmoothness = 50,
			Contrast = 9,
			ConvertToGrayscale = false,
			Defringe = 0,
			DefringeGreenAmount = 0,
			DefringeGreenHueHi = 60,
			DefringeGreenHueLo = 40,
			DefringePurpleAmount = 0,
			DefringePurpleHueHi = 70,
			DefringePurpleHueLo = 30,
			EnableCalibration = true,
			EnableColorAdjustments = true,
			EnableDetail = true,
			EnableEffects = true,
			EnableLensCorrections = true,
			EnableSplitToning = true,
			Exposure = 0.29,
			FillLight = 32,
			GrainAmount = 0,
			GrainFrequency = 50,
			GrainSize = 50,
			GreenHue = 0,
			GreenSaturation = 8,
			HighlightRecovery = 42,
			HueAdjustmentAqua = 0,
			HueAdjustmentBlue = 0,
			HueAdjustmentGreen = 0,
			HueAdjustmentMagenta = 0,
			HueAdjustmentOrange = 0,
			HueAdjustmentPurple = 0,
			HueAdjustmentRed = 0,
			HueAdjustmentYellow = 0,
			IncrementalTemperature = 0,
			IncrementalTint = -13,
			LuminanceAdjustmentAqua = 0,
			LuminanceAdjustmentBlue = 0,
			LuminanceAdjustmentGreen = 0,
			LuminanceAdjustmentMagenta = 0,
			LuminanceAdjustmentOrange = 8,
			LuminanceAdjustmentPurple = 0,
			LuminanceAdjustmentRed = 3,
			LuminanceAdjustmentYellow = 10,
			LuminanceNoiseReductionContrast = 0,
			LuminanceNoiseReductionDetail = 50,
			LuminanceSmoothing = 0,
			ParametricDarks = 12,
			ParametricHighlightSplit = 75,
			ParametricHighlights = 3,
			ParametricLights = 14,
			ParametricMidtoneSplit = 50,
			ParametricShadowSplit = 25,
			ParametricShadows = -5,
			PostCropVignetteAmount = -22,
			PostCropVignetteFeather = 71,
			PostCropVignetteHighlightContrast = 0,
			PostCropVignetteMidpoint = 50,
			PostCropVignetteRoundness = 43,
			PostCropVignetteStyle = 1,
			ProcessVersion = "5.7",
			RedHue = 1,
			RedSaturation = -12,
			Saturation = 0,
			SaturationAdjustmentAqua = -30,
			SaturationAdjustmentBlue = -48,
			SaturationAdjustmentGreen = 0,
			SaturationAdjustmentMagenta = 14,
			SaturationAdjustmentOrange = 0,
			SaturationAdjustmentPurple = 52,
			SaturationAdjustmentRed = 8,
			SaturationAdjustmentYellow = 0,
			ShadowTint = 23,
			Shadows = 0,
			SharpenDetail = 75,
			SharpenEdgeMasking = 0,
			SharpenRadius = 1.4,
			Sharpness = 9,
			SplitToningBalance = 27,
			SplitToningHighlightHue = 49,
			SplitToningHighlightSaturation = 26,
			SplitToningShadowHue = 240,
			SplitToningShadowSaturation = 34,
			ToneCurve = {
				0,
				0,
				32,
				22,
				64,
				56,
				128,
				128,
				192,
				196,
				255,
				255,
			},
			ToneCurveName = "Medium Contrast",
			Vibrance = -15,
			VignetteAmount = -51,
			VignetteMidpoint = 0,
			WhiteBalance = "Custom",
		},
		uuid = "55C3B534-8E0D-405F-8908-A3F83620FD5C",
	},
	version = 0,
}
