presets/lightroom/_presets/Develop Presets/VSCO Film 07 - Standard/S - Agfa Ultra 50.lrtemplate
s = {
	id = "0515B57B-795C-4846-A0F0-B8973C399471",
	internalName = "S - Agfa Ultra 50",
	title = "S - Agfa Ultra 50",
	type = "Develop",
	value = {
		settings = {
			Blacks2012 = 35,
			BlueHue = 0,
			BlueSaturation = 20,
			CameraProfile = "Adobe Standard",
			Clarity2012 = 0,
			Contrast2012 = 0,
			ConvertToGrayscale = false,
			EnableCalibration = true,
			EnableColorAdjustments = true,
			EnableDetail = true,
			EnableEffects = true,
			EnableSplitToning = true,
			GrainAmount = 20,
			GrainFrequency = 40,
			GrainSize = 18,
			GreenHue = 0,
			GreenSaturation = 25,
			Highlights2012 = -35,
			HueAdjustmentAqua = -5,
			HueAdjustmentBlue = -5,
			HueAdjustmentGreen = 15,
			HueAdjustmentMagenta = 10,
			HueAdjustmentOrange = 5,
			HueAdjustmentPurple = 0,
			HueAdjustmentRed = 5,
			HueAdjustmentYellow = 15,
			LuminanceAdjustmentAqua = -10,
			LuminanceAdjustmentBlue = -20,
			LuminanceAdjustmentGreen = 0,
			LuminanceAdjustmentMagenta = -5,
			LuminanceAdjustmentOrange = -10,
			LuminanceAdjustmentPurple = -5,
			LuminanceAdjustmentRed = -10,
			LuminanceAdjustmentYellow = 0,
			ParametricDarks = -15,
			ParametricHighlightSplit = 80,
			ParametricHighlights = -25,
			ParametricLights = 30,
			ParametricMidtoneSplit = 42,
			ParametricShadowSplit = 22,
			ParametricShadows = -30,
			ProcessVersion = "6.7",
			RedHue = 20,
			RedSaturation = -15,
			Saturation = 0,
			SaturationAdjustmentAqua = -5,
			SaturationAdjustmentBlue = -15,
			SaturationAdjustmentGreen = -20,
			SaturationAdjustmentMagenta = -5,
			SaturationAdjustmentOrange = -10,
			SaturationAdjustmentPurple = -5,
			SaturationAdjustmentRed = -15,
			SaturationAdjustmentYellow = 0,
			ShadowTint = 0,
			Shadows2012 = 25,
			SharpenDetail = 25,
			SharpenEdgeMasking = 0,
			SharpenRadius = 1,
			Sharpness = 25,
			SplitToningBalance = 0,
			SplitToningHighlightHue = 0,
			SplitToningHighlightSaturation = 0,
			SplitToningShadowHue = 0,
			SplitToningShadowSaturation = 0,
			ToneCurveName2012 = "Custom",
			ToneCurvePV2012 = {
				0,
				0,
				255,
				255,
			},
			ToneCurvePV2012Blue = {
				0,
				0,
				57,
				53,
				184,
				193,
				255,
				255,
			},
			ToneCurvePV2012Green = {
				0,
				0,
				61,
				51,
				126,
				123,
				186,
				187,
				255,
				255,
			},
			ToneCurvePV2012Red = {
				0,
				0,
				61,
				46,
				126,
				121,
				187,
				188,
				255,
				255,
			},
			Vibrance = 0,
			Whites2012 = -30,
		},
		uuid = "D11CCB7D-15C0-4BD9-B65A-476CD172CB8C",
	},
	version = 0,
}
