presets/lightroom/_presets/Develop Presets/VSCO Film 07 - Standard/S - Kodak Elite 50 II +.lrtemplate
s = {
	id = "CE1167BE-05CD-4D1D-B012-81336E297BCA",
	internalName = "S - Kodak Elite 50 II +",
	title = "S - Kodak Elite 50 II +",
	type = "Develop",
	value = {
		settings = {
			Blacks2012 = 40,
			BlueHue = 0,
			BlueSaturation = -5,
			CameraProfile = "Adobe Standard",
			Clarity2012 = 0,
			Contrast2012 = 0,
			ConvertToGrayscale = false,
			EnableCalibration = true,
			EnableColorAdjustments = true,
			EnableDetail = true,
			EnableEffects = true,
			EnableSplitToning = true,
			GrainAmount = 15,
			GrainFrequency = 20,
			GrainSize = 15,
			GreenHue = 20,
			GreenSaturation = -50,
			Highlights2012 = -25,
			HueAdjustmentAqua = 0,
			HueAdjustmentBlue = 15,
			HueAdjustmentGreen = 15,
			HueAdjustmentMagenta = 0,
			HueAdjustmentOrange = 5,
			HueAdjustmentPurple = 0,
			HueAdjustmentRed = 8,
			HueAdjustmentYellow = 0,
			LuminanceAdjustmentAqua = -5,
			LuminanceAdjustmentBlue = -15,
			LuminanceAdjustmentGreen = -5,
			LuminanceAdjustmentMagenta = 0,
			LuminanceAdjustmentOrange = -10,
			LuminanceAdjustmentPurple = -5,
			LuminanceAdjustmentRed = -20,
			LuminanceAdjustmentYellow = 0,
			ParametricDarks = -10,
			ParametricHighlightSplit = 61,
			ParametricHighlights = 0,
			ParametricLights = 0,
			ParametricMidtoneSplit = 36,
			ParametricShadowSplit = 18,
			ParametricShadows = -5,
			ProcessVersion = "6.7",
			RedHue = 20,
			RedSaturation = 30,
			Saturation = -10,
			SaturationAdjustmentAqua = 0,
			SaturationAdjustmentBlue = 0,
			SaturationAdjustmentGreen = 0,
			SaturationAdjustmentMagenta = -10,
			SaturationAdjustmentOrange = 0,
			SaturationAdjustmentPurple = -10,
			SaturationAdjustmentRed = -15,
			SaturationAdjustmentYellow = 0,
			ShadowTint = 0,
			Shadows2012 = 20,
			SharpenDetail = 25,
			SharpenEdgeMasking = 0,
			SharpenRadius = 1,
			Sharpness = 25,
			SplitToningBalance = 0,
			SplitToningHighlightHue = 0,
			SplitToningHighlightSaturation = 0,
			SplitToningShadowHue = 0,
			SplitToningShadowSaturation = 0,
			ToneCurveName2012 = "Kodak Elite 50 II +",
			ToneCurvePV2012 = {
				0,
				16,
				54,
				58,
				255,
				255,
			},
			ToneCurvePV2012Blue = {
				0,
				0,
				59,
				45,
				119,
				131,
				198,
				210,
				255,
				248,
			},
			ToneCurvePV2012Green = {
				0,
				0,
				62,
				45,
				119,
				126,
				197,
				213,
				255,
				249,
			},
			ToneCurvePV2012Red = {
				0,
				0,
				20,
				6,
				63,
				43,
				120,
				131,
				198,
				210,
				255,
				255,
			},
			Vibrance = 0,
			Whites2012 = -35,
		},
		uuid = "1A6E7FAA-659C-4F84-A9DF-8AF5925D4B76",
	},
	version = 0,
}
