presets/lightroom/_presets/Develop Presets/VSCO Film 07 - Standard/S - Fuji 160S - -.lrtemplate
s = {
	id = "C8AE7B8F-DDF4-4695-A934-4F58186EA5D5",
	internalName = "S - Fuji 160S - -",
	title = "S - Fuji 160S - -",
	type = "Develop",
	value = {
		settings = {
			Blacks2012 = 20,
			BlueHue = 10,
			BlueSaturation = -30,
			CameraProfile = "Adobe Standard",
			Clarity2012 = 0,
			Contrast2012 = 0,
			ConvertToGrayscale = false,
			EnableCalibration = true,
			EnableColorAdjustments = true,
			EnableDetail = true,
			EnableEffects = true,
			EnableSplitToning = true,
			GrainAmount = 0,
			GrainFrequency = 55,
			GrainSize = 25,
			GreenHue = 15,
			GreenSaturation = -30,
			Highlights2012 = -25,
			HueAdjustmentAqua = 0,
			HueAdjustmentBlue = -15,
			HueAdjustmentGreen = 15,
			HueAdjustmentMagenta = 5,
			HueAdjustmentOrange = 0,
			HueAdjustmentPurple = 0,
			HueAdjustmentRed = 10,
			HueAdjustmentYellow = 0,
			LuminanceAdjustmentAqua = -5,
			LuminanceAdjustmentBlue = -20,
			LuminanceAdjustmentGreen = 10,
			LuminanceAdjustmentMagenta = 0,
			LuminanceAdjustmentOrange = 0,
			LuminanceAdjustmentPurple = -5,
			LuminanceAdjustmentRed = -10,
			LuminanceAdjustmentYellow = 10,
			ParametricDarks = 5,
			ParametricHighlightSplit = 64,
			ParametricHighlights = -5,
			ParametricLights = 20,
			ParametricMidtoneSplit = 35,
			ParametricShadowSplit = 17,
			ParametricShadows = 0,
			ProcessVersion = "6.7",
			RedHue = 10,
			RedSaturation = 15,
			Saturation = 0,
			SaturationAdjustmentAqua = -15,
			SaturationAdjustmentBlue = -10,
			SaturationAdjustmentGreen = -20,
			SaturationAdjustmentMagenta = -5,
			SaturationAdjustmentOrange = 0,
			SaturationAdjustmentPurple = -25,
			SaturationAdjustmentRed = 0,
			SaturationAdjustmentYellow = 0,
			ShadowTint = 0,
			Shadows2012 = 15,
			SharpenDetail = 25,
			SharpenEdgeMasking = 0,
			SharpenRadius = 1,
			Sharpness = 25,
			SplitToningBalance = 0,
			SplitToningHighlightHue = 0,
			SplitToningHighlightSaturation = 0,
			SplitToningShadowHue = 0,
			SplitToningShadowSaturation = 0,
			ToneCurveName2012 = "Fuji 160S - -",
			ToneCurvePV2012 = {
				0,
				0,
				21,
				24,
				61,
				63,
				126,
				124,
				193,
				191,
				255,
				255,
			},
			ToneCurvePV2012Blue = {
				0,
				0,
				35,
				24,
				123,
				116,
				197,
				202,
				255,
				255,
			},
			ToneCurvePV2012Green = {
				0,
				0,
				35,
				24,
				121,
				116,
				196,
				201,
				255,
				255,
			},
			ToneCurvePV2012Red = {
				0,
				0,
				36,
				23,
				78,
				64,
				121,
				117,
				196,
				203,
				255,
				255,
			},
			Vibrance = 0,
			Whites2012 = -15,
		},
		uuid = "4E3B3FEE-6953-4A91-8819-054451A11E18",
	},
	version = 0,
}
