presets/lightroom/_presets/Develop Presets/VSCO Film 07 - Standard/S - Agfa Ultra 100 - -.lrtemplate
s = {
	id = "E6D27884-7ED9-42C6-9F87-C55E00B065D0",
	internalName = "S - Agfa Ultra 100 - -",
	title = "S - Agfa Ultra 100 - -",
	type = "Develop",
	value = {
		settings = {
			Blacks2012 = 35,
			BlueHue = 15,
			BlueSaturation = 35,
			CameraProfile = "Adobe Standard",
			Clarity2012 = 0,
			Contrast2012 = 0,
			ConvertToGrayscale = false,
			EnableCalibration = true,
			EnableColorAdjustments = true,
			EnableDetail = true,
			EnableEffects = true,
			EnableSplitToning = true,
			GrainAmount = 25,
			GrainFrequency = 40,
			GrainSize = 20,
			GreenHue = 20,
			GreenSaturation = -20,
			Highlights2012 = -25,
			HueAdjustmentAqua = 0,
			HueAdjustmentBlue = -10,
			HueAdjustmentGreen = 12,
			HueAdjustmentMagenta = 10,
			HueAdjustmentOrange = 5,
			HueAdjustmentPurple = 0,
			HueAdjustmentRed = 5,
			HueAdjustmentYellow = 15,
			LuminanceAdjustmentAqua = -10,
			LuminanceAdjustmentBlue = -15,
			LuminanceAdjustmentGreen = -15,
			LuminanceAdjustmentMagenta = -10,
			LuminanceAdjustmentOrange = -15,
			LuminanceAdjustmentPurple = -5,
			LuminanceAdjustmentRed = -15,
			LuminanceAdjustmentYellow = -5,
			ParametricDarks = 5,
			ParametricHighlightSplit = 75,
			ParametricHighlights = 0,
			ParametricLights = 22,
			ParametricMidtoneSplit = 49,
			ParametricShadowSplit = 27,
			ParametricShadows = -30,
			ProcessVersion = "6.7",
			RedHue = 10,
			RedSaturation = 5,
			Saturation = 0,
			SaturationAdjustmentAqua = -5,
			SaturationAdjustmentBlue = -10,
			SaturationAdjustmentGreen = -15,
			SaturationAdjustmentMagenta = -25,
			SaturationAdjustmentOrange = -10,
			SaturationAdjustmentPurple = -10,
			SaturationAdjustmentRed = -10,
			SaturationAdjustmentYellow = -5,
			ShadowTint = 0,
			Shadows2012 = 25,
			SharpenDetail = 25,
			SharpenEdgeMasking = 0,
			SharpenRadius = 1,
			Sharpness = 25,
			SplitToningBalance = 0,
			SplitToningHighlightHue = 0,
			SplitToningHighlightSaturation = 0,
			SplitToningShadowHue = 0,
			SplitToningShadowSaturation = 0,
			ToneCurveName2012 = "Agfa Ultra 100 - -",
			ToneCurvePV2012 = {
				0,
				0,
				17,
				26,
				67,
				74,
				125,
				125,
				192,
				186,
				255,
				255,
			},
			ToneCurvePV2012Blue = {
				0,
				0,
				15,
				10,
				60,
				48,
				126,
				124,
				180,
				183,
				255,
				255,
			},
			ToneCurvePV2012Green = {
				0,
				0,
				15,
				10,
				126,
				124,
				179,
				183,
				255,
				255,
			},
			ToneCurvePV2012Red = {
				0,
				0,
				58,
				46,
				125,
				124,
				177,
				183,
				255,
				255,
			},
			Vibrance = 0,
			Whites2012 = -20,
		},
		uuid = "B16EE44C-95D3-41F8-AA03-ACCC5523FB0B",
	},
	version = 0,
}
