presets/lightroom/_presets/Develop Presets/VSCO Film 07 - Standard/S - Agfa Optima 100 II Cool.lrtemplate
s = {
	id = "333463BA-83A7-4927-BCF5-17387DB9E73A",
	internalName = "S - Agfa Optima 100 II Cool",
	title = "S - Agfa Optima 100 II Cool",
	type = "Develop",
	value = {
		settings = {
			Blacks2012 = 35,
			BlueHue = 25,
			BlueSaturation = 20,
			CameraProfile = "Adobe Standard",
			Clarity2012 = 0,
			Contrast2012 = 0,
			ConvertToGrayscale = false,
			EnableCalibration = true,
			EnableColorAdjustments = true,
			EnableDetail = true,
			EnableEffects = true,
			EnableSplitToning = true,
			GrainAmount = 25,
			GrainFrequency = 55,
			GrainSize = 18,
			GreenHue = 25,
			GreenSaturation = -10,
			Highlights2012 = -25,
			HueAdjustmentAqua = -5,
			HueAdjustmentBlue = -15,
			HueAdjustmentGreen = 5,
			HueAdjustmentMagenta = 10,
			HueAdjustmentOrange = 0,
			HueAdjustmentPurple = -10,
			HueAdjustmentRed = 5,
			HueAdjustmentYellow = 0,
			LuminanceAdjustmentAqua = -15,
			LuminanceAdjustmentBlue = -20,
			LuminanceAdjustmentGreen = -10,
			LuminanceAdjustmentMagenta = 0,
			LuminanceAdjustmentOrange = 0,
			LuminanceAdjustmentPurple = -10,
			LuminanceAdjustmentRed = -15,
			LuminanceAdjustmentYellow = 5,
			ParametricDarks = -15,
			ParametricHighlightSplit = 67,
			ParametricHighlights = 10,
			ParametricLights = 10,
			ParametricMidtoneSplit = 39,
			ParametricShadowSplit = 20,
			ParametricShadows = -25,
			ProcessVersion = "6.7",
			RedHue = 15,
			RedSaturation = 30,
			Saturation = -5,
			SaturationAdjustmentAqua = -15,
			SaturationAdjustmentBlue = -20,
			SaturationAdjustmentGreen = -30,
			SaturationAdjustmentMagenta = -30,
			SaturationAdjustmentOrange = -5,
			SaturationAdjustmentPurple = -25,
			SaturationAdjustmentRed = -15,
			SaturationAdjustmentYellow = 5,
			ShadowTint = 0,
			Shadows2012 = 25,
			SharpenDetail = 25,
			SharpenEdgeMasking = 0,
			SharpenRadius = 1,
			Sharpness = 15,
			SplitToningBalance = 0,
			SplitToningHighlightHue = 0,
			SplitToningHighlightSaturation = 0,
			SplitToningShadowHue = 0,
			SplitToningShadowSaturation = 0,
			ToneCurveName2012 = "Agfa Optima 100 II Cool",
			ToneCurvePV2012 = {
				0,
				0,
				255,
				255,
			},
			ToneCurvePV2012Blue = {
				0,
				0,
				16,
				15,
				125,
				135,
				255,
				255,
			},
			ToneCurvePV2012Green = {
				0,
				0,
				17,
				11,
				77,
				70,
				131,
				133,
				185,
				191,
				255,
				255,
			},
			ToneCurvePV2012Red = {
				0,
				0,
				17,
				9,
				79,
				68,
				130,
				130,
				188,
				193,
				255,
				255,
			},
			Vibrance = 0,
			Whites2012 = -25,
		},
		uuid = "DA7086D9-A9A6-4CFC-AEC2-A665EE45CD86",
	},
	version = 0,
}
