presets/lightroom/_presets/Develop Presets/VSCO Film 07 - Standard/S - Kodak Ektachrome 64 Cool.lrtemplate
s = {
	id = "7228C2FA-A7CD-43D6-88D2-E1646F2D6BAC",
	internalName = "S - Kodak Ektachrome 64 Cool",
	title = "S - Kodak Ektachrome 64 Cool",
	type = "Develop",
	value = {
		settings = {
			Blacks2012 = 15,
			BlueHue = 5,
			BlueSaturation = -20,
			CameraProfile = "Adobe Standard",
			Clarity2012 = 0,
			Contrast2012 = 0,
			ConvertToGrayscale = false,
			EnableCalibration = true,
			EnableColorAdjustments = true,
			EnableDetail = true,
			EnableEffects = true,
			EnableSplitToning = true,
			GrainAmount = 0,
			GrainFrequency = 50,
			GrainSize = 25,
			GreenHue = 45,
			GreenSaturation = -45,
			Highlights2012 = -15,
			HueAdjustmentAqua = 5,
			HueAdjustmentBlue = 5,
			HueAdjustmentGreen = 10,
			HueAdjustmentMagenta = 0,
			HueAdjustmentOrange = 0,
			HueAdjustmentPurple = 5,
			HueAdjustmentRed = 10,
			HueAdjustmentYellow = 10,
			LuminanceAdjustmentAqua = -20,
			LuminanceAdjustmentBlue = -20,
			LuminanceAdjustmentGreen = -20,
			LuminanceAdjustmentMagenta = -5,
			LuminanceAdjustmentOrange = -5,
			LuminanceAdjustmentPurple = -10,
			LuminanceAdjustmentRed = -25,
			LuminanceAdjustmentYellow = -15,
			ParametricDarks = -5,
			ParametricHighlightSplit = 81,
			ParametricHighlights = -25,
			ParametricLights = 25,
			ParametricMidtoneSplit = 43,
			ParametricShadowSplit = 25,
			ParametricShadows = -10,
			ProcessVersion = "6.7",
			RedHue = 25,
			RedSaturation = 35,
			Saturation = 0,
			SaturationAdjustmentAqua = 10,
			SaturationAdjustmentBlue = 20,
			SaturationAdjustmentGreen = -10,
			SaturationAdjustmentMagenta = -25,
			SaturationAdjustmentOrange = -5,
			SaturationAdjustmentPurple = -10,
			SaturationAdjustmentRed = -15,
			SaturationAdjustmentYellow = 0,
			ShadowTint = 0,
			Shadows2012 = 15,
			SharpenDetail = 25,
			SharpenEdgeMasking = 0,
			SharpenRadius = 1,
			Sharpness = 25,
			SplitToningBalance = 0,
			SplitToningHighlightHue = 0,
			SplitToningHighlightSaturation = 0,
			SplitToningShadowHue = 0,
			SplitToningShadowSaturation = 0,
			ToneCurveName2012 = "Kodak Ektachrome 64 Cool",
			ToneCurvePV2012 = {
				0,
				0,
				255,
				255,
			},
			ToneCurvePV2012Blue = {
				0,
				0,
				64,
				60,
				126,
				128,
				187,
				193,
				255,
				255,
			},
			ToneCurvePV2012Green = {
				0,
				0,
				67,
				57,
				124,
				126,
				188,
				191,
				220,
				222,
				255,
				255,
			},
			ToneCurvePV2012Red = {
				0,
				0,
				68,
				52,
				128,
				125,
				188,
				190,
				255,
				255,
			},
			Vibrance = 0,
			Whites2012 = -20,
		},
		uuid = "C3E3678A-DE3E-413E-97C4-1AB1C72E4A30",
	},
	version = 0,
}
