presets/lightroom/_presets/Develop Presets/VSCO Film 07 - Standard/S - Agfa RSX 200 II - -.lrtemplate
s = {
	id = "FDEC25AD-A443-44B0-ADD2-E5BAEB49F17F",
	internalName = "S - Agfa RSX 200 II - -",
	title = "S - Agfa RSX 200 II - -",
	type = "Develop",
	value = {
		settings = {
			Blacks2012 = 20,
			BlueHue = -5,
			BlueSaturation = 0,
			CameraProfile = "Adobe Standard",
			Clarity2012 = 0,
			Contrast2012 = 0,
			ConvertToGrayscale = false,
			EnableCalibration = true,
			EnableColorAdjustments = true,
			EnableDetail = true,
			EnableEffects = true,
			EnableSplitToning = true,
			GrainAmount = 0,
			GrainFrequency = 50,
			GrainSize = 20,
			GreenHue = 35,
			GreenSaturation = -40,
			Highlights2012 = -30,
			HueAdjustmentAqua = 0,
			HueAdjustmentBlue = 0,
			HueAdjustmentGreen = -15,
			HueAdjustmentMagenta = 15,
			HueAdjustmentOrange = -2,
			HueAdjustmentPurple = 15,
			HueAdjustmentRed = 15,
			HueAdjustmentYellow = 0,
			LuminanceAdjustmentAqua = -10,
			LuminanceAdjustmentBlue = -15,
			LuminanceAdjustmentGreen = -20,
			LuminanceAdjustmentMagenta = 0,
			LuminanceAdjustmentOrange = 0,
			LuminanceAdjustmentPurple = -10,
			LuminanceAdjustmentRed = -15,
			LuminanceAdjustmentYellow = -10,
			ParametricDarks = -10,
			ParametricHighlightSplit = 70,
			ParametricHighlights = -20,
			ParametricLights = 18,
			ParametricMidtoneSplit = 38,
			ParametricShadowSplit = 18,
			ParametricShadows = -5,
			ProcessVersion = "6.7",
			RedHue = 15,
			RedSaturation = 15,
			Saturation = 0,
			SaturationAdjustmentAqua = -5,
			SaturationAdjustmentBlue = -20,
			SaturationAdjustmentGreen = -5,
			SaturationAdjustmentMagenta = -25,
			SaturationAdjustmentOrange = 0,
			SaturationAdjustmentPurple = -15,
			SaturationAdjustmentRed = -8,
			SaturationAdjustmentYellow = -15,
			ShadowTint = 0,
			Shadows2012 = 10,
			SharpenDetail = 25,
			SharpenEdgeMasking = 0,
			SharpenRadius = 1,
			Sharpness = 25,
			SplitToningBalance = 0,
			SplitToningHighlightHue = 0,
			SplitToningHighlightSaturation = 0,
			SplitToningShadowHue = 0,
			SplitToningShadowSaturation = 0,
			ToneCurveName2012 = "Agfa RSX 200 II - -",
			ToneCurvePV2012 = {
				0,
				0,
				34,
				39,
				70,
				74,
				130,
				131,
				198,
				195,
				255,
				255,
			},
			ToneCurvePV2012Blue = {
				0,
				0,
				32,
				31,
				133,
				129,
				255,
				255,
			},
			ToneCurvePV2012Green = {
				0,
				0,
				255,
				255,
			},
			ToneCurvePV2012Red = {
				0,
				0,
				39,
				37,
				125,
				125,
				195,
				195,
				255,
				255,
			},
			Vibrance = 0,
			Whites2012 = -20,
		},
		uuid = "CFFD73CD-4854-41DD-B600-519BA6787CCD",
	},
	version = 0,
}
