presets/lightroom/_presets/Develop Presets/VSCO Film 07 - Standard/S - Agfa RSX 200 II +.lrtemplate
s = {
	id = "A9D9BAF3-AB08-4E9C-B6E6-E8D32CD68BC2",
	internalName = "S - Agfa RSX 200 II +",
	title = "S - Agfa RSX 200 II +",
	type = "Develop",
	value = {
		settings = {
			Blacks2012 = 5,
			BlueHue = -15,
			BlueSaturation = 15,
			CameraProfile = "Adobe Standard",
			Clarity2012 = 0,
			Contrast2012 = 0,
			ConvertToGrayscale = false,
			EnableCalibration = true,
			EnableColorAdjustments = true,
			EnableDetail = true,
			EnableEffects = true,
			EnableSplitToning = true,
			GrainAmount = 28,
			GrainFrequency = 60,
			GrainSize = 20,
			GreenHue = 35,
			GreenSaturation = -40,
			Highlights2012 = -15,
			HueAdjustmentAqua = 0,
			HueAdjustmentBlue = 0,
			HueAdjustmentGreen = -15,
			HueAdjustmentMagenta = 15,
			HueAdjustmentOrange = -2,
			HueAdjustmentPurple = 15,
			HueAdjustmentRed = 15,
			HueAdjustmentYellow = 0,
			LuminanceAdjustmentAqua = -10,
			LuminanceAdjustmentBlue = -20,
			LuminanceAdjustmentGreen = -20,
			LuminanceAdjustmentMagenta = 0,
			LuminanceAdjustmentOrange = 0,
			LuminanceAdjustmentPurple = -10,
			LuminanceAdjustmentRed = -25,
			LuminanceAdjustmentYellow = -10,
			ParametricDarks = -10,
			ParametricHighlightSplit = 70,
			ParametricHighlights = -20,
			ParametricLights = 18,
			ParametricMidtoneSplit = 38,
			ParametricShadowSplit = 18,
			ParametricShadows = -5,
			ProcessVersion = "6.7",
			RedHue = 15,
			RedSaturation = 15,
			Saturation = 0,
			SaturationAdjustmentAqua = -5,
			SaturationAdjustmentBlue = -20,
			SaturationAdjustmentGreen = -5,
			SaturationAdjustmentMagenta = -25,
			SaturationAdjustmentOrange = 0,
			SaturationAdjustmentPurple = -15,
			SaturationAdjustmentRed = -8,
			SaturationAdjustmentYellow = -15,
			ShadowTint = 0,
			Shadows2012 = 10,
			SharpenDetail = 25,
			SharpenEdgeMasking = 0,
			SharpenRadius = 1,
			Sharpness = 15,
			SplitToningBalance = 0,
			SplitToningHighlightHue = 0,
			SplitToningHighlightSaturation = 0,
			SplitToningShadowHue = 0,
			SplitToningShadowSaturation = 0,
			ToneCurveName2012 = "Agfa RSX 200 II +",
			ToneCurvePV2012 = {
				0,
				9,
				15,
				17,
				42,
				43,
				255,
				255,
			},
			ToneCurvePV2012Blue = {
				0,
				0,
				30,
				32,
				131,
				124,
				200,
				189,
				255,
				251,
			},
			ToneCurvePV2012Green = {
				0,
				0,
				48,
				48,
				126,
				126,
				255,
				255,
			},
			ToneCurvePV2012Red = {
				0,
				0,
				39,
				32,
				125,
				125,
				195,
				195,
				255,
				255,
			},
			Vibrance = 0,
			Whites2012 = 0,
		},
		uuid = "A8182139-6F43-4D95-9523-CBB815B2D3A3",
	},
	version = 0,
}
