presets/lightroom/_presets/Develop Presets/VSCO Film 07 - Standard/S - Agfa Portrait XPS 160 -.lrtemplate
s = {
	id = "578C6CB7-0D18-45B0-8114-7D2411F9B042",
	internalName = "S - Agfa Portrait XPS 160 -",
	title = "S - Agfa Portrait XPS 160 -",
	type = "Develop",
	value = {
		settings = {
			Blacks2012 = 35,
			BlueHue = -10,
			BlueSaturation = 0,
			CameraProfile = "Adobe Standard",
			Clarity2012 = 0,
			Contrast2012 = 0,
			ConvertToGrayscale = false,
			EnableCalibration = true,
			EnableColorAdjustments = true,
			EnableDetail = true,
			EnableEffects = true,
			EnableSplitToning = true,
			GrainAmount = 10,
			GrainFrequency = 30,
			GrainSize = 25,
			GreenHue = 20,
			GreenSaturation = -20,
			Highlights2012 = -25,
			HueAdjustmentAqua = 5,
			HueAdjustmentBlue = 0,
			HueAdjustmentGreen = 20,
			HueAdjustmentMagenta = 10,
			HueAdjustmentOrange = 0,
			HueAdjustmentPurple = 0,
			HueAdjustmentRed = 5,
			HueAdjustmentYellow = 15,
			LuminanceAdjustmentAqua = -5,
			LuminanceAdjustmentBlue = -10,
			LuminanceAdjustmentGreen = 0,
			LuminanceAdjustmentMagenta = 0,
			LuminanceAdjustmentOrange = 0,
			LuminanceAdjustmentPurple = 0,
			LuminanceAdjustmentRed = 5,
			LuminanceAdjustmentYellow = 0,
			ParametricDarks = 5,
			ParametricHighlightSplit = 68,
			ParametricHighlights = -20,
			ParametricLights = -15,
			ParametricMidtoneSplit = 45,
			ParametricShadowSplit = 31,
			ParametricShadows = -10,
			ProcessVersion = "6.7",
			RedHue = 30,
			RedSaturation = -10,
			Saturation = -5,
			SaturationAdjustmentAqua = -10,
			SaturationAdjustmentBlue = -15,
			SaturationAdjustmentGreen = -30,
			SaturationAdjustmentMagenta = 0,
			SaturationAdjustmentOrange = 5,
			SaturationAdjustmentPurple = -10,
			SaturationAdjustmentRed = -10,
			SaturationAdjustmentYellow = -20,
			ShadowTint = 0,
			Shadows2012 = 20,
			SharpenDetail = 25,
			SharpenEdgeMasking = 0,
			SharpenRadius = 1,
			Sharpness = 20,
			SplitToningBalance = 0,
			SplitToningHighlightHue = 0,
			SplitToningHighlightSaturation = 0,
			SplitToningShadowHue = 0,
			SplitToningShadowSaturation = 0,
			ToneCurveName2012 = "Agfa Portrait XPS 160 -",
			ToneCurvePV2012 = {
				0,
				0,
				20,
				22,
				67,
				69,
				127,
				127,
				189,
				186,
				255,
				255,
			},
			ToneCurvePV2012Blue = {
				0,
				0,
				44,
				30,
				83,
				75,
				119,
				130,
				202,
				222,
				255,
				255,
			},
			ToneCurvePV2012Green = {
				0,
				0,
				44,
				29,
				82,
				75,
				118,
				130,
				200,
				224,
				255,
				255,
			},
			ToneCurvePV2012Red = {
				0,
				0,
				43,
				24,
				80,
				72,
				119,
				130,
				160,
				187,
				202,
				223,
				255,
				255,
			},
			Vibrance = 0,
			Whites2012 = -15,
		},
		uuid = "EEF3B83B-4203-4820-BE3D-A9E3CB0C7418",
	},
	version = 0,
}
