presets/lightroom/_presets/Develop Presets/05-00 LEGACY - MIXOLOGY/52. B&W Fade w- Clipped Blacks.lrtemplate
s = {
	id = "467D5C82-E44E-4EDD-9A7B-50AC36994D17",
	internalName = "51 Faded Clipped Blacks",
	title = "52. B&W Fade w/ Clipped Blacks",
	type = "Develop",
	value = {
		settings = {
			Blacks2012 = -60,
			Clarity2012 = -10,
			ColorNoiseReduction = 25,
			ColorNoiseReductionDetail = 50,
			Contrast2012 = 75,
			ConvertToGrayscale = true,
			EnableDetail = true,
			EnableEffects = true,
			EnableGradientBasedCorrections = true,
			EnableGrayscaleMix = true,
			EnableLensCorrections = true,
			EnableSplitToning = true,
			Exposure2012 = 1,
			GrainAmount = 0,
			GrainFrequency = 50,
			GrainSize = 25,
			GrayMixerAqua = 0,
			GrayMixerBlue = 0,
			GrayMixerGreen = 0,
			GrayMixerMagenta = 0,
			GrayMixerOrange = 0,
			GrayMixerPurple = 0,
			GrayMixerRed = 0,
			GrayMixerYellow = 0,
			Highlights2012 = -30,
			LuminanceNoiseReductionContrast = 0,
			LuminanceNoiseReductionDetail = 50,
			LuminanceSmoothing = 0,
			ParametricDarks = 0,
			ParametricHighlightSplit = 75,
			ParametricHighlights = 0,
			ParametricLights = 0,
			ParametricMidtoneSplit = 50,
			ParametricShadowSplit = 25,
			ParametricShadows = 0,
			PostCropVignetteAmount = 0,
			PostCropVignetteFeather = 50,
			PostCropVignetteHighlightContrast = 0,
			PostCropVignetteMidpoint = 50,
			PostCropVignetteRoundness = 0,
			PostCropVignetteStyle = 1,
			ProcessVersion = "6.7",
			Shadows2012 = -30,
			SharpenDetail = 10,
			SharpenEdgeMasking = 30,
			SharpenRadius = 1.5,
			Sharpness = 70,
			SplitToningBalance = 0,
			SplitToningHighlightHue = 0,
			SplitToningHighlightSaturation = 0,
			SplitToningShadowHue = 0,
			SplitToningShadowSaturation = 0,
			ToneCurveName2012 = "Custom",
			ToneCurvePV2012 = {
				0,
				36,
				64,
				63,
				132,
				105,
				193,
				160,
				255,
				231,
			},
			ToneCurvePV2012Blue = {
				0,
				0,
				255,
				255,
			},
			ToneCurvePV2012Green = {
				0,
				0,
				255,
				255,
			},
			ToneCurvePV2012Red = {
				0,
				0,
				255,
				255,
			},
			VignetteAmount = 30,
			VignetteMidpoint = 30,
			Whites2012 = -30,
			orientation = "AB",
		},
		uuid = "4EEE674B-8C82-40B4-B761-E60B5EA34772",
	},
	version = 0,
}
