presets/lightroom/_presets/Develop Presets/+L 15 Skin Squeeze (HSL)/05 Skin Squeeze 30.lrtemplate
s = {
	id = "C525965A-78B8-4B9D-BB1C-7F4427E494E9",
	internalName = "05 Skin Squeeze 30",
	title = "05 Skin Squeeze 30",
	type = "Develop",
	value = {
		settings = {
			ConvertToGrayscale = false,
			EnableColorAdjustments = true,
			HueAdjustmentAqua = 0,
			HueAdjustmentBlue = 0,
			HueAdjustmentGreen = 0,
			HueAdjustmentMagenta = 0,
			HueAdjustmentOrange = 0,
			HueAdjustmentPurple = 0,
			HueAdjustmentRed = 30,
			HueAdjustmentYellow = -35,
			LuminanceAdjustmentAqua = 0,
			LuminanceAdjustmentBlue = 0,
			LuminanceAdjustmentGreen = 0,
			LuminanceAdjustmentMagenta = 0,
			LuminanceAdjustmentOrange = 0,
			LuminanceAdjustmentPurple = 0,
			LuminanceAdjustmentRed = 0,
			LuminanceAdjustmentYellow = 0,
			ProcessVersion = "6.7",
			SaturationAdjustmentAqua = 0,
			SaturationAdjustmentBlue = 0,
			SaturationAdjustmentGreen = 0,
			SaturationAdjustmentMagenta = 0,
			SaturationAdjustmentOrange = 0,
			SaturationAdjustmentPurple = 0,
			SaturationAdjustmentRed = 0,
			SaturationAdjustmentYellow = 0,
		},
		uuid = "D8621500-DEAD-4CBB-AFFD-C43333EC46C8",
	},
	version = 0,
}
