presets/lightroom/_presets/Develop Presets/+L 15 Skin Squeeze (HSL)/11 Skin Squeeze 5.lrtemplate
s = {
	id = "865814B8-AAB6-43E9-9D03-BB03D5294303",
	internalName = "11 Skin Squeeze 5",
	title = "11 Skin Squeeze 5",
	type = "Develop",
	value = {
		settings = {
			ConvertToGrayscale = false,
			EnableColorAdjustments = true,
			HueAdjustmentAqua = 0,
			HueAdjustmentBlue = 0,
			HueAdjustmentGreen = 0,
			HueAdjustmentMagenta = 0,
			HueAdjustmentOrange = 0,
			HueAdjustmentPurple = 0,
			HueAdjustmentRed = 5,
			HueAdjustmentYellow = -5,
			LuminanceAdjustmentAqua = 0,
			LuminanceAdjustmentBlue = 0,
			LuminanceAdjustmentGreen = 0,
			LuminanceAdjustmentMagenta = 0,
			LuminanceAdjustmentOrange = 0,
			LuminanceAdjustmentPurple = 0,
			LuminanceAdjustmentRed = 0,
			LuminanceAdjustmentYellow = 0,
			ProcessVersion = "6.7",
			SaturationAdjustmentAqua = 0,
			SaturationAdjustmentBlue = 0,
			SaturationAdjustmentGreen = 0,
			SaturationAdjustmentMagenta = 0,
			SaturationAdjustmentOrange = 0,
			SaturationAdjustmentPurple = 0,
			SaturationAdjustmentRed = 0,
			SaturationAdjustmentYellow = 0,
		},
		uuid = "D4E361FD-1D00-4FF3-BCCD-D4F25152365F",
	},
	version = 0,
}
