presets/lightroom/_presets/Develop Presets/redwood - color/redwood - color 2.lrtemplate
s = {
	id = "10EE9568-22F3-4EF1-B2E6-056CC1569CCC",
	internalName = "color-4",
	title = "redwood - color 2",
	type = "Develop",
	value = {
		settings = {
			Blacks2012 = 47,
			BlueHue = 0,
			BlueSaturation = 0,
			CameraProfile = "Camera Standard",
			Clarity2012 = 2,
			Contrast2012 = -12,
			ConvertToGrayscale = false,
			EnableCalibration = true,
			EnableColorAdjustments = true,
			EnableEffects = true,
			EnableSplitToning = true,
			GrainAmount = 14,
			GrainFrequency = 46,
			GrainSize = 25,
			GreenHue = 0,
			GreenSaturation = 0,
			Highlights2012 = -31,
			HueAdjustmentAqua = -2,
			HueAdjustmentBlue = -17,
			HueAdjustmentGreen = 24,
			HueAdjustmentMagenta = 0,
			HueAdjustmentOrange = 0,
			HueAdjustmentPurple = 0,
			HueAdjustmentRed = 0,
			HueAdjustmentYellow = 11,
			LuminanceAdjustmentAqua = -6,
			LuminanceAdjustmentBlue = -2,
			LuminanceAdjustmentGreen = 0,
			LuminanceAdjustmentMagenta = 0,
			LuminanceAdjustmentOrange = 0,
			LuminanceAdjustmentPurple = 0,
			LuminanceAdjustmentRed = 2,
			LuminanceAdjustmentYellow = 2,
			ParametricDarks = -5,
			ParametricHighlightSplit = 90,
			ParametricHighlights = 22,
			ParametricLights = 26,
			ParametricMidtoneSplit = 54,
			ParametricShadowSplit = 11,
			ParametricShadows = -34,
			ProcessVersion = "6.7",
			RedHue = 0,
			RedSaturation = 0,
			Saturation = 0,
			SaturationAdjustmentAqua = 0,
			SaturationAdjustmentBlue = -4,
			SaturationAdjustmentGreen = -31,
			SaturationAdjustmentMagenta = 0,
			SaturationAdjustmentOrange = 0,
			SaturationAdjustmentPurple = 0,
			SaturationAdjustmentRed = 0,
			SaturationAdjustmentYellow = 0,
			ShadowTint = 0,
			Shadows2012 = 29,
			SplitToningBalance = 0,
			SplitToningHighlightHue = 0,
			SplitToningHighlightSaturation = 0,
			SplitToningShadowHue = 0,
			SplitToningShadowSaturation = 0,
			ToneCurveName2012 = "Custom",
			ToneCurvePV2012 = {
				0,
				19,
				50,
				49,
				96,
				100,
				145,
				147,
				191,
				178,
				229,
				200,
				255,
				216,
			},
			ToneCurvePV2012Blue = {
				10,
				0,
				255,
				255,
			},
			ToneCurvePV2012Green = {
				0,
				0,
				255,
				255,
			},
			ToneCurvePV2012Red = {
				6,
				0,
				255,
				255,
			},
			Vibrance = -2,
			Whites2012 = -65,
		},
		uuid = "5FBAD823-E5B7-4252-8E43-2CBECFE79020",
	},
	version = 0,
}
