presets/lightroom/_presets/Develop Presets/+L 50 Color Treatments (HSL)/Blue to Cyan + Ruddy Buddy.lrtemplate
s = {
	id = "1D88CB6E-9B0E-495D-88C0-AE8CBD6626F6",
	internalName = "Blue to Cyan + Ruddy Buddy",
	title = "Blue to Cyan + Ruddy Buddy",
	type = "Develop",
	value = {
		settings = {
			ConvertToGrayscale = false,
			EnableColorAdjustments = true,
			HueAdjustmentAqua = 50,
			HueAdjustmentBlue = -20,
			HueAdjustmentGreen = 0,
			HueAdjustmentMagenta = 100,
			HueAdjustmentOrange = 3,
			HueAdjustmentPurple = -50,
			HueAdjustmentRed = 39,
			HueAdjustmentYellow = -11,
			LuminanceAdjustmentAqua = 0,
			LuminanceAdjustmentBlue = 0,
			LuminanceAdjustmentGreen = 0,
			LuminanceAdjustmentMagenta = 0,
			LuminanceAdjustmentOrange = 0,
			LuminanceAdjustmentPurple = 0,
			LuminanceAdjustmentRed = 0,
			LuminanceAdjustmentYellow = 0,
			ProcessVersion = "6.7",
			SaturationAdjustmentAqua = 0,
			SaturationAdjustmentBlue = 0,
			SaturationAdjustmentGreen = 0,
			SaturationAdjustmentMagenta = 0,
			SaturationAdjustmentOrange = 0,
			SaturationAdjustmentPurple = 0,
			SaturationAdjustmentRed = 0,
			SaturationAdjustmentYellow = 0,
		},
		uuid = "7C259590-B90B-4F5B-BFBD-A940168E1961",
	},
	version = 0,
}
