presets/lightroom/_presets/Develop Presets/Vintrochrome Lr3-JPEG/Vintrochrome Film - V54 ~ HQLightroomPresets.lrtemplate
s = {
	id = "B9903FF3-5748-40E4-8620-6B163C2170EB",
	internalName = "Copyrights © 2014 ~ HQLighroomPresets.com",
	title = "Vintrochrome Film : V54 ~ HQLightroomPresets",
	type = "Develop",
	value = {
		settings = {
			AutoBrightness = false,
			AutoContrast = false,
			AutoExposure = false,
			AutoShadows = false,
			BlueHue = 0,
			BlueSaturation = -59,
			Brightness = -3,
			CameraProfile = "Embedded",
			ChromaticAberrationB = 0,
			ChromaticAberrationR = 0,
			Clarity = 12,
			ColorNoiseReduction = 18,
			ColorNoiseReductionDetail = 12,
			Contrast = 24,
			ConvertToGrayscale = false,
			CropConstrainToWarp = 0,
			Defringe = 0,
			EnableCalibration = true,
			EnableColorAdjustments = true,
			EnableDetail = true,
			EnableEffects = true,
			EnableLensCorrections = true,
			EnableSplitToning = true,
			Exposure = 0,
			FillLight = 21,
			GrainAmount = 30,
			GrainFrequency = 40,
			GrainSize = 60,
			GreenHue = 0,
			GreenSaturation = -43,
			HighlightRecovery = 66,
			HueAdjustmentAqua = 14,
			HueAdjustmentBlue = -2,
			HueAdjustmentGreen = 0,
			HueAdjustmentMagenta = 0,
			HueAdjustmentOrange = 0,
			HueAdjustmentPurple = 0,
			HueAdjustmentRed = 0,
			HueAdjustmentYellow = 0,
			IncrementalTemperature = 0,
			IncrementalTint = 0,
			LensManualDistortionAmount = 0,
			LensProfileEnable = 0,
			LensProfileSetup = "LensDefaults",
			LuminanceAdjustmentAqua = 61,
			LuminanceAdjustmentBlue = 57,
			LuminanceAdjustmentGreen = 0,
			LuminanceAdjustmentMagenta = 63,
			LuminanceAdjustmentOrange = 0,
			LuminanceAdjustmentPurple = 57,
			LuminanceAdjustmentRed = -24,
			LuminanceAdjustmentYellow = 0,
			LuminanceNoiseReductionContrast = 0,
			LuminanceNoiseReductionDetail = 50,
			LuminanceSmoothing = 0,
			ParametricDarks = 52,
			ParametricHighlightSplit = 90,
			ParametricHighlights = 0,
			ParametricLights = 0,
			ParametricMidtoneSplit = 59,
			ParametricShadowSplit = 10,
			ParametricShadows = 0,
			PerspectiveHorizontal = 0,
			PerspectiveRotate = 0,
			PerspectiveScale = 100,
			PerspectiveVertical = 0,
			PostCropVignetteAmount = -15,
			PostCropVignetteFeather = 100,
			PostCropVignetteHighlightContrast = 21,
			PostCropVignetteMidpoint = 10,
			PostCropVignetteRoundness = 29,
			PostCropVignetteStyle = 1,
			ProcessVersion = "5.7",
			RedHue = 0,
			RedSaturation = -1,
			Saturation = 47,
			SaturationAdjustmentAqua = 0,
			SaturationAdjustmentBlue = 0,
			SaturationAdjustmentGreen = 0,
			SaturationAdjustmentMagenta = -15,
			SaturationAdjustmentOrange = -11,
			SaturationAdjustmentPurple = -11,
			SaturationAdjustmentRed = 0,
			SaturationAdjustmentYellow = 2,
			ShadowTint = 0,
			Shadows = 10,
			SharpenDetail = 28,
			SharpenEdgeMasking = 0,
			SharpenRadius = 1.5,
			Sharpness = 67,
			SplitToningBalance = 100,
			SplitToningHighlightHue = 108,
			SplitToningHighlightSaturation = 0,
			SplitToningShadowHue = 360,
			SplitToningShadowSaturation = 9,
			ToneCurve = {
				0,
				37,
				23,
				39,
				119,
				115,
				199,
				200,
				255,
				202,
			},
			ToneCurveName = "Custom",
			Vibrance = -13,
			VignetteAmount = 1,
			VignetteMidpoint = 50,
			WhiteBalance = "Custom",
			orientation = "AB",
		},
		uuid = "B01D644B-9C35-40DE-881B-64654A9B6920",
	},
	version = 0,
}
