presets/lightroom/_presets/Develop Presets/Vintrochrome Lr3-JPEG/Vintrochrome Film - V98 ~ HQLightroomPresets.lrtemplate
s = {
	id = "E41A652C-51EF-4676-8060-8D156A32E8FA",
	internalName = "Copyrights © 2014 ~ HQLighroomPresets.com",
	title = "Vintrochrome Film : V98 ~ HQLightroomPresets",
	type = "Develop",
	value = {
		settings = {
			AutoBrightness = false,
			AutoContrast = false,
			AutoExposure = false,
			AutoShadows = false,
			BlueHue = -29,
			BlueSaturation = 6,
			Brightness = 5,
			CameraProfile = "Embedded",
			ChromaticAberrationB = 0,
			ChromaticAberrationR = 0,
			Clarity = 24,
			ColorNoiseReduction = 28,
			ColorNoiseReductionDetail = 0,
			Contrast = 5,
			ConvertToGrayscale = false,
			CropConstrainToWarp = 0,
			Defringe = 0,
			EnableCalibration = true,
			EnableColorAdjustments = true,
			EnableDetail = true,
			EnableEffects = true,
			EnableLensCorrections = true,
			EnableSplitToning = true,
			Exposure = 0.25,
			FillLight = 39,
			GrainAmount = 36,
			GrainFrequency = 45,
			GrainSize = 56,
			GreenHue = 55,
			GreenSaturation = -22,
			HighlightRecovery = 7,
			HueAdjustmentAqua = 0,
			HueAdjustmentBlue = 0,
			HueAdjustmentGreen = 0,
			HueAdjustmentMagenta = 0,
			HueAdjustmentOrange = 0,
			HueAdjustmentPurple = 0,
			HueAdjustmentRed = 0,
			HueAdjustmentYellow = 0,
			IncrementalTemperature = 6,
			IncrementalTint = 38,
			LensManualDistortionAmount = 0,
			LensProfileEnable = 0,
			LensProfileSetup = "LensDefaults",
			LuminanceAdjustmentAqua = 44,
			LuminanceAdjustmentBlue = 5,
			LuminanceAdjustmentGreen = -47,
			LuminanceAdjustmentMagenta = 0,
			LuminanceAdjustmentOrange = 0,
			LuminanceAdjustmentPurple = -29,
			LuminanceAdjustmentRed = 0,
			LuminanceAdjustmentYellow = 0,
			LuminanceNoiseReductionContrast = 0,
			LuminanceNoiseReductionDetail = 16,
			LuminanceSmoothing = 13,
			ParametricDarks = 0,
			ParametricHighlightSplit = 75,
			ParametricHighlights = 0,
			ParametricLights = 0,
			ParametricMidtoneSplit = 50,
			ParametricShadowSplit = 25,
			ParametricShadows = 0,
			PerspectiveHorizontal = 0,
			PerspectiveRotate = 0,
			PerspectiveScale = 100,
			PerspectiveVertical = 0,
			PostCropVignetteAmount = 0,
			PostCropVignetteFeather = 83,
			PostCropVignetteHighlightContrast = 52,
			PostCropVignetteMidpoint = 39,
			PostCropVignetteRoundness = 80,
			PostCropVignetteStyle = 1,
			ProcessVersion = "5.7",
			RedHue = 70,
			RedSaturation = 40,
			Saturation = -43,
			SaturationAdjustmentAqua = -21,
			SaturationAdjustmentBlue = -41,
			SaturationAdjustmentGreen = 30,
			SaturationAdjustmentMagenta = 0,
			SaturationAdjustmentOrange = 35,
			SaturationAdjustmentPurple = 0,
			SaturationAdjustmentRed = 29,
			SaturationAdjustmentYellow = 26,
			ShadowTint = 0,
			Shadows = 13,
			SharpenDetail = 21,
			SharpenEdgeMasking = 0,
			SharpenRadius = 1,
			Sharpness = 43,
			SplitToningBalance = 31,
			SplitToningHighlightHue = 203,
			SplitToningHighlightSaturation = 20,
			SplitToningShadowHue = 314,
			SplitToningShadowSaturation = 16,
			ToneCurve = {
				0,
				25,
				72,
				51,
				154,
				140,
				255,
				236,
			},
			ToneCurveName = "Custom",
			Vibrance = -1,
			VignetteAmount = 0,
			VignetteMidpoint = 12,
			WhiteBalance = "Custom",
			orientation = "AB",
		},
		uuid = "55E648B7-DA4A-449D-ABD1-EF1A4510E061",
	},
	version = 0,
}
