presets/lightroom/_presets/Develop Presets/Vintrochrome Lr3-JPEG/Vintrochrome Film - V76 ~ HQLightroomPresets.lrtemplate
s = {
	id = "F1966447-58FD-4C50-B509-BAE6F650C8CB",
	internalName = "Copyrights © 2014 ~ HQLighroomPresets.com",
	title = "Vintrochrome Film : V76 ~ HQLightroomPresets",
	type = "Develop",
	value = {
		settings = {
			AutoBrightness = false,
			AutoContrast = false,
			AutoExposure = false,
			AutoShadows = false,
			BlueHue = 0,
			BlueSaturation = 15,
			Brightness = 0,
			CameraProfile = "Embedded",
			ChromaticAberrationB = 0,
			ChromaticAberrationR = 0,
			Clarity = 6,
			ColorNoiseReduction = 28,
			ColorNoiseReductionDetail = 50,
			Contrast = 0,
			ConvertToGrayscale = false,
			CropConstrainToWarp = 0,
			Defringe = 0,
			EnableCalibration = true,
			EnableColorAdjustments = true,
			EnableDetail = true,
			EnableEffects = true,
			EnableLensCorrections = true,
			EnableSplitToning = true,
			Exposure = 0,
			FillLight = 21,
			GrainAmount = 30,
			GrainFrequency = 60,
			GrainSize = 51,
			GreenHue = 0,
			GreenSaturation = -38,
			HighlightRecovery = 41,
			HueAdjustmentAqua = 1,
			HueAdjustmentBlue = 0,
			HueAdjustmentGreen = 0,
			HueAdjustmentMagenta = 0,
			HueAdjustmentOrange = 12,
			HueAdjustmentPurple = -2,
			HueAdjustmentRed = -15,
			HueAdjustmentYellow = 9,
			IncrementalTemperature = 1,
			IncrementalTint = -4,
			LensManualDistortionAmount = 0,
			LensProfileEnable = 0,
			LensProfileSetup = "LensDefaults",
			LuminanceAdjustmentAqua = 0,
			LuminanceAdjustmentBlue = 0,
			LuminanceAdjustmentGreen = 22,
			LuminanceAdjustmentMagenta = 0,
			LuminanceAdjustmentOrange = 25,
			LuminanceAdjustmentPurple = 0,
			LuminanceAdjustmentRed = 0,
			LuminanceAdjustmentYellow = 0,
			LuminanceNoiseReductionContrast = 0,
			LuminanceNoiseReductionDetail = 50,
			LuminanceSmoothing = 18,
			ParametricDarks = -47,
			ParametricHighlightSplit = 75,
			ParametricHighlights = -30,
			ParametricLights = -15,
			ParametricMidtoneSplit = 50,
			ParametricShadowSplit = 25,
			ParametricShadows = 0,
			PerspectiveHorizontal = 0,
			PerspectiveRotate = 0,
			PerspectiveScale = 100,
			PerspectiveVertical = 0,
			PostCropVignetteAmount = 0,
			PostCropVignetteFeather = 90,
			PostCropVignetteHighlightContrast = 11,
			PostCropVignetteMidpoint = 28,
			PostCropVignetteRoundness = 22,
			PostCropVignetteStyle = 1,
			ProcessVersion = "5.7",
			RedHue = 0,
			RedSaturation = -15,
			Saturation = 0,
			SaturationAdjustmentAqua = 0,
			SaturationAdjustmentBlue = 0,
			SaturationAdjustmentGreen = -30,
			SaturationAdjustmentMagenta = 0,
			SaturationAdjustmentOrange = 25,
			SaturationAdjustmentPurple = 27,
			SaturationAdjustmentRed = -7,
			SaturationAdjustmentYellow = 2,
			ShadowTint = 0,
			Shadows = 17,
			SharpenDetail = 50,
			SharpenEdgeMasking = 0,
			SharpenRadius = 1,
			Sharpness = 76,
			SplitToningBalance = 85,
			SplitToningHighlightHue = 0,
			SplitToningHighlightSaturation = 0,
			SplitToningShadowHue = 70,
			SplitToningShadowSaturation = 46,
			ToneCurve = {
				0,
				33,
				64,
				80,
				134,
				154,
				200,
				208,
				255,
				237,
			},
			ToneCurveName = "Custom",
			Vibrance = 0,
			VignetteAmount = 2,
			VignetteMidpoint = 20,
			WhiteBalance = "Custom",
			orientation = "AB",
		},
		uuid = "F8C952CD-084B-46C8-988C-1E7355EA6E7E",
	},
	version = 0,
}
