presets/lightroom/_presets/Develop Presets/Vintrochrome Lr3-JPEG/Vintrochrome Film - V53 ~ HQLightroomPresets.lrtemplate
s = {
	id = "D28B0A56-AD0B-4674-A37D-D5871C086D5B",
	internalName = "Copyrights © 2014 ~ HQLighroomPresets.com",
	title = "Vintrochrome Film : V53 ~ HQLightroomPresets",
	type = "Develop",
	value = {
		settings = {
			AutoBrightness = false,
			AutoContrast = false,
			AutoExposure = false,
			AutoShadows = false,
			BlueHue = -8,
			BlueSaturation = 6,
			Brightness = 0,
			CameraProfile = "Embedded",
			ChromaticAberrationB = 0,
			ChromaticAberrationR = 0,
			Clarity = 0,
			ColorNoiseReduction = 0,
			ColorNoiseReductionDetail = 50,
			Contrast = 6,
			ConvertToGrayscale = false,
			CropConstrainToWarp = 0,
			Defringe = 0,
			EnableCalibration = true,
			EnableColorAdjustments = true,
			EnableDetail = true,
			EnableEffects = true,
			EnableLensCorrections = true,
			EnableSplitToning = true,
			Exposure = 0.14,
			FillLight = 52,
			GrainAmount = 30,
			GrainFrequency = 40,
			GrainSize = 60,
			GreenHue = 45,
			GreenSaturation = -30,
			HighlightRecovery = 32,
			HueAdjustmentAqua = 0,
			HueAdjustmentBlue = 0,
			HueAdjustmentGreen = 0,
			HueAdjustmentMagenta = 0,
			HueAdjustmentOrange = 0,
			HueAdjustmentPurple = 0,
			HueAdjustmentRed = 0,
			HueAdjustmentYellow = 1,
			IncrementalTemperature = 0,
			IncrementalTint = 0,
			LensManualDistortionAmount = 0,
			LensProfileEnable = 0,
			LensProfileSetup = "LensDefaults",
			LuminanceAdjustmentAqua = -43,
			LuminanceAdjustmentBlue = -18,
			LuminanceAdjustmentGreen = 6,
			LuminanceAdjustmentMagenta = 0,
			LuminanceAdjustmentOrange = -20,
			LuminanceAdjustmentPurple = 0,
			LuminanceAdjustmentRed = 1,
			LuminanceAdjustmentYellow = -8,
			LuminanceNoiseReductionContrast = 0,
			LuminanceNoiseReductionDetail = 50,
			LuminanceSmoothing = 5,
			ParametricDarks = 62,
			ParametricHighlightSplit = 90,
			ParametricHighlights = 0,
			ParametricLights = 14,
			ParametricMidtoneSplit = 59,
			ParametricShadowSplit = 10,
			ParametricShadows = 0,
			PerspectiveHorizontal = 0,
			PerspectiveRotate = 0,
			PerspectiveScale = 100,
			PerspectiveVertical = 0,
			PostCropVignetteAmount = -17,
			PostCropVignetteFeather = 95,
			PostCropVignetteHighlightContrast = 58,
			PostCropVignetteMidpoint = 36,
			PostCropVignetteRoundness = -33,
			PostCropVignetteStyle = 1,
			ProcessVersion = "5.7",
			RedHue = 25,
			RedSaturation = 2,
			Saturation = 13,
			SaturationAdjustmentAqua = 0,
			SaturationAdjustmentBlue = -24,
			SaturationAdjustmentGreen = -13,
			SaturationAdjustmentMagenta = 4,
			SaturationAdjustmentOrange = -27,
			SaturationAdjustmentPurple = -43,
			SaturationAdjustmentRed = -20,
			SaturationAdjustmentYellow = -33,
			ShadowTint = 0,
			Shadows = 23,
			SharpenDetail = 25,
			SharpenEdgeMasking = 0,
			SharpenRadius = 1,
			Sharpness = 61,
			SplitToningBalance = 2,
			SplitToningHighlightHue = 214,
			SplitToningHighlightSaturation = 16,
			SplitToningShadowHue = 240,
			SplitToningShadowSaturation = 0,
			ToneCurve = {
				0,
				31,
				45,
				42,
				146,
				99,
				196,
				171,
				250,
				212,
			},
			ToneCurveName = "Custom",
			Vibrance = -24,
			VignetteAmount = 0,
			VignetteMidpoint = 50,
			WhiteBalance = "Custom",
			orientation = "DA",
		},
		uuid = "0021607E-0412-493D-B75E-8DF74CDC8699",
	},
	version = 0,
}
