presets/lightroom/_presets/Develop Presets/Vintrochrome Lr3-JPEG/Vintrochrome Film - V4 ~ HQLightroomPresets.lrtemplate
s = {
	id = "0E96444D-41F1-4E2E-9261-3FCF280C55D3",
	internalName = "Copyrights © 2014 ~ HQLighroomPresets.com",
	title = "Vintrochrome Film : V4 ~ HQLightroomPresets",
	type = "Develop",
	value = {
		settings = {
			AutoBrightness = false,
			AutoContrast = false,
			AutoExposure = false,
			AutoShadows = false,
			BlueHue = -44,
			BlueSaturation = 33,
			Brightness = 0,
			CameraProfile = "ACR 4.4",
			ChromaticAberrationB = 0,
			ChromaticAberrationR = 0,
			Clarity = 33,
			ColorNoiseReduction = 0,
			ColorNoiseReductionDetail = 50,
			Contrast = 16,
			ConvertToGrayscale = false,
			CropConstrainToWarp = 0,
			Defringe = 0,
			EnableCalibration = true,
			EnableColorAdjustments = true,
			EnableDetail = true,
			EnableEffects = true,
			EnableLensCorrections = true,
			EnableSplitToning = true,
			Exposure = 0,
			FillLight = 9,
			GrainAmount = 30,
			GrainFrequency = 52,
			GrainSize = 71,
			GreenHue = -1,
			GreenSaturation = 6,
			HighlightRecovery = 33,
			HueAdjustmentAqua = 0,
			HueAdjustmentBlue = 0,
			HueAdjustmentGreen = 0,
			HueAdjustmentMagenta = 0,
			HueAdjustmentOrange = 14,
			HueAdjustmentPurple = 0,
			HueAdjustmentRed = 0,
			HueAdjustmentYellow = 80,
			IncrementalTemperature = 10,
			IncrementalTint = 38,
			LensManualDistortionAmount = 0,
			LensProfileEnable = 0,
			LensProfileSetup = "LensDefaults",
			LuminanceAdjustmentAqua = -7,
			LuminanceAdjustmentBlue = 0,
			LuminanceAdjustmentGreen = 9,
			LuminanceAdjustmentMagenta = 0,
			LuminanceAdjustmentOrange = -7,
			LuminanceAdjustmentPurple = 0,
			LuminanceAdjustmentRed = -20,
			LuminanceAdjustmentYellow = -23,
			LuminanceNoiseReductionContrast = 0,
			LuminanceNoiseReductionDetail = 50,
			LuminanceSmoothing = 5,
			ParametricDarks = 52,
			ParametricHighlightSplit = 90,
			ParametricHighlights = 0,
			ParametricLights = 0,
			ParametricMidtoneSplit = 59,
			ParametricShadowSplit = 10,
			ParametricShadows = 0,
			PerspectiveHorizontal = 0,
			PerspectiveRotate = 0,
			PerspectiveScale = 100,
			PerspectiveVertical = 0,
			PostCropVignetteAmount = -15,
			PostCropVignetteFeather = 50,
			PostCropVignetteHighlightContrast = 0,
			PostCropVignetteMidpoint = 50,
			PostCropVignetteRoundness = 0,
			PostCropVignetteStyle = 1,
			ProcessVersion = "5.7",
			RedHue = 0,
			RedSaturation = -10,
			Saturation = 26,
			SaturationAdjustmentAqua = -43,
			SaturationAdjustmentBlue = 0,
			SaturationAdjustmentGreen = 0,
			SaturationAdjustmentMagenta = 0,
			SaturationAdjustmentOrange = -41,
			SaturationAdjustmentPurple = -18,
			SaturationAdjustmentRed = -20,
			SaturationAdjustmentYellow = -20,
			ShadowTint = 0,
			Shadows = 13,
			SharpenDetail = 25,
			SharpenEdgeMasking = 0,
			SharpenRadius = 1,
			Sharpness = 61,
			SplitToningBalance = 52,
			SplitToningHighlightHue = 29,
			SplitToningHighlightSaturation = 7,
			SplitToningShadowHue = 153,
			SplitToningShadowSaturation = 46,
			ToneCurve = {
				0,
				34,
				192,
				202,
				252,
				255,
			},
			ToneCurveName = "Custom",
			Vibrance = -13,
			VignetteAmount = 0,
			VignetteMidpoint = 50,
			WhiteBalance = "Custom",
			orientation = "AB",
		},
		uuid = "80C6469E-5816-43AA-B1C6-4F4196133BE5",
	},
	version = 0,
}
