presets/lightroom/_presets/Develop Presets/Vintrochrome Lr3-JPEG/Vintrochrome Film - V99 ~ HQLightroomPresets.lrtemplate
s = {
	id = "F0EB414D-793A-4D16-A0AA-03EA4836A841",
	internalName = "Copyrights © 2014 ~ HQLighroomPresets.com",
	title = "Vintrochrome Film : V99 ~ HQLightroomPresets",
	type = "Develop",
	value = {
		settings = {
			AutoBrightness = false,
			AutoContrast = false,
			AutoExposure = false,
			AutoShadows = false,
			BlueHue = -33,
			BlueSaturation = -66,
			Brightness = 12,
			CameraProfile = "Embedded",
			ChromaticAberrationB = 0,
			ChromaticAberrationR = 0,
			Clarity = 8,
			ColorNoiseReduction = 25,
			ColorNoiseReductionDetail = 50,
			Contrast = 16,
			ConvertToGrayscale = false,
			CropConstrainToWarp = 0,
			Defringe = 0,
			EnableCalibration = true,
			EnableColorAdjustments = true,
			EnableDetail = true,
			EnableEffects = true,
			EnableLensCorrections = true,
			EnableSplitToning = true,
			Exposure = 0.14,
			FillLight = 14,
			GrainAmount = 38,
			GrainFrequency = 45,
			GrainSize = 59,
			GreenHue = 0,
			GreenSaturation = -37,
			HighlightRecovery = 41,
			HueAdjustmentAqua = 0,
			HueAdjustmentBlue = 0,
			HueAdjustmentGreen = 27,
			HueAdjustmentMagenta = 1,
			HueAdjustmentOrange = 14,
			HueAdjustmentPurple = 0,
			HueAdjustmentRed = 48,
			HueAdjustmentYellow = 0,
			IncrementalTemperature = -8,
			IncrementalTint = -8,
			LensManualDistortionAmount = 0,
			LensProfileEnable = 0,
			LensProfileSetup = "LensDefaults",
			LuminanceAdjustmentAqua = 0,
			LuminanceAdjustmentBlue = -41,
			LuminanceAdjustmentGreen = 0,
			LuminanceAdjustmentMagenta = 0,
			LuminanceAdjustmentOrange = 20,
			LuminanceAdjustmentPurple = 0,
			LuminanceAdjustmentRed = 16,
			LuminanceAdjustmentYellow = 18,
			LuminanceNoiseReductionContrast = 0,
			LuminanceNoiseReductionDetail = 50,
			LuminanceSmoothing = 14,
			ParametricDarks = 58,
			ParametricHighlightSplit = 75,
			ParametricHighlights = 0,
			ParametricLights = -6,
			ParametricMidtoneSplit = 50,
			ParametricShadowSplit = 25,
			ParametricShadows = 0,
			PerspectiveHorizontal = 0,
			PerspectiveRotate = 0,
			PerspectiveScale = 100,
			PerspectiveVertical = 0,
			PostCropVignetteAmount = -26,
			PostCropVignetteFeather = 71,
			PostCropVignetteHighlightContrast = 0,
			PostCropVignetteMidpoint = 16,
			PostCropVignetteRoundness = -6,
			PostCropVignetteStyle = 1,
			ProcessVersion = "5.7",
			RedHue = -19,
			RedSaturation = 49,
			Saturation = -6,
			SaturationAdjustmentAqua = 0,
			SaturationAdjustmentBlue = 71,
			SaturationAdjustmentGreen = 34,
			SaturationAdjustmentMagenta = 0,
			SaturationAdjustmentOrange = 30,
			SaturationAdjustmentPurple = 0,
			SaturationAdjustmentRed = -10,
			SaturationAdjustmentYellow = 7,
			ShadowTint = -10,
			Shadows = 24,
			SharpenDetail = 0,
			SharpenEdgeMasking = 0,
			SharpenRadius = 0.5,
			Sharpness = 59,
			SplitToningBalance = 0,
			SplitToningHighlightHue = 41,
			SplitToningHighlightSaturation = 22,
			SplitToningShadowHue = 248,
			SplitToningShadowSaturation = 0,
			ToneCurve = {
				0,
				36,
				38,
				58,
				135,
				143,
				192,
				202,
				255,
				237,
			},
			ToneCurveName = "Custom",
			Vibrance = -17,
			VignetteAmount = 0,
			VignetteMidpoint = 0,
			WhiteBalance = "Custom",
			orientation = "AB",
		},
		uuid = "ECBA8F09-A636-4859-A80E-6F737CEAEA1F",
	},
	version = 0,
}
