presets/lightroom/_presets/Develop Presets/Vintrochrome Lr3-JPEG/Vintrochrome Film - V37 ~ HQLightroomPresets.lrtemplate
s = {
	id = "9F1B3D3E-3285-42B5-88C5-2D512587DD1D",
	internalName = "Copyrights © 2014 ~ HQLighroomPresets.com",
	title = "Vintrochrome Film : V37 ~ HQLightroomPresets",
	type = "Develop",
	value = {
		settings = {
			AutoBrightness = false,
			AutoContrast = false,
			AutoExposure = false,
			AutoShadows = false,
			BlueHue = 20,
			BlueSaturation = 29,
			Brightness = -3,
			CameraProfile = "Embedded",
			ChromaticAberrationB = 0,
			ChromaticAberrationR = 0,
			Clarity = 21,
			ColorNoiseReduction = 0,
			ColorNoiseReductionDetail = 50,
			Contrast = 0,
			ConvertToGrayscale = false,
			CropConstrainToWarp = 0,
			Defringe = 0,
			EnableCalibration = true,
			EnableColorAdjustments = true,
			EnableDetail = true,
			EnableEffects = true,
			EnableLensCorrections = true,
			EnableSplitToning = true,
			Exposure = 0,
			FillLight = 8,
			GrainAmount = 30,
			GrainFrequency = 40,
			GrainSize = 60,
			GreenHue = 45,
			GreenSaturation = -30,
			HighlightRecovery = 72,
			HueAdjustmentAqua = 0,
			HueAdjustmentBlue = 0,
			HueAdjustmentGreen = 0,
			HueAdjustmentMagenta = 0,
			HueAdjustmentOrange = 0,
			HueAdjustmentPurple = 0,
			HueAdjustmentRed = 0,
			HueAdjustmentYellow = 1,
			IncrementalTemperature = 17,
			IncrementalTint = 15,
			LensManualDistortionAmount = 0,
			LensProfileEnable = 0,
			LensProfileSetup = "LensDefaults",
			LuminanceAdjustmentAqua = 0,
			LuminanceAdjustmentBlue = 0,
			LuminanceAdjustmentGreen = 0,
			LuminanceAdjustmentMagenta = 0,
			LuminanceAdjustmentOrange = 0,
			LuminanceAdjustmentPurple = 0,
			LuminanceAdjustmentRed = 0,
			LuminanceAdjustmentYellow = 0,
			LuminanceNoiseReductionContrast = 0,
			LuminanceNoiseReductionDetail = 50,
			LuminanceSmoothing = 5,
			ParametricDarks = 62,
			ParametricHighlightSplit = 90,
			ParametricHighlights = 0,
			ParametricLights = 14,
			ParametricMidtoneSplit = 59,
			ParametricShadowSplit = 10,
			ParametricShadows = 0,
			PerspectiveHorizontal = 0,
			PerspectiveRotate = 0,
			PerspectiveScale = 100,
			PerspectiveVertical = 0,
			PostCropVignetteAmount = 0,
			PostCropVignetteFeather = 50,
			PostCropVignetteHighlightContrast = 0,
			PostCropVignetteMidpoint = 50,
			PostCropVignetteRoundness = 0,
			PostCropVignetteStyle = 1,
			ProcessVersion = "5.7",
			RedHue = 25,
			RedSaturation = 2,
			Saturation = 43,
			SaturationAdjustmentAqua = -46,
			SaturationAdjustmentBlue = -24,
			SaturationAdjustmentGreen = -13,
			SaturationAdjustmentMagenta = 4,
			SaturationAdjustmentOrange = -27,
			SaturationAdjustmentPurple = -43,
			SaturationAdjustmentRed = -20,
			SaturationAdjustmentYellow = -33,
			ShadowTint = 0,
			Shadows = 10,
			SharpenDetail = 25,
			SharpenEdgeMasking = 0,
			SharpenRadius = 1,
			Sharpness = 61,
			SplitToningBalance = 66,
			SplitToningHighlightHue = 210,
			SplitToningHighlightSaturation = 21,
			SplitToningShadowHue = 73,
			SplitToningShadowSaturation = 29,
			ToneCurve = {
				0,
				36,
				41,
				57,
				126,
				108,
				173,
				155,
				255,
				222,
			},
			ToneCurveName = "Custom",
			Vibrance = -26,
			VignetteAmount = 0,
			VignetteMidpoint = 50,
			WhiteBalance = "Custom",
			orientation = "AB",
		},
		uuid = "2B07B320-457F-4DC4-A0B7-5F2DE47EB7EC",
	},
	version = 0,
}
