presets/lightroom/_presets/Develop Presets/Vintrochrome Lr3-JPEG/Vintrochrome Film - V16 ~ HQLightroomPresets.lrtemplate
s = {
	id = "3B120DDB-CF83-4988-AAAA-C8B8ECDD7B99",
	internalName = "Copyrights © 2014 ~ HQLighroomPresets.com",
	title = "Vintrochrome Film : V16 ~ HQLightroomPresets",
	type = "Develop",
	value = {
		settings = {
			AutoBrightness = false,
			AutoContrast = false,
			AutoExposure = false,
			AutoShadows = false,
			BlueHue = 0,
			BlueSaturation = 0,
			Brightness = 14,
			CameraProfile = "Embedded",
			ChromaticAberrationB = 0,
			ChromaticAberrationR = 0,
			Clarity = 23,
			ColorNoiseReduction = 50,
			ColorNoiseReductionDetail = 51,
			Contrast = 20,
			ConvertToGrayscale = false,
			CropConstrainToWarp = 0,
			Defringe = 0,
			EnableCalibration = true,
			EnableColorAdjustments = true,
			EnableDetail = true,
			EnableEffects = true,
			EnableLensCorrections = true,
			EnableSplitToning = true,
			Exposure = 0,
			FillLight = 46,
			GrainAmount = 25,
			GrainFrequency = 45,
			GrainSize = 60,
			GreenHue = 79,
			GreenSaturation = 6,
			HighlightRecovery = 16,
			HueAdjustmentAqua = -10,
			HueAdjustmentBlue = -27,
			HueAdjustmentGreen = -13,
			HueAdjustmentMagenta = 2,
			HueAdjustmentOrange = 13,
			HueAdjustmentPurple = -9,
			HueAdjustmentRed = 13,
			HueAdjustmentYellow = -10,
			IncrementalTemperature = 13,
			IncrementalTint = -3,
			LensManualDistortionAmount = 0,
			LensProfileEnable = 0,
			LensProfileSetup = "LensDefaults",
			LuminanceAdjustmentAqua = 0,
			LuminanceAdjustmentBlue = 0,
			LuminanceAdjustmentGreen = 0,
			LuminanceAdjustmentMagenta = 0,
			LuminanceAdjustmentOrange = -15,
			LuminanceAdjustmentPurple = 0,
			LuminanceAdjustmentRed = -22,
			LuminanceAdjustmentYellow = -1,
			LuminanceNoiseReductionContrast = 0,
			LuminanceNoiseReductionDetail = 50,
			LuminanceSmoothing = 10,
			ParametricDarks = -27,
			ParametricHighlightSplit = 75,
			ParametricHighlights = -30,
			ParametricLights = 0,
			ParametricMidtoneSplit = 50,
			ParametricShadowSplit = 25,
			ParametricShadows = 0,
			PerspectiveHorizontal = 0,
			PerspectiveRotate = 0,
			PerspectiveScale = 100,
			PerspectiveVertical = 0,
			PostCropVignetteAmount = -11,
			PostCropVignetteFeather = 100,
			PostCropVignetteHighlightContrast = 0,
			PostCropVignetteMidpoint = 0,
			PostCropVignetteRoundness = -33,
			PostCropVignetteStyle = 1,
			ProcessVersion = "5.7",
			RedHue = 0,
			RedSaturation = 0,
			Saturation = 22,
			SaturationAdjustmentAqua = -25,
			SaturationAdjustmentBlue = 0,
			SaturationAdjustmentGreen = -30,
			SaturationAdjustmentMagenta = -30,
			SaturationAdjustmentOrange = -57,
			SaturationAdjustmentPurple = -23,
			SaturationAdjustmentRed = -48,
			SaturationAdjustmentYellow = -2,
			ShadowTint = 0,
			Shadows = 12,
			SharpenDetail = 50,
			SharpenEdgeMasking = 0,
			SharpenRadius = 0.9,
			Sharpness = 71,
			SplitToningBalance = 85,
			SplitToningHighlightHue = 207,
			SplitToningHighlightSaturation = 15,
			SplitToningShadowHue = 302,
			SplitToningShadowSaturation = 0,
			ToneCurve = {
				0,
				32,
				34,
				40,
				170,
				167,
				255,
				217,
			},
			ToneCurveName = "Custom",
			Vibrance = 24,
			VignetteAmount = -1,
			VignetteMidpoint = 20,
			WhiteBalance = "Custom",
			orientation = "AB",
		},
		uuid = "FD77C849-9D92-4979-A023-4C5637C5E2E1",
	},
	version = 0,
}
