presets/lightroom/_presets/Develop Presets/Vintrochrome Lr3-JPEG/Vintrochrome Film - V81 ~ HQLightroomPresets.lrtemplate
s = {
	id = "72212883-271F-44A8-8D7E-5D5F8A84C5D9",
	internalName = "Copyrights © 2014 ~ HQLighroomPresets.com",
	title = "Vintrochrome Film : V81 ~ HQLightroomPresets",
	type = "Develop",
	value = {
		settings = {
			AutoBrightness = false,
			AutoContrast = false,
			AutoExposure = false,
			AutoShadows = false,
			BlueHue = 3,
			BlueSaturation = 26,
			Brightness = 34,
			CameraProfile = "ACR 2.4",
			ChromaticAberrationB = 0,
			ChromaticAberrationR = 0,
			Clarity = 20,
			ColorNoiseReduction = 25,
			ColorNoiseReductionDetail = 50,
			Contrast = 30,
			ConvertToGrayscale = false,
			CropConstrainToWarp = 0,
			Defringe = 0,
			EnableCalibration = true,
			EnableColorAdjustments = true,
			EnableDetail = true,
			EnableEffects = true,
			EnableLensCorrections = true,
			EnableSplitToning = true,
			Exposure = 0,
			FillLight = 11,
			GrainAmount = 23,
			GrainFrequency = 40,
			GrainSize = 56,
			GreenHue = 55,
			GreenSaturation = -100,
			HighlightRecovery = 44,
			HueAdjustmentAqua = 0,
			HueAdjustmentBlue = 0,
			HueAdjustmentGreen = 0,
			HueAdjustmentMagenta = 0,
			HueAdjustmentOrange = 0,
			HueAdjustmentPurple = 0,
			HueAdjustmentRed = 0,
			HueAdjustmentYellow = 0,
			IncrementalTemperature = -6,
			IncrementalTint = -24,
			LensManualDistortionAmount = 0,
			LensProfileEnable = 0,
			LensProfileSetup = "LensDefaults",
			LuminanceAdjustmentAqua = 0,
			LuminanceAdjustmentBlue = 4,
			LuminanceAdjustmentGreen = 2,
			LuminanceAdjustmentMagenta = 0,
			LuminanceAdjustmentOrange = 0,
			LuminanceAdjustmentPurple = 0,
			LuminanceAdjustmentRed = 0,
			LuminanceAdjustmentYellow = 0,
			LuminanceNoiseReductionContrast = 0,
			LuminanceNoiseReductionDetail = 50,
			LuminanceSmoothing = 8,
			ParametricDarks = 0,
			ParametricHighlightSplit = 75,
			ParametricHighlights = 0,
			ParametricLights = 0,
			ParametricMidtoneSplit = 50,
			ParametricShadowSplit = 25,
			ParametricShadows = 0,
			PerspectiveHorizontal = 0,
			PerspectiveRotate = 0,
			PerspectiveScale = 100,
			PerspectiveVertical = 0,
			PostCropVignetteAmount = -24,
			PostCropVignetteFeather = 89,
			PostCropVignetteHighlightContrast = 6,
			PostCropVignetteMidpoint = 20,
			PostCropVignetteRoundness = -20,
			PostCropVignetteStyle = 1,
			ProcessVersion = "5.7",
			RedHue = 8,
			RedSaturation = -24,
			Saturation = 20,
			SaturationAdjustmentAqua = -20,
			SaturationAdjustmentBlue = -25,
			SaturationAdjustmentGreen = -25,
			SaturationAdjustmentMagenta = 5,
			SaturationAdjustmentOrange = -16,
			SaturationAdjustmentPurple = -27,
			SaturationAdjustmentRed = -27,
			SaturationAdjustmentYellow = -11,
			ShadowTint = 1,
			Shadows = 4,
			SharpenDetail = 25,
			SharpenEdgeMasking = 0,
			SharpenRadius = 1.4,
			Sharpness = 26,
			SplitToningBalance = 66,
			SplitToningHighlightHue = 50,
			SplitToningHighlightSaturation = 0,
			SplitToningShadowHue = 261,
			SplitToningShadowSaturation = 15,
			ToneCurve = {
				0,
				39,
				34,
				41,
				177,
				178,
				255,
				228,
			},
			ToneCurveName = "Custom",
			Vibrance = 6,
			VignetteAmount = 0,
			VignetteMidpoint = 48,
			WhiteBalance = "Custom",
			orientation = "AB",
		},
		uuid = "5980EBEA-CABE-4A3B-AE7A-B9176AE92DBD",
	},
	version = 0,
}
