presets/lightroom/_presets/Develop Presets/Vintrochrome Lr3-JPEG/Vintrochrome Film - V83 ~ HQLightroomPresets.lrtemplate
s = {
	id = "1985EE00-6D55-40A5-AB60-12C1CDA52CC5",
	internalName = "Copyrights © 2014 ~ HQLighroomPresets.com",
	title = "Vintrochrome Film : V83 ~ HQLightroomPresets",
	type = "Develop",
	value = {
		settings = {
			AutoBrightness = false,
			AutoContrast = false,
			AutoExposure = false,
			AutoShadows = false,
			BlueHue = -40,
			BlueSaturation = -1,
			Brightness = -3,
			CameraProfile = "Embedded",
			ChromaticAberrationB = 0,
			ChromaticAberrationR = 0,
			Clarity = 29,
			ColorNoiseReduction = 28,
			ColorNoiseReductionDetail = 50,
			Contrast = 6,
			ConvertToGrayscale = false,
			CropConstrainToWarp = 0,
			Defringe = 0,
			EnableCalibration = true,
			EnableColorAdjustments = true,
			EnableDetail = true,
			EnableEffects = true,
			EnableLensCorrections = true,
			EnableSplitToning = true,
			Exposure = 0,
			FillLight = 33,
			GrainAmount = 30,
			GrainFrequency = 40,
			GrainSize = 60,
			GreenHue = 15,
			GreenSaturation = -45,
			HighlightRecovery = 26,
			HueAdjustmentAqua = 33,
			HueAdjustmentBlue = 29,
			HueAdjustmentGreen = 33,
			HueAdjustmentMagenta = 2,
			HueAdjustmentOrange = 26,
			HueAdjustmentPurple = 15,
			HueAdjustmentRed = 9,
			HueAdjustmentYellow = 33,
			IncrementalTemperature = 15,
			IncrementalTint = 8,
			LensManualDistortionAmount = 0,
			LensProfileEnable = 0,
			LensProfileSetup = "LensDefaults",
			LuminanceAdjustmentAqua = -12,
			LuminanceAdjustmentBlue = -9,
			LuminanceAdjustmentGreen = -7,
			LuminanceAdjustmentMagenta = -4,
			LuminanceAdjustmentOrange = -9,
			LuminanceAdjustmentPurple = -7,
			LuminanceAdjustmentRed = -9,
			LuminanceAdjustmentYellow = -12,
			LuminanceNoiseReductionContrast = 0,
			LuminanceNoiseReductionDetail = 50,
			LuminanceSmoothing = 0,
			ParametricDarks = -33,
			ParametricHighlightSplit = 75,
			ParametricHighlights = -40,
			ParametricLights = 21,
			ParametricMidtoneSplit = 50,
			ParametricShadowSplit = 25,
			ParametricShadows = -1,
			PerspectiveHorizontal = 0,
			PerspectiveRotate = 0,
			PerspectiveScale = 100,
			PerspectiveVertical = 0,
			PostCropVignetteAmount = -20,
			PostCropVignetteFeather = 80,
			PostCropVignetteHighlightContrast = 0,
			PostCropVignetteMidpoint = 34,
			PostCropVignetteRoundness = 37,
			PostCropVignetteStyle = 1,
			ProcessVersion = "5.7",
			RedHue = 13,
			RedSaturation = -15,
			Saturation = 1,
			SaturationAdjustmentAqua = -24,
			SaturationAdjustmentBlue = -21,
			SaturationAdjustmentGreen = 45,
			SaturationAdjustmentMagenta = 10,
			SaturationAdjustmentOrange = -13,
			SaturationAdjustmentPurple = -10,
			SaturationAdjustmentRed = -4,
			SaturationAdjustmentYellow = -20,
			ShadowTint = 0,
			Shadows = 14,
			SharpenDetail = 50,
			SharpenEdgeMasking = 0,
			SharpenRadius = 1,
			Sharpness = 60,
			SplitToningBalance = 85,
			SplitToningHighlightHue = 217,
			SplitToningHighlightSaturation = 18,
			SplitToningShadowHue = 264,
			SplitToningShadowSaturation = 44,
			ToneCurve = {
				0,
				20,
				22,
				37,
				130,
				135,
				201,
				196,
				255,
				221,
			},
			ToneCurveName = "Custom",
			Vibrance = 8,
			VignetteAmount = 0,
			VignetteMidpoint = 48,
			WhiteBalance = "Custom",
			orientation = "AB",
		},
		uuid = "DE14BCAE-34FA-44A5-A8BD-5540E2910933",
	},
	version = 0,
}
