presets/lightroom/_presets/Develop Presets/Vintrochrome Lr3-JPEG/Vintrochrome Film - V108 ~ HQLighroomPresets.com.lrtemplate
s = {
	id = "C5237AAB-490D-42FF-987B-4E0FF01F3662",
	internalName = "Copyrights © 2014 ~ HQLighroomPresets.com",
	title = "Vintrochrome Film : V108 ~ HQLighroomPresets.com",
	type = "Develop",
	value = {
		settings = {
			AutoBrightness = false,
			AutoContrast = false,
			AutoExposure = false,
			AutoShadows = false,
			BlueHue = 8,
			BlueSaturation = -31,
			Brightness = -3,
			CameraProfile = "Embedded",
			ChromaticAberrationB = 0,
			ChromaticAberrationR = 0,
			Clarity = 12,
			ColorNoiseReduction = 18,
			ColorNoiseReductionDetail = 12,
			Contrast = 24,
			ConvertToGrayscale = false,
			CropConstrainToWarp = 0,
			Defringe = 0,
			EnableCalibration = true,
			EnableColorAdjustments = true,
			EnableDetail = true,
			EnableEffects = true,
			EnableLensCorrections = true,
			EnableSplitToning = true,
			Exposure = -0.19,
			FillLight = 21,
			GrainAmount = 25,
			GrainFrequency = 47,
			GrainSize = 62,
			GreenHue = 0,
			GreenSaturation = -36,
			HighlightRecovery = 57,
			HueAdjustmentAqua = 14,
			HueAdjustmentBlue = -5,
			HueAdjustmentGreen = 0,
			HueAdjustmentMagenta = 0,
			HueAdjustmentOrange = 0,
			HueAdjustmentPurple = 0,
			HueAdjustmentRed = 0,
			HueAdjustmentYellow = 0,
			IncrementalTemperature = -20,
			IncrementalTint = 0,
			LensManualDistortionAmount = 0,
			LensProfileEnable = 0,
			LensProfileSetup = "LensDefaults",
			LuminanceAdjustmentAqua = 34,
			LuminanceAdjustmentBlue = 25,
			LuminanceAdjustmentGreen = 55,
			LuminanceAdjustmentMagenta = 63,
			LuminanceAdjustmentOrange = 50,
			LuminanceAdjustmentPurple = 57,
			LuminanceAdjustmentRed = -24,
			LuminanceAdjustmentYellow = 32,
			LuminanceNoiseReductionContrast = 0,
			LuminanceNoiseReductionDetail = 50,
			LuminanceSmoothing = 0,
			ParametricDarks = 52,
			ParametricHighlightSplit = 90,
			ParametricHighlights = 0,
			ParametricLights = 0,
			ParametricMidtoneSplit = 59,
			ParametricShadowSplit = 10,
			ParametricShadows = 0,
			PerspectiveHorizontal = 0,
			PerspectiveRotate = 0,
			PerspectiveScale = 100,
			PerspectiveVertical = 0,
			PostCropVignetteAmount = -15,
			PostCropVignetteFeather = 100,
			PostCropVignetteHighlightContrast = 21,
			PostCropVignetteMidpoint = 10,
			PostCropVignetteRoundness = 29,
			PostCropVignetteStyle = 1,
			ProcessVersion = "5.7",
			RedHue = 0,
			RedSaturation = -38,
			Saturation = 69,
			SaturationAdjustmentAqua = 16,
			SaturationAdjustmentBlue = 27,
			SaturationAdjustmentGreen = 0,
			SaturationAdjustmentMagenta = -15,
			SaturationAdjustmentOrange = -11,
			SaturationAdjustmentPurple = -11,
			SaturationAdjustmentRed = 0,
			SaturationAdjustmentYellow = 2,
			ShadowTint = 0,
			Shadows = 10,
			SharpenDetail = 28,
			SharpenEdgeMasking = 0,
			SharpenRadius = 1.5,
			Sharpness = 67,
			SplitToningBalance = 100,
			SplitToningHighlightHue = 137,
			SplitToningHighlightSaturation = 0,
			SplitToningShadowHue = 58,
			SplitToningShadowSaturation = 49,
			ToneCurve = {
				0,
				26,
				23,
				39,
				129,
				132,
				255,
				229,
			},
			ToneCurveName = "Custom",
			Vibrance = 33,
			VignetteAmount = 1,
			VignetteMidpoint = 50,
			WhiteBalance = "Custom",
			orientation = "AB",
		},
		uuid = "55FFAFF7-E166-412F-BC7F-AD7E11DF755A",
	},
	version = 0,
}
