presets/lightroom/_presets/Develop Presets/Vintrochrome Lr3-JPEG/Vintrochrome Film - V84 ~ HQLightroomPresets.lrtemplate
s = {
	id = "BC7FB691-E5DC-4416-8C8F-F2FF971D7C92",
	internalName = "Copyrights © 2014 ~ HQLighroomPresets.com",
	title = "Vintrochrome Film : V84 ~ HQLightroomPresets",
	type = "Develop",
	value = {
		settings = {
			AutoBrightness = false,
			AutoContrast = false,
			AutoExposure = false,
			AutoShadows = false,
			BlueHue = 36,
			BlueSaturation = -10,
			Brightness = 0,
			CameraProfile = "Embedded",
			ChromaticAberrationB = 0,
			ChromaticAberrationR = 0,
			Clarity = 15,
			ColorNoiseReduction = 50,
			ColorNoiseReductionDetail = 51,
			Contrast = 0,
			ConvertToGrayscale = false,
			CropConstrainToWarp = 0,
			Defringe = 0,
			EnableCalibration = true,
			EnableColorAdjustments = true,
			EnableDetail = true,
			EnableEffects = true,
			EnableLensCorrections = true,
			EnableSplitToning = true,
			Exposure = 0,
			FillLight = 33,
			GrainAmount = 30,
			GrainFrequency = 45,
			GrainSize = 60,
			GreenHue = 43,
			GreenSaturation = -17,
			HighlightRecovery = 33,
			HueAdjustmentAqua = -10,
			HueAdjustmentBlue = -27,
			HueAdjustmentGreen = -13,
			HueAdjustmentMagenta = 2,
			HueAdjustmentOrange = -12,
			HueAdjustmentPurple = -9,
			HueAdjustmentRed = 0,
			HueAdjustmentYellow = -10,
			IncrementalTemperature = 10,
			IncrementalTint = 24,
			LensManualDistortionAmount = 0,
			LensProfileEnable = 0,
			LensProfileSetup = "LensDefaults",
			LuminanceAdjustmentAqua = 0,
			LuminanceAdjustmentBlue = 0,
			LuminanceAdjustmentGreen = 0,
			LuminanceAdjustmentMagenta = 0,
			LuminanceAdjustmentOrange = 0,
			LuminanceAdjustmentPurple = 0,
			LuminanceAdjustmentRed = 0,
			LuminanceAdjustmentYellow = -1,
			LuminanceNoiseReductionContrast = 0,
			LuminanceNoiseReductionDetail = 50,
			LuminanceSmoothing = 10,
			ParametricDarks = -27,
			ParametricHighlightSplit = 75,
			ParametricHighlights = -30,
			ParametricLights = 0,
			ParametricMidtoneSplit = 50,
			ParametricShadowSplit = 25,
			ParametricShadows = 0,
			PerspectiveHorizontal = 0,
			PerspectiveRotate = 0,
			PerspectiveScale = 100,
			PerspectiveVertical = 0,
			PostCropVignetteAmount = 0,
			PostCropVignetteFeather = 100,
			PostCropVignetteHighlightContrast = 0,
			PostCropVignetteMidpoint = 0,
			PostCropVignetteRoundness = -33,
			PostCropVignetteStyle = 1,
			ProcessVersion = "5.7",
			RedHue = 0,
			RedSaturation = 0,
			Saturation = 38,
			SaturationAdjustmentAqua = 0,
			SaturationAdjustmentBlue = 0,
			SaturationAdjustmentGreen = -7,
			SaturationAdjustmentMagenta = 0,
			SaturationAdjustmentOrange = -14,
			SaturationAdjustmentPurple = 0,
			SaturationAdjustmentRed = -30,
			SaturationAdjustmentYellow = -7,
			ShadowTint = 0,
			Shadows = 12,
			SharpenDetail = 50,
			SharpenEdgeMasking = 0,
			SharpenRadius = 0.9,
			Sharpness = 71,
			SplitToningBalance = 85,
			SplitToningHighlightHue = 201,
			SplitToningHighlightSaturation = 17,
			SplitToningShadowHue = 120,
			SplitToningShadowSaturation = 28,
			ToneCurve = {
				0,
				41,
				255,
				255,
			},
			ToneCurveName = "Custom",
			Vibrance = 36,
			VignetteAmount = -1,
			VignetteMidpoint = 20,
			WhiteBalance = "Custom",
			orientation = "AB",
		},
		uuid = "52236B08-F307-491F-81D0-F86A2CE88A5B",
	},
	version = 0,
}
