presets/lightroom/_presets/Develop Presets/Vintrochrome Lr3-JPEG/Vintrochrome Film - V9 ~ HQLightroomPresets.lrtemplate
s = {
	id = "F522C063-8149-471B-AD1A-A116DFBD535B",
	internalName = "Copyrights © 2014 ~ HQLighroomPresets.com",
	title = "Vintrochrome Film : V9 ~ HQLightroomPresets",
	type = "Develop",
	value = {
		settings = {
			AutoBrightness = false,
			AutoContrast = false,
			AutoExposure = false,
			AutoShadows = false,
			BlueHue = -58,
			BlueSaturation = -25,
			Brightness = 0,
			CameraProfile = "Embedded",
			ChromaticAberrationB = 0,
			ChromaticAberrationR = 0,
			Clarity = 20,
			ColorNoiseReduction = 28,
			ColorNoiseReductionDetail = 50,
			Contrast = 21,
			ConvertToGrayscale = false,
			CropConstrainToWarp = 0,
			Defringe = 0,
			EnableCalibration = true,
			EnableColorAdjustments = true,
			EnableDetail = true,
			EnableEffects = true,
			EnableLensCorrections = true,
			EnableSplitToning = true,
			Exposure = 0,
			FillLight = 1,
			GrainAmount = 28,
			GrainFrequency = 46,
			GrainSize = 56,
			GreenHue = 0,
			GreenSaturation = -6,
			HighlightRecovery = 48,
			HueAdjustmentAqua = 21,
			HueAdjustmentBlue = 23,
			HueAdjustmentGreen = 24,
			HueAdjustmentMagenta = 2,
			HueAdjustmentOrange = 26,
			HueAdjustmentPurple = 12,
			HueAdjustmentRed = 9,
			HueAdjustmentYellow = 33,
			IncrementalTemperature = 15,
			IncrementalTint = 36,
			LensManualDistortionAmount = 0,
			LensProfileEnable = 0,
			LensProfileSetup = "LensDefaults",
			LuminanceAdjustmentAqua = -12,
			LuminanceAdjustmentBlue = -9,
			LuminanceAdjustmentGreen = -7,
			LuminanceAdjustmentMagenta = -4,
			LuminanceAdjustmentOrange = -9,
			LuminanceAdjustmentPurple = -7,
			LuminanceAdjustmentRed = -9,
			LuminanceAdjustmentYellow = -12,
			LuminanceNoiseReductionContrast = 0,
			LuminanceNoiseReductionDetail = 43,
			LuminanceSmoothing = 8,
			ParametricDarks = 0,
			ParametricHighlightSplit = 75,
			ParametricHighlights = -40,
			ParametricLights = 0,
			ParametricMidtoneSplit = 50,
			ParametricShadowSplit = 25,
			ParametricShadows = -1,
			PerspectiveHorizontal = 0,
			PerspectiveRotate = 0,
			PerspectiveScale = 100,
			PerspectiveVertical = 0,
			PostCropVignetteAmount = 0,
			PostCropVignetteFeather = 100,
			PostCropVignetteHighlightContrast = 0,
			PostCropVignetteMidpoint = 23,
			PostCropVignetteRoundness = -39,
			PostCropVignetteStyle = 1,
			ProcessVersion = "5.7",
			RedHue = 0,
			RedSaturation = -25,
			Saturation = -10,
			SaturationAdjustmentAqua = -24,
			SaturationAdjustmentBlue = -21,
			SaturationAdjustmentGreen = -30,
			SaturationAdjustmentMagenta = 10,
			SaturationAdjustmentOrange = 21,
			SaturationAdjustmentPurple = -10,
			SaturationAdjustmentRed = 67,
			SaturationAdjustmentYellow = -4,
			ShadowTint = 56,
			Shadows = 15,
			SharpenDetail = 50,
			SharpenEdgeMasking = 0,
			SharpenRadius = 1,
			Sharpness = 41,
			SplitToningBalance = 85,
			SplitToningHighlightHue = 239,
			SplitToningHighlightSaturation = 0,
			SplitToningShadowHue = 153,
			SplitToningShadowSaturation = 85,
			ToneCurve = {
				0,
				42,
				70,
				94,
				156,
				164,
				255,
				224,
			},
			ToneCurveName = "Custom",
			Vibrance = 0,
			VignetteAmount = 0,
			VignetteMidpoint = 48,
			WhiteBalance = "Custom",
			orientation = "AB",
		},
		uuid = "7E10D540-611D-4DAE-BF28-D12725569740",
	},
	version = 0,
}
