presets/lightroom/_presets/Develop Presets/Vintrochrome Lr3-JPEG/Vintrochrome Film - V28 ~ HQLightroomPresets.lrtemplate
s = {
	id = "9205D42E-2DC0-4700-B6CA-3475059D57A2",
	internalName = "Copyrights © 2014 ~ HQLighroomPresets.com",
	title = "Vintrochrome Film : V28 ~ HQLightroomPresets",
	type = "Develop",
	value = {
		settings = {
			AutoBrightness = false,
			AutoContrast = false,
			AutoExposure = false,
			AutoShadows = false,
			BlueHue = -7,
			BlueSaturation = 21,
			Brightness = 11,
			CameraProfile = "Embedded",
			ChromaticAberrationB = 0,
			ChromaticAberrationR = 0,
			Clarity = 0,
			ColorNoiseReduction = 23,
			ColorNoiseReductionDetail = 33,
			Contrast = 0,
			ConvertToGrayscale = false,
			CropConstrainToWarp = 0,
			Defringe = 0,
			EnableCalibration = true,
			EnableColorAdjustments = true,
			EnableDetail = true,
			EnableEffects = true,
			EnableLensCorrections = true,
			EnableSplitToning = true,
			Exposure = 0,
			FillLight = 38,
			GrainAmount = 33,
			GrainFrequency = 29,
			GrainSize = 60,
			GreenHue = 10,
			GreenSaturation = -10,
			HighlightRecovery = 60,
			HueAdjustmentAqua = 0,
			HueAdjustmentBlue = 11,
			HueAdjustmentGreen = -4,
			HueAdjustmentMagenta = 15,
			HueAdjustmentOrange = 9,
			HueAdjustmentPurple = 16,
			HueAdjustmentRed = 16,
			HueAdjustmentYellow = -5,
			IncrementalTemperature = 0,
			IncrementalTint = 14,
			LensManualDistortionAmount = 0,
			LensProfileEnable = 0,
			LensProfileSetup = "LensDefaults",
			LuminanceAdjustmentAqua = -15,
			LuminanceAdjustmentBlue = -10,
			LuminanceAdjustmentGreen = -25,
			LuminanceAdjustmentMagenta = 5,
			LuminanceAdjustmentOrange = -8,
			LuminanceAdjustmentPurple = -10,
			LuminanceAdjustmentRed = -10,
			LuminanceAdjustmentYellow = 0,
			LuminanceNoiseReductionContrast = 13,
			LuminanceNoiseReductionDetail = 43,
			LuminanceSmoothing = 11,
			ParametricDarks = 0,
			ParametricHighlightSplit = 75,
			ParametricHighlights = 0,
			ParametricLights = 0,
			ParametricMidtoneSplit = 60,
			ParametricShadowSplit = 14,
			ParametricShadows = 0,
			PerspectiveHorizontal = 0,
			PerspectiveRotate = 0,
			PerspectiveScale = 100,
			PerspectiveVertical = 0,
			PostCropVignetteAmount = 0,
			PostCropVignetteFeather = 50,
			PostCropVignetteHighlightContrast = 0,
			PostCropVignetteMidpoint = 50,
			PostCropVignetteRoundness = 0,
			PostCropVignetteStyle = 1,
			ProcessVersion = "5.7",
			RedHue = -7,
			RedSaturation = -29,
			Saturation = -3,
			SaturationAdjustmentAqua = -7,
			SaturationAdjustmentBlue = -14,
			SaturationAdjustmentGreen = -30,
			SaturationAdjustmentMagenta = -9,
			SaturationAdjustmentOrange = -11,
			SaturationAdjustmentPurple = 0,
			SaturationAdjustmentRed = 0,
			SaturationAdjustmentYellow = -14,
			ShadowTint = 0,
			Shadows = 4,
			SharpenDetail = 25,
			SharpenEdgeMasking = 0,
			SharpenRadius = 1.2,
			Sharpness = 50,
			SplitToningBalance = 0,
			SplitToningHighlightHue = 58,
			SplitToningHighlightSaturation = 13,
			SplitToningShadowHue = 99,
			SplitToningShadowSaturation = 23,
			ToneCurve = {
				0,
				32,
				40,
				46,
				216,
				212,
				255,
				236,
			},
			ToneCurveName = "Custom",
			Vibrance = -1,
			VignetteAmount = 0,
			VignetteMidpoint = 50,
			WhiteBalance = "Custom",
			orientation = "AB",
		},
		uuid = "753F3AD7-4DF6-45BD-81AB-F000909A6621",
	},
	version = 0,
}
