presets/lightroom/_presets/Develop Presets/Vintrochrome Lr3-JPEG/Vintrochrome Film - V91 ~ HQLightroomPresets.lrtemplate
s = {
	id = "FD4DCCD8-A01F-4EFD-9F51-EA4EBDA4BD2B",
	internalName = "Copyrights © 2014 ~ HQLighroomPresets.com",
	title = "Vintrochrome Film : V91 ~ HQLightroomPresets",
	type = "Develop",
	value = {
		settings = {
			AutoBrightness = false,
			AutoContrast = false,
			AutoExposure = false,
			AutoShadows = false,
			BlueHue = 0,
			BlueSaturation = -6,
			Brightness = 0,
			CameraProfile = "Embedded",
			ChromaticAberrationB = 0,
			ChromaticAberrationR = 0,
			Clarity = 19,
			ColorNoiseReduction = 25,
			ColorNoiseReductionDetail = 50,
			Contrast = -9,
			ConvertToGrayscale = false,
			CropConstrainToWarp = 0,
			Defringe = 0,
			EnableCalibration = true,
			EnableColorAdjustments = true,
			EnableDetail = true,
			EnableEffects = true,
			EnableLensCorrections = true,
			EnableSplitToning = true,
			Exposure = 0.14,
			FillLight = 27,
			GrainAmount = 31,
			GrainFrequency = 46,
			GrainSize = 68,
			GreenHue = 0,
			GreenSaturation = 13,
			HighlightRecovery = 10,
			HueAdjustmentAqua = 0,
			HueAdjustmentBlue = 0,
			HueAdjustmentGreen = 0,
			HueAdjustmentMagenta = 0,
			HueAdjustmentOrange = 0,
			HueAdjustmentPurple = 0,
			HueAdjustmentRed = 0,
			HueAdjustmentYellow = 0,
			IncrementalTemperature = 1,
			IncrementalTint = -8,
			LensManualDistortionAmount = 0,
			LensProfileEnable = 0,
			LensProfileSetup = "LensDefaults",
			LuminanceAdjustmentAqua = 0,
			LuminanceAdjustmentBlue = 0,
			LuminanceAdjustmentGreen = 0,
			LuminanceAdjustmentMagenta = 0,
			LuminanceAdjustmentOrange = 20,
			LuminanceAdjustmentPurple = 0,
			LuminanceAdjustmentRed = 11,
			LuminanceAdjustmentYellow = 25,
			LuminanceNoiseReductionContrast = 0,
			LuminanceNoiseReductionDetail = 50,
			LuminanceSmoothing = 18,
			ParametricDarks = -12,
			ParametricHighlightSplit = 75,
			ParametricHighlights = -5,
			ParametricLights = -2,
			ParametricMidtoneSplit = 50,
			ParametricShadowSplit = 25,
			ParametricShadows = 100,
			PerspectiveHorizontal = 0,
			PerspectiveRotate = 0,
			PerspectiveScale = 100,
			PerspectiveVertical = 0,
			PostCropVignetteAmount = 0,
			PostCropVignetteFeather = 50,
			PostCropVignetteHighlightContrast = 0,
			PostCropVignetteMidpoint = 38,
			PostCropVignetteRoundness = 0,
			PostCropVignetteStyle = 1,
			ProcessVersion = "5.7",
			RedHue = 0,
			RedSaturation = 0,
			Saturation = 3,
			SaturationAdjustmentAqua = 0,
			SaturationAdjustmentBlue = 2,
			SaturationAdjustmentGreen = 0,
			SaturationAdjustmentMagenta = 0,
			SaturationAdjustmentOrange = 2,
			SaturationAdjustmentPurple = 0,
			SaturationAdjustmentRed = -23,
			SaturationAdjustmentYellow = 7,
			ShadowTint = 0,
			Shadows = 9,
			SharpenDetail = 25,
			SharpenEdgeMasking = 0,
			SharpenRadius = 1,
			Sharpness = 71,
			SplitToningBalance = 0,
			SplitToningHighlightHue = 91,
			SplitToningHighlightSaturation = 9,
			SplitToningShadowHue = 159,
			SplitToningShadowSaturation = 0,
			ToneCurve = {
				0,
				34,
				21,
				34,
				122,
				92,
				193,
				191,
				255,
				225,
			},
			ToneCurveName = "Custom",
			Vibrance = -13,
			VignetteAmount = 0,
			VignetteMidpoint = 20,
			WhiteBalance = "Custom",
			orientation = "AB",
		},
		uuid = "32B9D136-4FA7-4BE6-B093-D05F3DC5834A",
	},
	version = 0,
}
