presets/lightroom/_presets/Develop Presets/Vintrochrome Lr3-JPEG/Vintrochrome Film - V3 ~ HQLightroomPresets.lrtemplate
s = {
	id = "8E3FD648-F0BF-4C94-99DE-9057EB60346A",
	internalName = "Copyrights © 2014 ~ HQLighroomPresets.com",
	title = "Vintrochrome Film : V3 ~ HQLightroomPresets",
	type = "Develop",
	value = {
		settings = {
			AutoBrightness = false,
			AutoContrast = false,
			AutoExposure = false,
			AutoShadows = false,
			BlueHue = -44,
			BlueSaturation = 33,
			Brightness = 0,
			CameraProfile = "ACR 4.4",
			ChromaticAberrationB = 0,
			ChromaticAberrationR = 0,
			Clarity = 21,
			ColorNoiseReduction = 0,
			ColorNoiseReductionDetail = 50,
			Contrast = 0,
			ConvertToGrayscale = false,
			CropConstrainToWarp = 0,
			Defringe = 0,
			EnableCalibration = true,
			EnableColorAdjustments = true,
			EnableDetail = true,
			EnableEffects = true,
			EnableLensCorrections = true,
			EnableSplitToning = true,
			Exposure = 0,
			FillLight = 9,
			GrainAmount = 19,
			GrainFrequency = 64,
			GrainSize = 71,
			GreenHue = 46,
			GreenSaturation = 0,
			HighlightRecovery = 100,
			HueAdjustmentAqua = 0,
			HueAdjustmentBlue = 0,
			HueAdjustmentGreen = 0,
			HueAdjustmentMagenta = 0,
			HueAdjustmentOrange = -9,
			HueAdjustmentPurple = 0,
			HueAdjustmentRed = 0,
			HueAdjustmentYellow = 7,
			IncrementalTemperature = 6,
			IncrementalTint = 0,
			LensManualDistortionAmount = 0,
			LensProfileEnable = 0,
			LensProfileSetup = "LensDefaults",
			LuminanceAdjustmentAqua = -18,
			LuminanceAdjustmentBlue = 0,
			LuminanceAdjustmentGreen = -11,
			LuminanceAdjustmentMagenta = 0,
			LuminanceAdjustmentOrange = -16,
			LuminanceAdjustmentPurple = 0,
			LuminanceAdjustmentRed = -32,
			LuminanceAdjustmentYellow = -18,
			LuminanceNoiseReductionContrast = 0,
			LuminanceNoiseReductionDetail = 50,
			LuminanceSmoothing = 5,
			ParametricDarks = 52,
			ParametricHighlightSplit = 90,
			ParametricHighlights = 0,
			ParametricLights = 0,
			ParametricMidtoneSplit = 59,
			ParametricShadowSplit = 10,
			ParametricShadows = 0,
			PerspectiveHorizontal = 0,
			PerspectiveRotate = 0,
			PerspectiveScale = 100,
			PerspectiveVertical = 0,
			PostCropVignetteAmount = 0,
			PostCropVignetteFeather = 100,
			PostCropVignetteHighlightContrast = 0,
			PostCropVignetteMidpoint = 43,
			PostCropVignetteRoundness = 38,
			PostCropVignetteStyle = 1,
			ProcessVersion = "5.7",
			RedHue = 49,
			RedSaturation = 0,
			Saturation = -10,
			SaturationAdjustmentAqua = -18,
			SaturationAdjustmentBlue = -36,
			SaturationAdjustmentGreen = -39,
			SaturationAdjustmentMagenta = -25,
			SaturationAdjustmentOrange = -14,
			SaturationAdjustmentPurple = -14,
			SaturationAdjustmentRed = -23,
			SaturationAdjustmentYellow = -14,
			ShadowTint = 0,
			Shadows = 11,
			SharpenDetail = 25,
			SharpenEdgeMasking = 0,
			SharpenRadius = 1,
			Sharpness = 61,
			SplitToningBalance = 62,
			SplitToningHighlightHue = 129,
			SplitToningHighlightSaturation = 6,
			SplitToningShadowHue = 178,
			SplitToningShadowSaturation = 41,
			ToneCurve = {
				0,
				0,
				47,
				44,
				133,
				141,
				192,
				202,
				255,
				237,
			},
			ToneCurveName = "Custom",
			Vibrance = -1,
			VignetteAmount = 0,
			VignetteMidpoint = 50,
			WhiteBalance = "Custom",
			orientation = "AB",
		},
		uuid = "58FD65CF-CF6E-46CE-B425-4B9C6D009E7F",
	},
	version = 0,
}
