presets/lightroom/_presets/Develop Presets/Vintrochrome Lr3-JPEG/Vintrochrome Film - V68 ~ HQLightroomPresets.lrtemplate
s = {
	id = "B1EBA976-EB01-45AC-9DF6-5DF677FC9608",
	internalName = "Copyrights © 2014 ~ HQLighroomPresets.com",
	title = "Vintrochrome Film : V68 ~ HQLightroomPresets",
	type = "Develop",
	value = {
		settings = {
			AutoBrightness = false,
			AutoContrast = false,
			AutoExposure = false,
			AutoShadows = false,
			BlueHue = 0,
			BlueSaturation = -29,
			Brightness = 5,
			CameraProfile = "Embedded",
			ChromaticAberrationB = 0,
			ChromaticAberrationR = 0,
			Clarity = 0,
			ColorNoiseReduction = 26,
			ColorNoiseReductionDetail = 0,
			Contrast = 5,
			ConvertToGrayscale = false,
			CropConstrainToWarp = 0,
			Defringe = 0,
			EnableCalibration = true,
			EnableColorAdjustments = true,
			EnableDetail = true,
			EnableEffects = true,
			EnableLensCorrections = true,
			EnableSplitToning = true,
			Exposure = 0.25,
			FillLight = 39,
			GrainAmount = 19,
			GrainFrequency = 50,
			GrainSize = 25,
			GreenHue = 40,
			GreenSaturation = 7,
			HighlightRecovery = 12,
			HueAdjustmentAqua = 0,
			HueAdjustmentBlue = 0,
			HueAdjustmentGreen = 0,
			HueAdjustmentMagenta = 0,
			HueAdjustmentOrange = 0,
			HueAdjustmentPurple = 0,
			HueAdjustmentRed = 0,
			HueAdjustmentYellow = 0,
			IncrementalTemperature = 0,
			IncrementalTint = 33,
			LensManualDistortionAmount = 0,
			LensProfileEnable = 0,
			LensProfileSetup = "LensDefaults",
			LuminanceAdjustmentAqua = 44,
			LuminanceAdjustmentBlue = 5,
			LuminanceAdjustmentGreen = -47,
			LuminanceAdjustmentMagenta = 0,
			LuminanceAdjustmentOrange = 0,
			LuminanceAdjustmentPurple = -29,
			LuminanceAdjustmentRed = 40,
			LuminanceAdjustmentYellow = 0,
			LuminanceNoiseReductionContrast = 0,
			LuminanceNoiseReductionDetail = 50,
			LuminanceSmoothing = 0,
			ParametricDarks = 0,
			ParametricHighlightSplit = 75,
			ParametricHighlights = 0,
			ParametricLights = 0,
			ParametricMidtoneSplit = 50,
			ParametricShadowSplit = 25,
			ParametricShadows = 0,
			PerspectiveHorizontal = 0,
			PerspectiveRotate = 0,
			PerspectiveScale = 100,
			PerspectiveVertical = 0,
			PostCropVignetteAmount = -29,
			PostCropVignetteFeather = 83,
			PostCropVignetteHighlightContrast = 52,
			PostCropVignetteMidpoint = 39,
			PostCropVignetteRoundness = 80,
			PostCropVignetteStyle = 1,
			ProcessVersion = "5.7",
			RedHue = 49,
			RedSaturation = -13,
			Saturation = -19,
			SaturationAdjustmentAqua = -5,
			SaturationAdjustmentBlue = -41,
			SaturationAdjustmentGreen = 61,
			SaturationAdjustmentMagenta = 0,
			SaturationAdjustmentOrange = 35,
			SaturationAdjustmentPurple = 0,
			SaturationAdjustmentRed = 29,
			SaturationAdjustmentYellow = -2,
			ShadowTint = 0,
			Shadows = 13,
			SharpenDetail = 50,
			SharpenEdgeMasking = 0,
			SharpenRadius = 1,
			Sharpness = 59,
			SplitToningBalance = 31,
			SplitToningHighlightHue = 74,
			SplitToningHighlightSaturation = 0,
			SplitToningShadowHue = 54,
			SplitToningShadowSaturation = 32,
			ToneCurve = {
				0,
				32,
				54,
				80,
				165,
				159,
				255,
				207,
			},
			ToneCurveName = "Custom",
			Vibrance = -10,
			VignetteAmount = 0,
			VignetteMidpoint = 12,
			WhiteBalance = "Custom",
			orientation = "DA",
		},
		uuid = "2A1C7AF6-32C7-4BCA-8F4C-4976423C3A89",
	},
	version = 0,
}
