presets/lightroom/_presets/Develop Presets/+L 15 Skin Hue (HSL)/07 Skin Tone +20.lrtemplate
s = {
	id = "4280FEAD-4057-4443-95FB-D648AE478E2E",
	internalName = "07 Skin Tone +20",
	title = "07 Skin Tone +20",
	type = "Develop",
	value = {
		settings = {
			ConvertToGrayscale = false,
			EnableColorAdjustments = true,
			HueAdjustmentAqua = 0,
			HueAdjustmentBlue = 0,
			HueAdjustmentGreen = 0,
			HueAdjustmentMagenta = 0,
			HueAdjustmentOrange = 20,
			HueAdjustmentPurple = 0,
			HueAdjustmentRed = 0,
			HueAdjustmentYellow = 0,
			LuminanceAdjustmentAqua = 0,
			LuminanceAdjustmentBlue = 0,
			LuminanceAdjustmentGreen = 0,
			LuminanceAdjustmentMagenta = 0,
			LuminanceAdjustmentOrange = 0,
			LuminanceAdjustmentPurple = 0,
			LuminanceAdjustmentRed = 0,
			LuminanceAdjustmentYellow = 0,
			SaturationAdjustmentAqua = 0,
			SaturationAdjustmentBlue = 0,
			SaturationAdjustmentGreen = 0,
			SaturationAdjustmentMagenta = 0,
			SaturationAdjustmentOrange = 0,
			SaturationAdjustmentPurple = 0,
			SaturationAdjustmentRed = 0,
			SaturationAdjustmentYellow = 0,
		},
		uuid = "1F8DD397-13D2-4502-B367-001AB4F7A804",
	},
	version = 0,
}
