presets/lightroom/_presets/Develop Presets/+L 13 Cool Shadows/03 Cool Shadows +67.lrtemplate
s = {
	id = "092FE349-DE42-4783-A459-3CE93E24FB80",
	internalName = "03 Cool Shadows +67",
	title = "03 Cool Shadows +67",
	type = "Develop",
	value = {
		settings = {
			EnableSplitToning = true,
			SplitToningBalance = 60,
			SplitToningHighlightHue = 0,
			SplitToningHighlightSaturation = 0,
			SplitToningShadowHue = 216,
			SplitToningShadowSaturation = 67,
		},
		uuid = "0A9B0A36-E646-4AA9-86EF-F95CDF0E6400",
	},
	version = 0,
}
