presets/lightroom/_presets/Develop Presets/VSCO Film 05 - Standard/S - Agfa Vista 800 Warm.lrtemplate
s = {
	id = "6C73A6AB-7254-4C1D-9363-84F628E8F7CF",
	internalName = "Agfa Vista 800 Warm",
	title = "S - Agfa Vista 800 Warm",
	type = "Develop",
	value = {
		settings = {
			Blacks2012 = 10,
			BlueHue = -10,
			BlueSaturation = -10,
			CameraProfile = "Adobe Standard",
			Clarity2012 = -10,
			Contrast2012 = 0,
			ConvertToGrayscale = false,
			EnableCalibration = true,
			EnableColorAdjustments = true,
			EnableDetail = true,
			EnableEffects = true,
			EnableSplitToning = true,
			GrainAmount = 30,
			GrainFrequency = 85,
			GrainSize = 25,
			GreenHue = 55,
			GreenSaturation = -20,
			Highlights2012 = -40,
			HueAdjustmentAqua = 10,
			HueAdjustmentBlue = -10,
			HueAdjustmentGreen = 0,
			HueAdjustmentMagenta = 0,
			HueAdjustmentOrange = 0,
			HueAdjustmentPurple = 0,
			HueAdjustmentRed = 15,
			HueAdjustmentYellow = 5,
			LuminanceAdjustmentAqua = 15,
			LuminanceAdjustmentBlue = -25,
			LuminanceAdjustmentGreen = 0,
			LuminanceAdjustmentMagenta = 0,
			LuminanceAdjustmentOrange = -5,
			LuminanceAdjustmentPurple = -15,
			LuminanceAdjustmentRed = -25,
			LuminanceAdjustmentYellow = 10,
			ParametricDarks = 10,
			ParametricHighlightSplit = 72,
			ParametricHighlights = 15,
			ParametricLights = 14,
			ParametricMidtoneSplit = 44,
			ParametricShadowSplit = 19,
			ParametricShadows = 30,
			ProcessVersion = "6.7",
			RedHue = 30,
			RedSaturation = 30,
			Saturation = -10,
			SaturationAdjustmentAqua = -35,
			SaturationAdjustmentBlue = -25,
			SaturationAdjustmentGreen = -30,
			SaturationAdjustmentMagenta = -30,
			SaturationAdjustmentOrange = -10,
			SaturationAdjustmentPurple = -45,
			SaturationAdjustmentRed = -20,
			SaturationAdjustmentYellow = -5,
			ShadowTint = -4,
			Shadows2012 = 30,
			SharpenDetail = 25,
			SharpenEdgeMasking = 0,
			SharpenRadius = 1,
			Sharpness = 0,
			SplitToningBalance = 75,
			SplitToningHighlightHue = 0,
			SplitToningHighlightSaturation = 0,
			SplitToningShadowHue = 240,
			SplitToningShadowSaturation = 0,
			ToneCurveName2012 = "Custom",
			ToneCurvePV2012 = {
				0,
				28,
				37,
				40,
				79,
				75,
				133,
				133,
				189,
				187,
				255,
				245,
			},
			ToneCurvePV2012Blue = {
				0,
				0,
				76,
				49,
				118,
				121,
				174,
				197,
				255,
				255,
			},
			ToneCurvePV2012Green = {
				0,
				0,
				32,
				11,
				114,
				120,
				178,
				200,
				255,
				255,
			},
			ToneCurvePV2012Red = {
				0,
				0,
				31,
				13,
				79,
				62,
				113,
				122,
				174,
				196,
				255,
				255,
			},
			Vibrance = 0,
			Whites2012 = -20,
		},
		uuid = "79F012B5-0CB2-4A8F-8327-2EC7070492B6",
	},
	version = 0,
}
