presets/lightroom/_presets/Develop Presets/VSCO Film 05 - Standard/S - Kodak Max 800 Alt +.lrtemplate
s = {
	id = "662C6008-FD8A-4DA4-BC20-EFC7EF06C959",
	internalName = "Kodak Max 800",
	title = "S - Kodak Max 800 Alt +",
	type = "Develop",
	value = {
		settings = {
			Blacks2012 = 0,
			BlueHue = -10,
			BlueSaturation = 0,
			CameraProfile = "Adobe Standard",
			Clarity2012 = -5,
			Contrast2012 = 0,
			ConvertToGrayscale = false,
			EnableCalibration = true,
			EnableColorAdjustments = true,
			EnableDetail = true,
			EnableEffects = true,
			EnableSplitToning = true,
			GrainAmount = 30,
			GrainFrequency = 85,
			GrainSize = 30,
			GreenHue = 40,
			GreenSaturation = 10,
			Highlights2012 = -40,
			HueAdjustmentAqua = 10,
			HueAdjustmentBlue = -5,
			HueAdjustmentGreen = 0,
			HueAdjustmentMagenta = 20,
			HueAdjustmentOrange = 0,
			HueAdjustmentPurple = 20,
			HueAdjustmentRed = 30,
			HueAdjustmentYellow = 0,
			LuminanceAdjustmentAqua = 10,
			LuminanceAdjustmentBlue = -10,
			LuminanceAdjustmentGreen = 15,
			LuminanceAdjustmentMagenta = 15,
			LuminanceAdjustmentOrange = -20,
			LuminanceAdjustmentPurple = 20,
			LuminanceAdjustmentRed = -15,
			LuminanceAdjustmentYellow = 0,
			ParametricDarks = 10,
			ParametricHighlightSplit = 75,
			ParametricHighlights = 10,
			ParametricLights = 10,
			ParametricMidtoneSplit = 48,
			ParametricShadowSplit = 20,
			ParametricShadows = 30,
			ProcessVersion = "6.7",
			RedHue = 20,
			RedSaturation = 85,
			Saturation = -20,
			SaturationAdjustmentAqua = 0,
			SaturationAdjustmentBlue = -15,
			SaturationAdjustmentGreen = -40,
			SaturationAdjustmentMagenta = -35,
			SaturationAdjustmentOrange = -35,
			SaturationAdjustmentPurple = -35,
			SaturationAdjustmentRed = -30,
			SaturationAdjustmentYellow = -5,
			ShadowTint = -2,
			Shadows2012 = 10,
			SharpenDetail = 25,
			SharpenEdgeMasking = 0,
			SharpenRadius = 1,
			Sharpness = 0,
			SplitToningBalance = 0,
			SplitToningHighlightHue = 0,
			SplitToningHighlightSaturation = 0,
			SplitToningShadowHue = 0,
			SplitToningShadowSaturation = 0,
			ToneCurveName2012 = "Custom",
			ToneCurvePV2012 = {
				0,
				24,
				22,
				30,
				65,
				65,
				146,
				149,
				187,
				185,
				255,
				235,
			},
			ToneCurvePV2012Blue = {
				0,
				0,
				31,
				20,
				85,
				83,
				121,
				135,
				182,
				193,
				255,
				251,
			},
			ToneCurvePV2012Green = {
				0,
				0,
				40,
				23,
				112,
				123,
				176,
				200,
				218,
				228,
				255,
				249,
			},
			ToneCurvePV2012Red = {
				0,
				0,
				31,
				11,
				109,
				120,
				170,
				200,
				200,
				223,
				255,
				255,
			},
			Vibrance = 0,
			Whites2012 = -30,
		},
		uuid = "AB2287FF-7732-4336-8B9C-65D4E8221BC2",
	},
	version = 0,
}
