presets/lightroom/_presets/Develop Presets/VSCO Film 05 - Standard/S - Kodak Ektar 100 - -.lrtemplate
s = {
	id = "380CB54D-60D5-42EC-A67A-72B5A74A4860",
	internalName = "Kodak Ektar 100 - -",
	title = "S - Kodak Ektar 100 - -",
	type = "Develop",
	value = {
		settings = {
			Blacks2012 = 25,
			BlueHue = -5,
			BlueSaturation = -10,
			CameraProfile = "Adobe Standard",
			Clarity2012 = 0,
			Contrast2012 = 0,
			ConvertToGrayscale = false,
			EnableCalibration = true,
			EnableColorAdjustments = true,
			EnableDetail = true,
			EnableEffects = true,
			EnableSplitToning = true,
			GrainAmount = 0,
			GrainFrequency = 35,
			GrainSize = 30,
			GreenHue = 55,
			GreenSaturation = 5,
			Highlights2012 = -55,
			HueAdjustmentAqua = 0,
			HueAdjustmentBlue = 0,
			HueAdjustmentGreen = 2,
			HueAdjustmentMagenta = 30,
			HueAdjustmentOrange = 0,
			HueAdjustmentPurple = 20,
			HueAdjustmentRed = 10,
			HueAdjustmentYellow = 0,
			LuminanceAdjustmentAqua = 20,
			LuminanceAdjustmentBlue = 0,
			LuminanceAdjustmentGreen = 0,
			LuminanceAdjustmentMagenta = 5,
			LuminanceAdjustmentOrange = -2,
			LuminanceAdjustmentPurple = 20,
			LuminanceAdjustmentRed = -10,
			LuminanceAdjustmentYellow = 10,
			ParametricDarks = 0,
			ParametricHighlightSplit = 75,
			ParametricHighlights = 0,
			ParametricLights = 0,
			ParametricMidtoneSplit = 50,
			ParametricShadowSplit = 25,
			ParametricShadows = 12,
			ProcessVersion = "6.7",
			RedHue = 30,
			RedSaturation = 5,
			Saturation = -5,
			SaturationAdjustmentAqua = -20,
			SaturationAdjustmentBlue = -15,
			SaturationAdjustmentGreen = -20,
			SaturationAdjustmentMagenta = -30,
			SaturationAdjustmentOrange = 5,
			SaturationAdjustmentPurple = -45,
			SaturationAdjustmentRed = -10,
			SaturationAdjustmentYellow = 0,
			ShadowTint = 0,
			Shadows2012 = 50,
			SharpenDetail = 25,
			SharpenEdgeMasking = 0,
			SharpenRadius = 1,
			Sharpness = 0,
			SplitToningBalance = 0,
			SplitToningHighlightHue = 0,
			SplitToningHighlightSaturation = 0,
			SplitToningShadowHue = 0,
			SplitToningShadowSaturation = 0,
			ToneCurveName2012 = "Custom",
			ToneCurvePV2012 = {
				0,
				0,
				14,
				19,
				53,
				56,
				127,
				127,
				255,
				255,
			},
			ToneCurvePV2012Blue = {
				0,
				0,
				24,
				10,
				93,
				82,
				148,
				177,
				198,
				226,
				255,
				255,
			},
			ToneCurvePV2012Green = {
				0,
				0,
				28,
				7,
				61,
				35,
				92,
				82,
				149,
				181,
				189,
				221,
				255,
				255,
			},
			ToneCurvePV2012Red = {
				0,
				0,
				41,
				12,
				68,
				40,
				96,
				88,
				149,
				179,
				191,
				223,
				255,
				255,
			},
			Vibrance = 0,
			Whites2012 = -45,
		},
		uuid = "8CE8A2FE-7953-4D5B-A4C9-314367400580",
	},
	version = 0,
}
