presets/lightroom/_presets/Develop Presets/VSCO Film 05 - Standard/S - Agfa Vista 100 -.lrtemplate
s = {
	id = "F8EFDCB0-C019-4D81-A368-59BD750AB18E",
	internalName = "Agfa Vista 100 -",
	title = "S - Agfa Vista 100 -",
	type = "Develop",
	value = {
		settings = {
			Blacks2012 = 25,
			BlueHue = -20,
			BlueSaturation = -5,
			CameraProfile = "Adobe Standard",
			Clarity2012 = -5,
			Contrast2012 = 0,
			ConvertToGrayscale = false,
			EnableCalibration = true,
			EnableColorAdjustments = true,
			EnableDetail = true,
			EnableEffects = true,
			EnableSplitToning = true,
			GrainAmount = 10,
			GrainFrequency = 65,
			GrainSize = 20,
			GreenHue = 35,
			GreenSaturation = 5,
			Highlights2012 = -50,
			HueAdjustmentAqua = 10,
			HueAdjustmentBlue = 0,
			HueAdjustmentGreen = 10,
			HueAdjustmentMagenta = 30,
			HueAdjustmentOrange = 5,
			HueAdjustmentPurple = 20,
			HueAdjustmentRed = 5,
			HueAdjustmentYellow = 0,
			LuminanceAdjustmentAqua = 0,
			LuminanceAdjustmentBlue = -25,
			LuminanceAdjustmentGreen = 0,
			LuminanceAdjustmentMagenta = 0,
			LuminanceAdjustmentOrange = 0,
			LuminanceAdjustmentPurple = -15,
			LuminanceAdjustmentRed = 5,
			LuminanceAdjustmentYellow = 10,
			ParametricDarks = 15,
			ParametricHighlightSplit = 75,
			ParametricHighlights = 10,
			ParametricLights = 10,
			ParametricMidtoneSplit = 48,
			ParametricShadowSplit = 20,
			ParametricShadows = 30,
			ProcessVersion = "6.7",
			RedHue = 25,
			RedSaturation = 40,
			Saturation = -5,
			SaturationAdjustmentAqua = -35,
			SaturationAdjustmentBlue = -30,
			SaturationAdjustmentGreen = -35,
			SaturationAdjustmentMagenta = -45,
			SaturationAdjustmentOrange = -20,
			SaturationAdjustmentPurple = -45,
			SaturationAdjustmentRed = -20,
			SaturationAdjustmentYellow = -20,
			ShadowTint = -4,
			Shadows2012 = 45,
			SharpenDetail = 25,
			SharpenEdgeMasking = 0,
			SharpenRadius = 1,
			Sharpness = 0,
			SplitToningBalance = 0,
			SplitToningHighlightHue = 0,
			SplitToningHighlightSaturation = 0,
			SplitToningShadowHue = 0,
			SplitToningShadowSaturation = 0,
			ToneCurveName2012 = "Custom",
			ToneCurvePV2012 = {
				0,
				3,
				255,
				249,
			},
			ToneCurvePV2012Blue = {
				0,
				0,
				36,
				10,
				76,
				46,
				122,
				118,
				183,
				206,
				222,
				235,
				255,
				255,
			},
			ToneCurvePV2012Green = {
				0,
				0,
				36,
				10,
				76,
				46,
				124,
				122,
				181,
				201,
				219,
				230,
				255,
				255,
			},
			ToneCurvePV2012Red = {
				0,
				0,
				40,
				9,
				76,
				46,
				126,
				122,
				182,
				204,
				255,
				255,
			},
			Vibrance = 0,
			Whites2012 = -30,
		},
		uuid = "4B4F48B1-000D-4E22-AB5C-22BF0FED93FC",
	},
	version = 0,
}
