presets/lightroom/_presets/Develop Presets/VSCO Film 05 - Standard/S - Agfa Vista 800 +.lrtemplate
s = {
	id = "41BF35DC-1AEB-467A-A20B-6EFC7B797728",
	internalName = "Agfa Vista 800 +",
	title = "S - Agfa Vista 800 +",
	type = "Develop",
	value = {
		settings = {
			Blacks2012 = 10,
			BlueHue = -5,
			BlueSaturation = -5,
			CameraProfile = "Adobe Standard",
			Clarity2012 = -10,
			Contrast2012 = 0,
			ConvertToGrayscale = false,
			EnableCalibration = true,
			EnableColorAdjustments = true,
			EnableDetail = true,
			EnableEffects = true,
			EnableSplitToning = true,
			GrainAmount = 35,
			GrainFrequency = 85,
			GrainSize = 25,
			GreenHue = 60,
			GreenSaturation = -20,
			Highlights2012 = -40,
			HueAdjustmentAqua = 10,
			HueAdjustmentBlue = -5,
			HueAdjustmentGreen = 0,
			HueAdjustmentMagenta = 0,
			HueAdjustmentOrange = -4,
			HueAdjustmentPurple = 0,
			HueAdjustmentRed = 15,
			HueAdjustmentYellow = 5,
			LuminanceAdjustmentAqua = 15,
			LuminanceAdjustmentBlue = -25,
			LuminanceAdjustmentGreen = 0,
			LuminanceAdjustmentMagenta = 10,
			LuminanceAdjustmentOrange = -8,
			LuminanceAdjustmentPurple = 10,
			LuminanceAdjustmentRed = -25,
			LuminanceAdjustmentYellow = 10,
			ParametricDarks = 10,
			ParametricHighlightSplit = 72,
			ParametricHighlights = 15,
			ParametricLights = 14,
			ParametricMidtoneSplit = 44,
			ParametricShadowSplit = 19,
			ParametricShadows = 30,
			ProcessVersion = "6.7",
			RedHue = 25,
			RedSaturation = 35,
			Saturation = -10,
			SaturationAdjustmentAqua = -50,
			SaturationAdjustmentBlue = -25,
			SaturationAdjustmentGreen = -20,
			SaturationAdjustmentMagenta = -30,
			SaturationAdjustmentOrange = -5,
			SaturationAdjustmentPurple = -45,
			SaturationAdjustmentRed = -20,
			SaturationAdjustmentYellow = -5,
			ShadowTint = -4,
			Shadows2012 = 30,
			SharpenDetail = 25,
			SharpenEdgeMasking = 0,
			SharpenRadius = 1,
			Sharpness = 0,
			SplitToningBalance = 75,
			SplitToningHighlightHue = 0,
			SplitToningHighlightSaturation = 0,
			SplitToningShadowHue = 240,
			SplitToningShadowSaturation = 10,
			ToneCurveName2012 = "Custom",
			ToneCurvePV2012 = {
				0,
				46,
				74,
				73,
				133,
				133,
				189,
				187,
				255,
				245,
			},
			ToneCurvePV2012Blue = {
				0,
				0,
				70,
				55,
				116,
				120,
				170,
				198,
				255,
				255,
			},
			ToneCurvePV2012Green = {
				0,
				0,
				28,
				14,
				80,
				65,
				114,
				120,
				180,
				199,
				255,
				255,
			},
			ToneCurvePV2012Red = {
				0,
				0,
				36,
				11,
				83,
				62,
				117,
				121,
				172,
				195,
				255,
				255,
			},
			Vibrance = 0,
			Whites2012 = -20,
		},
		uuid = "A98265B1-1374-4375-8C60-18D5236C9D7C",
	},
	version = 0,
}
