presets/lightroom/_presets/Develop Presets/VSCO Film 05 - Standard/S - Kodak Max 800 +++.lrtemplate
s = {
	id = "D55D23B2-7B15-4EBB-AF84-F1278A4736B1",
	internalName = "Kodak Max 800 +++",
	title = "S - Kodak Max 800 +++",
	type = "Develop",
	value = {
		settings = {
			Blacks2012 = 10,
			BlueHue = -10,
			BlueSaturation = -15,
			CameraProfile = "Adobe Standard",
			Clarity2012 = -10,
			Contrast2012 = 0,
			ConvertToGrayscale = false,
			EnableCalibration = true,
			EnableColorAdjustments = true,
			EnableDetail = true,
			EnableEffects = true,
			EnableSplitToning = true,
			GrainAmount = 40,
			GrainFrequency = 85,
			GrainSize = 30,
			GreenHue = 50,
			GreenSaturation = -15,
			Highlights2012 = -40,
			HueAdjustmentAqua = 10,
			HueAdjustmentBlue = 0,
			HueAdjustmentGreen = 0,
			HueAdjustmentMagenta = 20,
			HueAdjustmentOrange = 0,
			HueAdjustmentPurple = 20,
			HueAdjustmentRed = 20,
			HueAdjustmentYellow = 5,
			LuminanceAdjustmentAqua = -10,
			LuminanceAdjustmentBlue = -20,
			LuminanceAdjustmentGreen = 0,
			LuminanceAdjustmentMagenta = 20,
			LuminanceAdjustmentOrange = -12,
			LuminanceAdjustmentPurple = 20,
			LuminanceAdjustmentRed = -10,
			LuminanceAdjustmentYellow = 10,
			ParametricDarks = 10,
			ParametricHighlightSplit = 75,
			ParametricHighlights = 10,
			ParametricLights = 10,
			ParametricMidtoneSplit = 48,
			ParametricShadowSplit = 20,
			ParametricShadows = 30,
			ProcessVersion = "6.7",
			RedHue = 20,
			RedSaturation = 85,
			Saturation = -20,
			SaturationAdjustmentAqua = -20,
			SaturationAdjustmentBlue = -15,
			SaturationAdjustmentGreen = -40,
			SaturationAdjustmentMagenta = -50,
			SaturationAdjustmentOrange = -30,
			SaturationAdjustmentPurple = -65,
			SaturationAdjustmentRed = -35,
			SaturationAdjustmentYellow = -5,
			ShadowTint = -4,
			Shadows2012 = 15,
			SharpenDetail = 25,
			SharpenEdgeMasking = 0,
			SharpenRadius = 1,
			Sharpness = 0,
			SplitToningBalance = 0,
			SplitToningHighlightHue = 0,
			SplitToningHighlightSaturation = 0,
			SplitToningShadowHue = 0,
			SplitToningShadowSaturation = 0,
			ToneCurveName2012 = "Custom",
			ToneCurvePV2012 = {
				0,
				57,
				60,
				71,
				141,
				144,
				184,
				189,
				255,
				245,
			},
			ToneCurvePV2012Blue = {
				0,
				0,
				37,
				16,
				116,
				129,
				175,
				201,
				255,
				255,
			},
			ToneCurvePV2012Green = {
				0,
				0,
				38,
				20,
				114,
				120,
				173,
				199,
				255,
				255,
			},
			ToneCurvePV2012Red = {
				0,
				0,
				33,
				17,
				115,
				123,
				173,
				197,
				255,
				255,
			},
			Vibrance = 0,
			Whites2012 = -30,
		},
		uuid = "9B1ADC5A-7481-481C-829D-998919F8F4CB",
	},
	version = 0,
}
