presets/lightroom/_presets/Develop Presets/VSCO Film 05 - Standard/S - Agfa Vista 100 Warm.lrtemplate
s = {
	id = "3B28708A-F523-46CF-B02F-F202E15AEE13",
	internalName = "Agfa Vista 100 Warm",
	title = "S - Agfa Vista 100 Warm",
	type = "Develop",
	value = {
		settings = {
			Blacks2012 = 25,
			BlueHue = -20,
			BlueSaturation = -5,
			CameraProfile = "Adobe Standard",
			Clarity2012 = -5,
			Contrast2012 = 0,
			ConvertToGrayscale = false,
			EnableCalibration = true,
			EnableColorAdjustments = true,
			EnableDetail = true,
			EnableEffects = true,
			EnableSplitToning = true,
			GrainAmount = 20,
			GrainFrequency = 65,
			GrainSize = 20,
			GreenHue = 25,
			GreenSaturation = 0,
			Highlights2012 = -40,
			HueAdjustmentAqua = 10,
			HueAdjustmentBlue = 0,
			HueAdjustmentGreen = 10,
			HueAdjustmentMagenta = 30,
			HueAdjustmentOrange = 5,
			HueAdjustmentPurple = 20,
			HueAdjustmentRed = 5,
			HueAdjustmentYellow = 0,
			LuminanceAdjustmentAqua = 0,
			LuminanceAdjustmentBlue = -25,
			LuminanceAdjustmentGreen = 0,
			LuminanceAdjustmentMagenta = 0,
			LuminanceAdjustmentOrange = 0,
			LuminanceAdjustmentPurple = -15,
			LuminanceAdjustmentRed = 5,
			LuminanceAdjustmentYellow = 10,
			ParametricDarks = 15,
			ParametricHighlightSplit = 75,
			ParametricHighlights = 10,
			ParametricLights = 10,
			ParametricMidtoneSplit = 48,
			ParametricShadowSplit = 20,
			ParametricShadows = 30,
			ProcessVersion = "6.7",
			RedHue = 30,
			RedSaturation = 40,
			Saturation = -5,
			SaturationAdjustmentAqua = -35,
			SaturationAdjustmentBlue = -30,
			SaturationAdjustmentGreen = -35,
			SaturationAdjustmentMagenta = -45,
			SaturationAdjustmentOrange = -20,
			SaturationAdjustmentPurple = -45,
			SaturationAdjustmentRed = -20,
			SaturationAdjustmentYellow = -20,
			ShadowTint = -4,
			Shadows2012 = 35,
			SharpenDetail = 25,
			SharpenEdgeMasking = 0,
			SharpenRadius = 1,
			Sharpness = 0,
			SplitToningBalance = -85,
			SplitToningHighlightHue = 35,
			SplitToningHighlightSaturation = 10,
			SplitToningShadowHue = 0,
			SplitToningShadowSaturation = 0,
			ToneCurveName2012 = "Custom",
			ToneCurvePV2012 = {
				0,
				6,
				62,
				61,
				188,
				189,
				255,
				245,
			},
			ToneCurvePV2012Blue = {
				0,
				0,
				40,
				8,
				80,
				44,
				126,
				117,
				184,
				203,
				223,
				233,
				255,
				255,
			},
			ToneCurvePV2012Green = {
				0,
				0,
				36,
				10,
				76,
				46,
				124,
				122,
				181,
				201,
				219,
				230,
				255,
				255,
			},
			ToneCurvePV2012Red = {
				0,
				0,
				39,
				10,
				76,
				48,
				124,
				123,
				181,
				205,
				255,
				255,
			},
			Vibrance = 0,
			Whites2012 = -20,
		},
		uuid = "67262848-F590-4329-8ACE-0E7A78455C65",
	},
	version = 0,
}
