presets/lightroom/_presets/Develop Presets/VSCO Film 05 - Standard/S - Kodak Ultramax 800 Cool +.lrtemplate
s = {
	id = "918368A4-D060-4529-BB95-E415B3B0350F",
	internalName = "Kodak UltraMax 800 Cool +",
	title = "S - Kodak UltraMax 800 Cool +",
	type = "Develop",
	value = {
		settings = {
			Blacks2012 = 0,
			BlueHue = -10,
			BlueSaturation = -10,
			CameraProfile = "Adobe Standard",
			Clarity2012 = -5,
			Contrast2012 = 0,
			ConvertToGrayscale = false,
			EnableCalibration = true,
			EnableColorAdjustments = true,
			EnableDetail = true,
			EnableEffects = true,
			EnableSplitToning = true,
			GrainAmount = 35,
			GrainFrequency = 65,
			GrainSize = 40,
			GreenHue = 65,
			GreenSaturation = -20,
			Highlights2012 = -40,
			HueAdjustmentAqua = 10,
			HueAdjustmentBlue = -5,
			HueAdjustmentGreen = 5,
			HueAdjustmentMagenta = 20,
			HueAdjustmentOrange = -2,
			HueAdjustmentPurple = 20,
			HueAdjustmentRed = 10,
			HueAdjustmentYellow = 0,
			LuminanceAdjustmentAqua = 10,
			LuminanceAdjustmentBlue = -15,
			LuminanceAdjustmentGreen = 0,
			LuminanceAdjustmentMagenta = 15,
			LuminanceAdjustmentOrange = 0,
			LuminanceAdjustmentPurple = 20,
			LuminanceAdjustmentRed = -10,
			LuminanceAdjustmentYellow = 10,
			ParametricDarks = 10,
			ParametricHighlightSplit = 75,
			ParametricHighlights = 25,
			ParametricLights = 10,
			ParametricMidtoneSplit = 48,
			ParametricShadowSplit = 20,
			ParametricShadows = 35,
			ProcessVersion = "6.7",
			RedHue = 35,
			RedSaturation = 65,
			Saturation = -5,
			SaturationAdjustmentAqua = 0,
			SaturationAdjustmentBlue = -15,
			SaturationAdjustmentGreen = -55,
			SaturationAdjustmentMagenta = -35,
			SaturationAdjustmentOrange = -25,
			SaturationAdjustmentPurple = -35,
			SaturationAdjustmentRed = -30,
			SaturationAdjustmentYellow = -25,
			ShadowTint = -2,
			Shadows2012 = 20,
			SharpenDetail = 25,
			SharpenEdgeMasking = 0,
			SharpenRadius = 1,
			Sharpness = 0,
			SplitToningBalance = 0,
			SplitToningHighlightHue = 0,
			SplitToningHighlightSaturation = 0,
			SplitToningShadowHue = 0,
			SplitToningShadowSaturation = 0,
			ToneCurveName2012 = "Custom",
			ToneCurvePV2012 = {
				0,
				37,
				24,
				42,
				79,
				75,
				133,
				133,
				189,
				191,
				255,
				245,
			},
			ToneCurvePV2012Blue = {
				0,
				0,
				22,
				18,
				109,
				122,
				170,
				205,
				255,
				255,
			},
			ToneCurvePV2012Green = {
				0,
				0,
				35,
				19,
				115,
				119,
				177,
				204,
				255,
				255,
			},
			ToneCurvePV2012Red = {
				0,
				0,
				34,
				7,
				123,
				119,
				179,
				195,
				255,
				255,
			},
			Vibrance = 0,
			Whites2012 = -30,
		},
		uuid = "89B25850-E8BD-4688-B78B-68D45CDA544E",
	},
	version = 0,
}
