presets/lightroom/_presets/Develop Presets/VSCO Film 05 - Standard/S - Agfa Vista 400 Vibrant.lrtemplate
s = {
	id = "BC56E30E-496A-415A-855E-82D2C1A939D7",
	internalName = "Agfa Vista 400 Vibrant",
	title = "S - Agfa Vista 400 Vibrant",
	type = "Develop",
	value = {
		settings = {
			Blacks2012 = 15,
			BlueHue = -10,
			BlueSaturation = 0,
			CameraProfile = "Adobe Standard",
			Clarity2012 = -5,
			Contrast2012 = 0,
			ConvertToGrayscale = false,
			EnableCalibration = true,
			EnableColorAdjustments = true,
			EnableDetail = true,
			EnableEffects = true,
			EnableSplitToning = true,
			GrainAmount = 20,
			GrainFrequency = 85,
			GrainSize = 35,
			GreenHue = 60,
			GreenSaturation = -5,
			Highlights2012 = -60,
			HueAdjustmentAqua = 10,
			HueAdjustmentBlue = -5,
			HueAdjustmentGreen = 5,
			HueAdjustmentMagenta = 30,
			HueAdjustmentOrange = 4,
			HueAdjustmentPurple = 20,
			HueAdjustmentRed = 10,
			HueAdjustmentYellow = 10,
			LuminanceAdjustmentAqua = 15,
			LuminanceAdjustmentBlue = -25,
			LuminanceAdjustmentGreen = 10,
			LuminanceAdjustmentMagenta = 0,
			LuminanceAdjustmentOrange = 2,
			LuminanceAdjustmentPurple = -15,
			LuminanceAdjustmentRed = -15,
			LuminanceAdjustmentYellow = 10,
			ParametricDarks = 10,
			ParametricHighlightSplit = 75,
			ParametricHighlights = 15,
			ParametricLights = 10,
			ParametricMidtoneSplit = 48,
			ParametricShadowSplit = 20,
			ParametricShadows = 0,
			ProcessVersion = "6.7",
			RedHue = 20,
			RedSaturation = 45,
			Saturation = 5,
			SaturationAdjustmentAqua = -35,
			SaturationAdjustmentBlue = -25,
			SaturationAdjustmentGreen = -25,
			SaturationAdjustmentMagenta = -30,
			SaturationAdjustmentOrange = -15,
			SaturationAdjustmentPurple = -45,
			SaturationAdjustmentRed = -15,
			SaturationAdjustmentYellow = -5,
			ShadowTint = -4,
			Shadows2012 = 35,
			SharpenDetail = 25,
			SharpenEdgeMasking = 0,
			SharpenRadius = 1,
			Sharpness = 0,
			SplitToningBalance = 0,
			SplitToningHighlightHue = 0,
			SplitToningHighlightSaturation = 0,
			SplitToningShadowHue = 0,
			SplitToningShadowSaturation = 0,
			ToneCurveName2012 = "Custom",
			ToneCurvePV2012 = {
				0,
				16,
				25,
				25,
				78,
				75,
				188,
				189,
				255,
				245,
			},
			ToneCurvePV2012Blue = {
				0,
				0,
				27,
				14,
				77,
				63,
				114,
				120,
				170,
				196,
				255,
				255,
			},
			ToneCurvePV2012Green = {
				0,
				0,
				33,
				13,
				80,
				65,
				114,
				120,
				143,
				165,
				210,
				230,
				255,
				255,
			},
			ToneCurvePV2012Red = {
				0,
				0,
				35,
				10,
				82,
				60,
				115,
				121,
				175,
				199,
				255,
				255,
			},
			Vibrance = 0,
			Whites2012 = -40,
		},
		uuid = "9C56224F-A3A4-4471-9C62-49281130E574",
	},
	version = 0,
}
