presets/lightroom/_presets/Develop Presets/VSCO Film 05 - Standard/S - Kodak Royal Gold 400 -.lrtemplate
s = {
	id = "D2DEE91C-8FAD-41EA-94A5-EECD02E71ABF",
	internalName = "Kodak Royal Gold 400 -",
	title = "S - Kodak Royal Gold 400 -",
	type = "Develop",
	value = {
		settings = {
			Blacks2012 = 20,
			BlueHue = -5,
			BlueSaturation = -15,
			CameraProfile = "Adobe Standard",
			Clarity2012 = -5,
			Contrast2012 = 0,
			ConvertToGrayscale = false,
			EnableCalibration = true,
			EnableColorAdjustments = true,
			EnableDetail = true,
			EnableEffects = true,
			EnableSplitToning = true,
			GrainAmount = 10,
			GrainFrequency = 65,
			GrainSize = 40,
			GreenHue = 35,
			GreenSaturation = 18,
			Highlights2012 = -60,
			HueAdjustmentAqua = 10,
			HueAdjustmentBlue = 0,
			HueAdjustmentGreen = 0,
			HueAdjustmentMagenta = 20,
			HueAdjustmentOrange = 2,
			HueAdjustmentPurple = 0,
			HueAdjustmentRed = 0,
			HueAdjustmentYellow = 5,
			LuminanceAdjustmentAqua = 15,
			LuminanceAdjustmentBlue = -15,
			LuminanceAdjustmentGreen = 10,
			LuminanceAdjustmentMagenta = 10,
			LuminanceAdjustmentOrange = -5,
			LuminanceAdjustmentPurple = 20,
			LuminanceAdjustmentRed = -10,
			LuminanceAdjustmentYellow = 10,
			ParametricDarks = 0,
			ParametricHighlightSplit = 75,
			ParametricHighlights = 0,
			ParametricLights = 0,
			ParametricMidtoneSplit = 60,
			ParametricShadowSplit = 14,
			ParametricShadows = 0,
			ProcessVersion = "6.7",
			RedHue = 25,
			RedSaturation = 12,
			Saturation = 0,
			SaturationAdjustmentAqua = -40,
			SaturationAdjustmentBlue = -15,
			SaturationAdjustmentGreen = -35,
			SaturationAdjustmentMagenta = -35,
			SaturationAdjustmentOrange = -8,
			SaturationAdjustmentPurple = -45,
			SaturationAdjustmentRed = -20,
			SaturationAdjustmentYellow = -15,
			ShadowTint = -2,
			Shadows2012 = 45,
			SharpenDetail = 25,
			SharpenEdgeMasking = 0,
			SharpenRadius = 1,
			Sharpness = 0,
			SplitToningBalance = 0,
			SplitToningHighlightHue = 0,
			SplitToningHighlightSaturation = 0,
			SplitToningShadowHue = 0,
			SplitToningShadowSaturation = 0,
			ToneCurveName2012 = "Custom",
			ToneCurvePV2012 = {
				0,
				8,
				74,
				73,
				185,
				188,
				255,
				247,
			},
			ToneCurvePV2012Blue = {
				0,
				0,
				32,
				18,
				76,
				61,
				118,
				125,
				182,
				200,
				255,
				255,
			},
			ToneCurvePV2012Green = {
				0,
				0,
				44,
				25,
				120,
				124,
				183,
				199,
				255,
				255,
			},
			ToneCurvePV2012Red = {
				0,
				0,
				35,
				14,
				66,
				46,
				121,
				124,
				184,
				198,
				255,
				255,
			},
			Vibrance = 0,
			Whites2012 = -40,
		},
		uuid = "13F0AE13-0A2A-49F2-B2FF-AAA42F2379A7",
	},
	version = 0,
}
