presets/lightroom/_presets/Develop Presets/VSCO Film 05 - Standard/S - Kodak BW400CN Contrast +.lrtemplate
s = {
	id = "43CF6038-07E9-47FF-A110-D92DAD3DF669",
	internalName = "Kodak BW400CN Contrast +",
	title = "S - Kodak BW400CN Contrast +",
	type = "Develop",
	value = {
		settings = {
			Blacks2012 = 25,
			BlueHue = 0,
			BlueSaturation = -50,
			CameraProfile = "Adobe Standard",
			Clarity2012 = 0,
			Contrast2012 = 0,
			ConvertToGrayscale = true,
			EnableCalibration = true,
			EnableDetail = true,
			EnableEffects = true,
			EnableGrayscaleMix = true,
			EnableSplitToning = true,
			GrainAmount = 45,
			GrainFrequency = 60,
			GrainSize = 20,
			GrayMixerAqua = -20,
			GrayMixerBlue = -10,
			GrayMixerGreen = 15,
			GrayMixerMagenta = 5,
			GrayMixerOrange = -25,
			GrayMixerPurple = 16,
			GrayMixerRed = 10,
			GrayMixerYellow = 0,
			GreenHue = 0,
			GreenSaturation = -75,
			Highlights2012 = -25,
			ParametricDarks = -56,
			ParametricHighlightSplit = 82,
			ParametricHighlights = -34,
			ParametricLights = 45,
			ParametricMidtoneSplit = 37,
			ParametricShadowSplit = 19,
			ParametricShadows = 12,
			ProcessVersion = "6.7",
			RedHue = 0,
			RedSaturation = -10,
			ShadowTint = 0,
			Shadows2012 = 15,
			SharpenDetail = 25,
			SharpenEdgeMasking = 0,
			SharpenRadius = 1,
			Sharpness = 25,
			SplitToningBalance = 0,
			SplitToningHighlightHue = 0,
			SplitToningHighlightSaturation = 0,
			SplitToningShadowHue = 0,
			SplitToningShadowSaturation = 0,
			ToneCurveName2012 = "Custom",
			ToneCurvePV2012 = {
				0,
				1,
				27,
				18,
				77,
				68,
				115,
				119,
				196,
				210,
				255,
				250,
			},
			ToneCurvePV2012Blue = {
				0,
				0,
				255,
				255,
			},
			ToneCurvePV2012Green = {
				0,
				0,
				255,
				255,
			},
			ToneCurvePV2012Red = {
				0,
				0,
				255,
				255,
			},
			Whites2012 = -20,
		},
		uuid = "C39277E6-1303-4E97-AC73-B5D7B46AF5AC",
	},
	version = 0,
}
