presets/lightroom/_presets/Develop Presets/VSCO Film 05 - Standard/S - Kodak Royal Gold 400 Vibrant.lrtemplate
s = {
	id = "93C760C2-1F32-49DE-A28B-46937725619F",
	internalName = "Kodak Royal Gold 400 Vibrant",
	title = "S - Kodak Royal Gold 400 Vibrant",
	type = "Develop",
	value = {
		settings = {
			Blacks2012 = 10,
			BlueHue = -10,
			BlueSaturation = -10,
			CameraProfile = "Adobe Standard",
			Clarity2012 = -5,
			Contrast2012 = 0,
			ConvertToGrayscale = false,
			EnableCalibration = true,
			EnableColorAdjustments = true,
			EnableDetail = true,
			EnableEffects = true,
			EnableSplitToning = true,
			GrainAmount = 20,
			GrainFrequency = 65,
			GrainSize = 40,
			GreenHue = 50,
			GreenSaturation = 25,
			Highlights2012 = -70,
			HueAdjustmentAqua = 10,
			HueAdjustmentBlue = 10,
			HueAdjustmentGreen = 0,
			HueAdjustmentMagenta = 20,
			HueAdjustmentOrange = 8,
			HueAdjustmentPurple = 0,
			HueAdjustmentRed = 0,
			HueAdjustmentYellow = 5,
			LuminanceAdjustmentAqua = 10,
			LuminanceAdjustmentBlue = -18,
			LuminanceAdjustmentGreen = 10,
			LuminanceAdjustmentMagenta = 10,
			LuminanceAdjustmentOrange = -8,
			LuminanceAdjustmentPurple = 20,
			LuminanceAdjustmentRed = -10,
			LuminanceAdjustmentYellow = 10,
			ParametricDarks = 0,
			ParametricHighlightSplit = 75,
			ParametricHighlights = 0,
			ParametricLights = 0,
			ParametricMidtoneSplit = 60,
			ParametricShadowSplit = 14,
			ParametricShadows = 0,
			ProcessVersion = "6.7",
			RedHue = 25,
			RedSaturation = 15,
			Saturation = 5,
			SaturationAdjustmentAqua = -40,
			SaturationAdjustmentBlue = -15,
			SaturationAdjustmentGreen = -35,
			SaturationAdjustmentMagenta = -35,
			SaturationAdjustmentOrange = -10,
			SaturationAdjustmentPurple = -45,
			SaturationAdjustmentRed = -20,
			SaturationAdjustmentYellow = -15,
			ShadowTint = -2,
			Shadows2012 = 45,
			SharpenDetail = 25,
			SharpenEdgeMasking = 0,
			SharpenRadius = 1,
			Sharpness = 0,
			SplitToningBalance = 0,
			SplitToningHighlightHue = 0,
			SplitToningHighlightSaturation = 0,
			SplitToningShadowHue = 0,
			SplitToningShadowSaturation = 0,
			ToneCurveName2012 = "Custom",
			ToneCurvePV2012 = {
				0,
				12,
				27,
				27,
				77,
				74,
				185,
				188,
				255,
				245,
			},
			ToneCurvePV2012Blue = {
				0,
				0,
				32,
				18,
				76,
				61,
				119,
				125,
				183,
				200,
				255,
				255,
			},
			ToneCurvePV2012Green = {
				0,
				0,
				44,
				25,
				120,
				124,
				183,
				199,
				255,
				255,
			},
			ToneCurvePV2012Red = {
				0,
				0,
				35,
				13,
				67,
				46,
				121,
				124,
				184,
				198,
				255,
				255,
			},
			Vibrance = 0,
			Whites2012 = -40,
		},
		uuid = "539AA5F2-4628-4C55-9CEF-CA4280FF49BF",
	},
	version = 0,
}
