presets/lightroom/_presets/Develop Presets/02-10 CURVES - COOL/13b. Neutral Punch - Azure.lrtemplate
s = {
	id = "974EE58E-7F6A-4749-8E59-81E4C8DE12ED",
	internalName = "08_Desaturated + Neutral Punch",
	title = "13b. Neutral Punch - Azure",
	type = "Develop",
	value = {
		settings = {
			ConvertToGrayscale = false,
			ParametricDarks = 0,
			ParametricHighlightSplit = 75,
			ParametricHighlights = 0,
			ParametricLights = 0,
			ParametricMidtoneSplit = 50,
			ParametricShadowSplit = 25,
			ParametricShadows = 0,
			ProcessVersion = "6.7",
			ToneCurveName2012 = "Custom",
			ToneCurvePV2012 = {
				0,
				0,
				36,
				29,
				96,
				96,
				160,
				171,
				217,
				227,
				255,
				255,
			},
			ToneCurvePV2012Blue = {
				0,
				0,
				64,
				71,
				128,
				133,
				192,
				195,
				255,
				255,
			},
			ToneCurvePV2012Green = {
				0,
				0,
				64,
				58,
				128,
				125,
				192,
				192,
				255,
				255,
			},
			ToneCurvePV2012Red = {
				0,
				0,
				64,
				56,
				128,
				125,
				192,
				190,
				255,
				255,
			},
		},
		uuid = "B55756B0-4DF7-43E2-B43F-ED3E7AEB37A8",
	},
	version = 0,
}
