presets/lightroom/_presets/Develop Presets/02-10 CURVES - COOL/14a. Vintage Punch - Teal.lrtemplate
s = {
	id = "CF0862DE-E51E-48E9-84C8-E3EDC63C9D98",
	internalName = "41 Teal",
	title = "14a. Vintage Punch - Teal",
	type = "Develop",
	value = {
		settings = {
			ConvertToGrayscale = false,
			ParametricDarks = 0,
			ParametricHighlightSplit = 75,
			ParametricHighlights = 0,
			ParametricLights = 0,
			ParametricMidtoneSplit = 50,
			ParametricShadowSplit = 25,
			ParametricShadows = 0,
			ProcessVersion = "6.7",
			ToneCurveName2012 = "Custom",
			ToneCurvePV2012 = {
				0,
				25,
				35,
				36,
				94,
				95,
				163,
				173,
				212,
				212,
				255,
				230,
			},
			ToneCurvePV2012Blue = {
				0,
				0,
				64,
				71,
				128,
				133,
				192,
				195,
				255,
				255,
			},
			ToneCurvePV2012Green = {
				0,
				0,
				64,
				65,
				128,
				131,
				192,
				195,
				255,
				255,
			},
			ToneCurvePV2012Red = {
				0,
				0,
				64,
				58,
				128,
				129,
				192,
				196,
				255,
				255,
			},
		},
		uuid = "51FD64F4-5B13-4A2E-8F36-26D4DA09FEB6",
	},
	version = 0,
}
