presets/lightroom/_presets/Develop Presets/02-10 CURVES - COOL/15a. Dark Wash - Teal.lrtemplate
s = {
	id = "6CB3FC57-8E4C-4283-98C5-532816BF6EC5",
	internalName = "09_Amber Dark Wash",
	title = "15a. Dark Wash - Teal",
	type = "Develop",
	value = {
		settings = {
			ConvertToGrayscale = false,
			ParametricDarks = 0,
			ParametricHighlightSplit = 75,
			ParametricHighlights = 0,
			ParametricLights = 0,
			ParametricMidtoneSplit = 50,
			ParametricShadowSplit = 25,
			ParametricShadows = 0,
			ProcessVersion = "6.7",
			ToneCurveName2012 = "Custom",
			ToneCurvePV2012 = {
				0,
				39,
				43,
				53,
				94,
				81,
				159,
				131,
				212,
				178,
				255,
				217,
			},
			ToneCurvePV2012Blue = {
				0,
				0,
				64,
				71,
				128,
				133,
				192,
				195,
				255,
				255,
			},
			ToneCurvePV2012Green = {
				0,
				0,
				64,
				65,
				128,
				131,
				192,
				195,
				255,
				255,
			},
			ToneCurvePV2012Red = {
				0,
				0,
				64,
				58,
				128,
				129,
				192,
				195,
				255,
				255,
			},
		},
		uuid = "EE290F78-5508-4E7B-A4D6-2B76DD2B8019",
	},
	version = 0,
}
