presets/lightroom/Willow_Shade_deko_old_photo.lrtemplate
s = {
	id = "511C26D4-1126-4A4B-8BFE-121CA655D5D1",
	internalName = "Willow_Shade_deko_old_photo",
	title = "Willow_Shade_deko_old_photo",
	type = "Develop",
	value = {
		settings = {
			AutoLateralCA = 0,
			Blacks2012 = 0,
			BlueHue = 0,
			BlueSaturation = 0,
			CameraProfile = "Embedded",
			ChromaticAberrationB = 0,
			ChromaticAberrationR = 0,
			Clarity2012 = 0,
			ColorNoiseReduction = 0,
			ColorNoiseReductionDetail = 50,
			Contrast2012 = 0,
			ConvertToGrayscale = false,
			CropConstrainToWarp = 0,
			Defringe = 0,
			DefringeGreenAmount = 0,
			DefringeGreenHueHi = 60,
			DefringeGreenHueLo = 40,
			DefringePurpleAmount = 0,
			DefringePurpleHueHi = 70,
			DefringePurpleHueLo = 30,
			EnableCalibration = true,
			EnableCircularGradientBasedCorrections = true,
			EnableColorAdjustments = true,
			EnableDetail = true,
			EnableEffects = true,
			EnableGradientBasedCorrections = true,
			EnableLensCorrections = true,
			EnableSplitToning = true,
			Exposure2012 = 0,
			GradientBasedCorrections = {
				{
					CorrectionActive = true,
					CorrectionAmount = 1,
					CorrectionID = "F553F84C-6147-49F1-A6C3-774810426DA8",
					CorrectionMasks = {
						{
							FullX = -0.208514,
							FullY = 0.322393,
							MaskID = "5DA1E0CD-5E29-45DD-8D02-C71C4812AC2A",
							MaskValue = 1,
							What = "Mask/Gradient",
							ZeroX = -0.316456,
							ZeroY = 0.324895,
						},
					},
					CorrectionReferenceX = -0.262485,
					CorrectionReferenceY = 0.323644,
					LocalBrightness = 0.19512,
					LocalClarity = 0,
					LocalClarity2012 = 0.04255,
					LocalContrast = 0,
					LocalContrast2012 = 0,
					LocalDefringe = 0,
					LocalExposure = 0,
					LocalExposure2012 = 0,
					LocalHighlights2012 = 0,
					LocalLuminanceNoise = 0,
					LocalMoire = 0,
					LocalSaturation = 0,
					LocalShadows2012 = 0.55319,
					LocalSharpness = 0,
					LocalTemperature = -0.31915,
					LocalTint = 0,
					LocalToningHue = 224,
					LocalToningSaturation = 0.48,
					What = "Correction",
				},
				{
					CorrectionActive = true,
					CorrectionAmount = 1,
					CorrectionID = "FC62D71C-D16B-4C60-BECE-991F4A5AE7B7",
					CorrectionMasks = {
						{
							FullX = 0.791232,
							FullY = -0.04929,
							MaskID = "D4D20A36-5008-46C3-B8BE-CF19565088A5",
							MaskValue = 1,
							What = "Mask/Gradient",
							ZeroX = 0.796556,
							ZeroY = 1.28704,
						},
					},
					CorrectionReferenceX = 0.793894,
					CorrectionReferenceY = 0.618875,
					LocalBrightness = 0.19512,
					LocalClarity = 0,
					LocalClarity2012 = 0,
					LocalContrast = 0,
					LocalContrast2012 = 0,
					LocalDefringe = 0,
					LocalExposure = 0,
					LocalExposure2012 = 0,
					LocalHighlights2012 = 0,
					LocalLuminanceNoise = 0,
					LocalMoire = 0,
					LocalSaturation = 0.2766,
					LocalShadows2012 = 0,
					LocalSharpness = 0,
					LocalTemperature = 0.31915,
					LocalTint = 0,
					LocalToningHue = 209,
					LocalToningSaturation = 0,
					What = "Correction",
				},
			},
			GrainAmount = 0,
			GrainFrequency = 50,
			GrainSize = 25,
			GreenHue = 0,
			GreenSaturation = 0,
			Highlights2012 = 0,
			HueAdjustmentAqua = 44,
			HueAdjustmentBlue = 7,
			HueAdjustmentGreen = -63,
			HueAdjustmentMagenta = 0,
			HueAdjustmentOrange = -7,
			HueAdjustmentPurple = 0,
			HueAdjustmentRed = 22,
			HueAdjustmentYellow = 0,
			IncrementalTemperature = 10,
			IncrementalTint = 8,
			LensManualDistortionAmount = 0,
			LensProfileEnable = 0,
			LensProfileSetup = "LensDefaults",
			LuminanceAdjustmentAqua = 0,
			LuminanceAdjustmentBlue = 0,
			LuminanceAdjustmentGreen = 0,
			LuminanceAdjustmentMagenta = 0,
			LuminanceAdjustmentOrange = 0,
			LuminanceAdjustmentPurple = 0,
			LuminanceAdjustmentRed = 0,
			LuminanceAdjustmentYellow = 0,
			LuminanceNoiseReductionContrast = 0,
			LuminanceNoiseReductionDetail = 50,
			LuminanceSmoothing = 0,
			ParametricDarks = 0,
			ParametricHighlightSplit = 75,
			ParametricHighlights = 0,
			ParametricLights = 0,
			ParametricMidtoneSplit = 50,
			ParametricShadowSplit = 25,
			ParametricShadows = 0,
			PerspectiveAspect = 0,
			PerspectiveHorizontal = 0,
			PerspectiveRotate = 0,
			PerspectiveScale = 100,
			PerspectiveUpright = 0,
			PerspectiveVertical = 0,
			PostCropVignetteAmount = 0,
			PostCropVignetteFeather = 67,
			PostCropVignetteHighlightContrast = 0,
			PostCropVignetteMidpoint = 49,
			PostCropVignetteRoundness = -65,
			PostCropVignetteStyle = 1,
			ProcessVersion = "6.7",
			RedHue = 0,
			RedSaturation = 0,
			Saturation = 0,
			SaturationAdjustmentAqua = 0,
			SaturationAdjustmentBlue = -34,
			SaturationAdjustmentGreen = 0,
			SaturationAdjustmentMagenta = 0,
			SaturationAdjustmentOrange = 0,
			SaturationAdjustmentPurple = 0,
			SaturationAdjustmentRed = 0,
			SaturationAdjustmentYellow = -63,
			ShadowTint = 0,
			Shadows2012 = 0,
			SharpenDetail = 25,
			SharpenEdgeMasking = 0,
			SharpenRadius = 1,
			Sharpness = 0,
			SplitToningBalance = 0,
			SplitToningHighlightHue = 218,
			SplitToningHighlightSaturation = 7,
			SplitToningShadowHue = 0,
			SplitToningShadowSaturation = 0,
			ToneCurveName2012 = "Custom",
			ToneCurvePV2012 = {
				0,
				11,
				65,
				60,
				141,
				163,
				255,
				255,
			},
			ToneCurvePV2012Blue = {
				16,
				0,
				148,
				112,
				255,
				239,
			},
			ToneCurvePV2012Green = {
				0,
				0,
				255,
				255,
			},
			ToneCurvePV2012Red = {
				0,
				15,
				128,
				127,
				255,
				250,
			},
			Vibrance = -16,
			VignetteAmount = -31,
			VignetteMidpoint = 24,
			WhiteBalance = "Custom",
			Whites2012 = 0,
			orientation = "AB",
		},
		uuid = "3AAEE577-08BC-41E7-BD5F-3F8E4046F4E5",
	},
	version = 0,
}
