presets/lightroom/_presets/Develop Presets/02-20 CURVES - WARM/21b. Bright Wash - Apricot.lrtemplate
s = {
	id = "225331C7-1CAE-4B50-AC73-63D7827F5CDA",
	internalName = "02_Apricot Bright Wash",
	title = "21b. Bright Wash - Apricot",
	type = "Develop",
	value = {
		settings = {
			ConvertToGrayscale = false,
			ParametricDarks = 0,
			ParametricHighlightSplit = 75,
			ParametricHighlights = 0,
			ParametricLights = 0,
			ParametricMidtoneSplit = 50,
			ParametricShadowSplit = 25,
			ParametricShadows = 0,
			ProcessVersion = "6.7",
			ToneCurveName2012 = "Custom",
			ToneCurvePV2012 = {
				0,
				46,
				46,
				79,
				95,
				120,
				159,
				180,
				222,
				227,
				255,
				237,
			},
			ToneCurvePV2012Blue = {
				0,
				0,
				64,
				60,
				128,
				123,
				192,
				187,
				255,
				255,
			},
			ToneCurvePV2012Green = {
				0,
				0,
				64,
				64,
				128,
				128,
				192,
				192,
				255,
				255,
			},
			ToneCurvePV2012Red = {
				0,
				0,
				64,
				70,
				128,
				136,
				192,
				198,
				255,
				255,
			},
		},
		uuid = "5EC7181E-96E5-459A-BCEE-3598FF349AF5",
	},
	version = 0,
}
