presets/lightroom/_presets/Develop Presets/02-20 CURVES - WARM/22c. Neutral Wash - Crimson.lrtemplate
s = {
	id = "A47CBEF0-37EF-45FB-A0BD-AF800CB226F3",
	internalName = "07_Crimson Neutral Wash",
	title = "22c. Neutral Wash - Crimson",
	type = "Develop",
	value = {
		settings = {
			ConvertToGrayscale = false,
			ParametricDarks = 0,
			ParametricHighlightSplit = 75,
			ParametricHighlights = 0,
			ParametricLights = 0,
			ParametricMidtoneSplit = 50,
			ParametricShadowSplit = 25,
			ParametricShadows = 0,
			ProcessVersion = "6.7",
			ToneCurveName2012 = "Custom",
			ToneCurvePV2012 = {
				0,
				34,
				59,
				70,
				105,
				113,
				150,
				156,
				192,
				194,
				255,
				227,
			},
			ToneCurvePV2012Blue = {
				0,
				0,
				64,
				60,
				128,
				123,
				192,
				187,
				255,
				255,
			},
			ToneCurvePV2012Green = {
				0,
				0,
				64,
				64,
				128,
				128,
				192,
				192,
				255,
				255,
			},
			ToneCurvePV2012Red = {
				0,
				0,
				64,
				74,
				128,
				140,
				192,
				203,
				255,
				255,
			},
		},
		uuid = "026FCB0E-8E78-4CD9-9152-7B16353ECEF6",
	},
	version = 0,
}
