presets/lightroom/_presets/Develop Presets/02-20 CURVES - WARM/23b. Neutral Punch - Apricot.lrtemplate
s = {
	id = "01C668C6-9BB6-4663-8532-8F485FC8B3D9",
	internalName = "10_Apricot + Neutral Punch",
	title = "23b. Neutral Punch - Apricot",
	type = "Develop",
	value = {
		settings = {
			ConvertToGrayscale = false,
			ParametricDarks = 0,
			ParametricHighlightSplit = 75,
			ParametricHighlights = 0,
			ParametricLights = 0,
			ParametricMidtoneSplit = 50,
			ParametricShadowSplit = 25,
			ParametricShadows = 0,
			ProcessVersion = "6.7",
			ToneCurveName2012 = "Custom",
			ToneCurvePV2012 = {
				0,
				0,
				36,
				29,
				96,
				96,
				160,
				171,
				217,
				227,
				255,
				255,
			},
			ToneCurvePV2012Blue = {
				0,
				0,
				64,
				60,
				128,
				123,
				192,
				187,
				255,
				255,
			},
			ToneCurvePV2012Green = {
				0,
				0,
				64,
				64,
				128,
				128,
				192,
				192,
				255,
				255,
			},
			ToneCurvePV2012Red = {
				0,
				0,
				64,
				70,
				128,
				136,
				192,
				198,
				255,
				255,
			},
		},
		uuid = "ACEE5A25-E32C-4E78-9C88-5DA40D86E2FC",
	},
	version = 0,
}
