presets/lightroom/_presets/Develop Presets/02-20 CURVES - WARM/23c. Neutral Wash - Crimson.lrtemplate
s = {
	id = "2D9CDABC-9EA8-4888-81A9-ABE9FBD59F3E",
	internalName = "11_Crimson + Neutral Punch",
	title = "23c. Neutral Wash - Crimson",
	type = "Develop",
	value = {
		settings = {
			ConvertToGrayscale = false,
			ParametricDarks = 0,
			ParametricHighlightSplit = 75,
			ParametricHighlights = 0,
			ParametricLights = 0,
			ParametricMidtoneSplit = 50,
			ParametricShadowSplit = 25,
			ParametricShadows = 0,
			ProcessVersion = "6.7",
			ToneCurveName2012 = "Custom",
			ToneCurvePV2012 = {
				0,
				0,
				36,
				29,
				96,
				96,
				160,
				171,
				217,
				227,
				255,
				255,
			},
			ToneCurvePV2012Blue = {
				0,
				0,
				64,
				60,
				128,
				123,
				192,
				187,
				255,
				255,
			},
			ToneCurvePV2012Green = {
				0,
				0,
				64,
				64,
				128,
				128,
				192,
				192,
				255,
				255,
			},
			ToneCurvePV2012Red = {
				0,
				0,
				64,
				74,
				128,
				140,
				192,
				203,
				255,
				255,
			},
		},
		uuid = "20434DF1-8645-49F7-87BE-34AC4D0C30CA",
	},
	version = 0,
}
