presets/lightroom/_presets/Develop Presets/02-20 CURVES - WARM/24c. Vintage Punch - Crimson.lrtemplate
s = {
	id = "76823A39-E806-4A43-BD81-EDA42CCC7F6D",
	internalName = "43 Crimson",
	title = "24c. Vintage Punch - Crimson",
	type = "Develop",
	value = {
		settings = {
			ConvertToGrayscale = false,
			ParametricDarks = 0,
			ParametricHighlightSplit = 75,
			ParametricHighlights = 0,
			ParametricLights = 0,
			ParametricMidtoneSplit = 50,
			ParametricShadowSplit = 25,
			ParametricShadows = 0,
			ProcessVersion = "6.7",
			ToneCurveName2012 = "Custom",
			ToneCurvePV2012 = {
				0,
				25,
				35,
				36,
				94,
				95,
				163,
				173,
				212,
				212,
				255,
				230,
			},
			ToneCurvePV2012Blue = {
				0,
				0,
				64,
				60,
				128,
				123,
				192,
				187,
				255,
				255,
			},
			ToneCurvePV2012Green = {
				0,
				0,
				64,
				64,
				128,
				128,
				192,
				192,
				255,
				255,
			},
			ToneCurvePV2012Red = {
				0,
				0,
				64,
				74,
				128,
				140,
				192,
				203,
				255,
				255,
			},
		},
		uuid = "3C206A9D-FD23-4A3A-B7BD-776320291DA7",
	},
	version = 0,
}
