presets/lightroom/_presets/Develop Presets/02-20 CURVES - WARM/25c. Dark Wash - Crimson.lrtemplate
s = {
	id = "FF33A9B2-ECFD-42FD-B615-9A8649C4742A",
	internalName = "11_Crimson Dark Wash",
	title = "25c. Dark Wash - Crimson",
	type = "Develop",
	value = {
		settings = {
			ConvertToGrayscale = false,
			ParametricDarks = 0,
			ParametricHighlightSplit = 75,
			ParametricHighlights = 0,
			ParametricLights = 0,
			ParametricMidtoneSplit = 50,
			ParametricShadowSplit = 25,
			ParametricShadows = 0,
			ProcessVersion = "6.7",
			ToneCurveName2012 = "Custom",
			ToneCurvePV2012 = {
				0,
				39,
				43,
				53,
				94,
				81,
				159,
				131,
				212,
				178,
				255,
				217,
			},
			ToneCurvePV2012Blue = {
				0,
				0,
				64,
				60,
				128,
				123,
				192,
				187,
				255,
				255,
			},
			ToneCurvePV2012Green = {
				0,
				0,
				64,
				64,
				128,
				128,
				192,
				192,
				255,
				255,
			},
			ToneCurvePV2012Red = {
				0,
				0,
				64,
				74,
				128,
				140,
				192,
				203,
				255,
				255,
			},
		},
		uuid = "40CAC22F-069D-4AA5-9BD6-83057E95FD84",
	},
	version = 0,
}
