presets/lightroom/_presets/Develop Presets/+L 08 Whites (Recovery)/03 Whites -84.lrtemplate
s = {
	id = "729215B5-940A-4ED0-A5FE-2F50564DCAE7",
	internalName = "03 Whites -84",
	title = "03 Whites -84",
	type = "Develop",
	value = {
		settings = {
			ProcessVersion = "6.7",
			Whites2012 = -84,
		},
		uuid = "5AE9DF48-9F20-4B75-B52E-AAA1BEF86183",
	},
	version = 0,
}
