presets/lightroom/_presets/Develop Presets/+L 03 Contrast/02 Contrast +76.lrtemplate
s = {
	id = "E3E2DC06-F245-4524-B82A-1133FE85998D",
	internalName = "24 Contrast +76",
	title = "02 Contrast +76",
	type = "Develop",
	value = {
		settings = {
			Contrast2012 = 76,
		},
		uuid = "9443F3DD-16AD-4C17-9E1D-0765F921CB3C",
	},
	version = 0,
}
