presets/lightroom/_presets/Develop Presets/Vintrochrome Lr4-Lr5/Vintrochrome Film - V61 ~ HQLightroomPresets _.lrtemplate
s = {
	id = "7BC762DE-F679-4BA0-B01A-A6D34536FFF9",
	internalName = "Vintrochrome Film : V61 ~ HQLightroomPresets 3",
	title = "Vintrochrome Film : V61 ~ HQLightroomPresets  ",
	type = "Develop",
	value = {
		settings = {
			AutoLateralCA = 0,
			Blacks2012 = -11,
			BlueHue = 0,
			BlueSaturation = 0,
			CameraProfile = "Embedded",
			ChromaticAberrationB = 0,
			ChromaticAberrationR = 0,
			Clarity2012 = 17,
			ColorNoiseReduction = 28,
			ColorNoiseReductionDetail = 50,
			Contrast2012 = 8,
			ConvertToGrayscale = false,
			Defringe = 0,
			EnableCalibration = true,
			EnableColorAdjustments = true,
			EnableDetail = true,
			EnableEffects = true,
			EnableLensCorrections = true,
			EnableSplitToning = true,
			Exposure2012 = 0.73,
			GrainAmount = 25,
			GrainFrequency = 40,
			GrainSize = 60,
			GreenHue = 0,
			GreenSaturation = 0,
			Highlights2012 = -39,
			HueAdjustmentAqua = 1,
			HueAdjustmentBlue = 0,
			HueAdjustmentGreen = 0,
			HueAdjustmentMagenta = 0,
			HueAdjustmentOrange = 12,
			HueAdjustmentPurple = -2,
			HueAdjustmentRed = -15,
			HueAdjustmentYellow = 9,
			IncrementalTemperature = 0,
			IncrementalTint = 0,
			LuminanceAdjustmentAqua = 0,
			LuminanceAdjustmentBlue = 0,
			LuminanceAdjustmentGreen = 22,
			LuminanceAdjustmentMagenta = 0,
			LuminanceAdjustmentOrange = 0,
			LuminanceAdjustmentPurple = 0,
			LuminanceAdjustmentRed = 0,
			LuminanceAdjustmentYellow = 0,
			LuminanceNoiseReductionContrast = 0,
			LuminanceNoiseReductionDetail = 99,
			LuminanceSmoothing = 21,
			ParametricDarks = -56,
			ParametricHighlightSplit = 75,
			ParametricHighlights = -30,
			ParametricLights = -15,
			ParametricMidtoneSplit = 50,
			ParametricShadowSplit = 25,
			ParametricShadows = 0,
			PostCropVignetteAmount = 0,
			PostCropVignetteFeather = 90,
			PostCropVignetteHighlightContrast = 11,
			PostCropVignetteMidpoint = 12,
			PostCropVignetteRoundness = 22,
			PostCropVignetteStyle = 1,
			ProcessVersion = "6.7",
			RedHue = 0,
			RedSaturation = 0,
			Saturation = -31,
			SaturationAdjustmentAqua = 0,
			SaturationAdjustmentBlue = 0,
			SaturationAdjustmentGreen = -74,
			SaturationAdjustmentMagenta = 0,
			SaturationAdjustmentOrange = 35,
			SaturationAdjustmentPurple = 0,
			SaturationAdjustmentRed = 32,
			SaturationAdjustmentYellow = 33,
			ShadowTint = 0,
			Shadows2012 = 2,
			SharpenDetail = 50,
			SharpenEdgeMasking = 0,
			SharpenRadius = 1,
			Sharpness = 76,
			SplitToningBalance = 85,
			SplitToningHighlightHue = 0,
			SplitToningHighlightSaturation = 0,
			SplitToningShadowHue = 64,
			SplitToningShadowSaturation = 32,
			ToneCurveName2012 = "Custom",
			ToneCurvePV2012 = {
				0,
				46,
				28,
				50,
				123,
				126,
				250,
				255,
			},
			ToneCurvePV2012Blue = {
				0,
				0,
				255,
				255,
			},
			ToneCurvePV2012Green = {
				0,
				0,
				255,
				255,
			},
			ToneCurvePV2012Red = {
				0,
				0,
				255,
				255,
			},
			Vibrance = -1,
			VignetteAmount = 2,
			VignetteMidpoint = 20,
			WhiteBalance = "Custom",
			Whites2012 = -14,
		},
		uuid = "3E4B2A48-38D0-4027-95DD-1921C59BEE7E",
	},
	version = 0,
}
