presets/lightroom/_presets/Develop Presets/Vintrochrome Lr4-Lr5/Vintrochrome Film - V96 ~ HQLightroomPresets _.lrtemplate
s = {
	id = "5A34EA50-BABF-40A6-ADE6-6235B3A0C474",
	internalName = "Vintrochrome Film : V96 ~ HQLightroomPresets 3",
	title = "Vintrochrome Film : V96 ~ HQLightroomPresets  ",
	type = "Develop",
	value = {
		settings = {
			AutoLateralCA = 0,
			Blacks2012 = -11,
			BlueHue = 0,
			BlueSaturation = 0,
			CameraProfile = "Embedded",
			ChromaticAberrationB = 0,
			ChromaticAberrationR = 0,
			Clarity2012 = 11,
			ColorNoiseReduction = 18,
			ColorNoiseReductionDetail = 12,
			Contrast2012 = 24,
			ConvertToGrayscale = false,
			Defringe = 0,
			EnableCalibration = true,
			EnableColorAdjustments = true,
			EnableDetail = true,
			EnableEffects = true,
			EnableLensCorrections = true,
			EnableSplitToning = true,
			Exposure2012 = 0.12,
			GrainAmount = 38,
			GrainFrequency = 33,
			GrainSize = 61,
			GreenHue = 0,
			GreenSaturation = 0,
			Highlights2012 = -11,
			HueAdjustmentAqua = 14,
			HueAdjustmentBlue = -2,
			HueAdjustmentGreen = 0,
			HueAdjustmentMagenta = 0,
			HueAdjustmentOrange = 0,
			HueAdjustmentPurple = 0,
			HueAdjustmentRed = 0,
			HueAdjustmentYellow = 0,
			IncrementalTemperature = 0,
			IncrementalTint = 22,
			LuminanceAdjustmentAqua = -18,
			LuminanceAdjustmentBlue = -14,
			LuminanceAdjustmentGreen = 0,
			LuminanceAdjustmentMagenta = 63,
			LuminanceAdjustmentOrange = 0,
			LuminanceAdjustmentPurple = 57,
			LuminanceAdjustmentRed = -24,
			LuminanceAdjustmentYellow = 0,
			LuminanceNoiseReductionContrast = 0,
			LuminanceNoiseReductionDetail = 50,
			LuminanceSmoothing = 0,
			ParametricDarks = 52,
			ParametricHighlightSplit = 90,
			ParametricHighlights = 0,
			ParametricLights = 0,
			ParametricMidtoneSplit = 59,
			ParametricShadowSplit = 10,
			ParametricShadows = 0,
			PostCropVignetteAmount = 0,
			PostCropVignetteFeather = 100,
			PostCropVignetteHighlightContrast = 21,
			PostCropVignetteMidpoint = 10,
			PostCropVignetteRoundness = 29,
			PostCropVignetteStyle = 1,
			ProcessVersion = "6.7",
			RedHue = 0,
			RedSaturation = 0,
			Saturation = 22,
			SaturationAdjustmentAqua = -25,
			SaturationAdjustmentBlue = 23,
			SaturationAdjustmentGreen = -45,
			SaturationAdjustmentMagenta = -15,
			SaturationAdjustmentOrange = -41,
			SaturationAdjustmentPurple = -11,
			SaturationAdjustmentRed = -9,
			SaturationAdjustmentYellow = -50,
			ShadowTint = 0,
			Shadows2012 = 11,
			SharpenDetail = 28,
			SharpenEdgeMasking = 0,
			SharpenRadius = 1.5,
			Sharpness = 67,
			SplitToningBalance = 100,
			SplitToningHighlightHue = 83,
			SplitToningHighlightSaturation = 15,
			SplitToningShadowHue = 21,
			SplitToningShadowSaturation = 25,
			ToneCurveName2012 = "Custom",
			ToneCurvePV2012 = {
				0,
				32,
				37,
				38,
				194,
				176,
				255,
				205,
			},
			ToneCurvePV2012Blue = {
				0,
				0,
				255,
				255,
			},
			ToneCurvePV2012Green = {
				0,
				0,
				255,
				255,
			},
			ToneCurvePV2012Red = {
				0,
				0,
				255,
				255,
			},
			Vibrance = 0,
			VignetteAmount = 1,
			VignetteMidpoint = 50,
			WhiteBalance = "Custom",
			Whites2012 = 0,
		},
		uuid = "6321513C-D2A8-4C2F-A09B-1B7A26948AE6",
	},
	version = 0,
}
