presets/lightroom/_presets/Develop Presets/Vintrochrome Lr4-Lr5/Vintrochrome Film - V115 ~ HQLightroomPresets _.lrtemplate
s = {
	id = "107B9571-ADDD-4ED8-A5CA-54A5A964FF35",
	internalName = "Vintrochrome Film : V107 ~ HQLightroomPresets 3",
	title = "Vintrochrome Film : V115 ~ HQLightroomPresets  ",
	type = "Develop",
	value = {
		settings = {
			AutoLateralCA = 0,
			Blacks2012 = -24,
			BlueHue = 0,
			BlueSaturation = 0,
			CameraProfile = "Adobe Standard",
			ChromaticAberrationB = 0,
			ChromaticAberrationR = 0,
			Clarity2012 = 18,
			ColorNoiseReduction = 25,
			ColorNoiseReductionDetail = 50,
			Contrast2012 = 6,
			ConvertToGrayscale = true,
			Defringe = 0,
			EnableCalibration = true,
			EnableDetail = true,
			EnableEffects = true,
			EnableGrayscaleMix = true,
			EnableLensCorrections = true,
			EnableSplitToning = true,
			Exposure2012 = 0,
			GrainAmount = 30,
			GrainFrequency = 33,
			GrainSize = 64,
			GrayMixerAqua = -12,
			GrayMixerBlue = 4,
			GrayMixerGreen = -9,
			GrayMixerMagenta = -1,
			GrayMixerOrange = -10,
			GrayMixerPurple = 9,
			GrayMixerRed = -1,
			GrayMixerYellow = -5,
			GreenHue = 0,
			GreenSaturation = 0,
			Highlights2012 = -20,
			IncrementalTemperature = -38,
			IncrementalTint = -45,
			LuminanceNoiseReductionContrast = 0,
			LuminanceNoiseReductionDetail = 50,
			LuminanceSmoothing = 7,
			ParametricDarks = 0,
			ParametricHighlightSplit = 75,
			ParametricHighlights = -12,
			ParametricLights = -2,
			ParametricMidtoneSplit = 50,
			ParametricShadowSplit = 25,
			ParametricShadows = 32,
			PostCropVignetteAmount = 0,
			PostCropVignetteFeather = 92,
			PostCropVignetteHighlightContrast = 0,
			PostCropVignetteMidpoint = 14,
			PostCropVignetteRoundness = 0,
			PostCropVignetteStyle = 1,
			ProcessVersion = "6.7",
			RedHue = 0,
			RedSaturation = 0,
			ShadowTint = 0,
			Shadows2012 = 20,
			SharpenDetail = 25,
			SharpenEdgeMasking = 0,
			SharpenRadius = 1,
			Sharpness = 61,
			SplitToningBalance = 0,
			SplitToningHighlightHue = 0,
			SplitToningHighlightSaturation = 5,
			SplitToningShadowHue = 349,
			SplitToningShadowSaturation = 0,
			ToneCurveName2012 = "Custom",
			ToneCurvePV2012 = {
				0,
				27,
				83,
				51,
				169,
				177,
				254,
				222,
			},
			ToneCurvePV2012Blue = {
				0,
				0,
				255,
				255,
			},
			ToneCurvePV2012Green = {
				0,
				0,
				255,
				255,
			},
			ToneCurvePV2012Red = {
				0,
				0,
				255,
				255,
			},
			VignetteAmount = 0,
			VignetteMidpoint = 27,
			WhiteBalance = "Custom",
			Whites2012 = -60,
		},
		uuid = "1E1DA8EC-1464-444D-84DC-19C9A4DEEA21",
	},
	version = 0,
}
