presets/lightroom/_presets/Develop Presets/Vintrochrome Lr4-Lr5/Vintrochrome Film - V50 ~ HQLightroomPresets _.lrtemplate
s = {
	id = "E6457A14-5644-4698-AAF2-1BE699E4C603",
	internalName = "Vintrochrome Film : V50 ~ HQLightroomPresets 3",
	title = "Vintrochrome Film : V50 ~ HQLightroomPresets  ",
	type = "Develop",
	value = {
		settings = {
			AutoLateralCA = 0,
			Blacks2012 = -12,
			BlueHue = 6,
			BlueSaturation = 0,
			CameraProfile = "Embedded",
			ChromaticAberrationB = 0,
			ChromaticAberrationR = 0,
			Clarity2012 = 12,
			ColorNoiseReduction = 0,
			ColorNoiseReductionDetail = 50,
			Contrast2012 = 12,
			ConvertToGrayscale = false,
			Defringe = 0,
			EnableCalibration = true,
			EnableColorAdjustments = true,
			EnableDetail = true,
			EnableEffects = true,
			EnableLensCorrections = true,
			EnableSplitToning = true,
			Exposure2012 = -0.24,
			GrainAmount = 28,
			GrainFrequency = 37,
			GrainSize = 59,
			GreenHue = 24,
			GreenSaturation = 0,
			Highlights2012 = 20,
			HueAdjustmentAqua = 0,
			HueAdjustmentBlue = 0,
			HueAdjustmentGreen = 0,
			HueAdjustmentMagenta = 0,
			HueAdjustmentOrange = 0,
			HueAdjustmentPurple = 0,
			HueAdjustmentRed = 0,
			HueAdjustmentYellow = 1,
			IncrementalTemperature = 0,
			IncrementalTint = 0,
			LuminanceAdjustmentAqua = 0,
			LuminanceAdjustmentBlue = 0,
			LuminanceAdjustmentGreen = 0,
			LuminanceAdjustmentMagenta = 0,
			LuminanceAdjustmentOrange = 0,
			LuminanceAdjustmentPurple = 0,
			LuminanceAdjustmentRed = 0,
			LuminanceAdjustmentYellow = 0,
			LuminanceNoiseReductionContrast = 0,
			LuminanceNoiseReductionDetail = 50,
			LuminanceSmoothing = 0,
			ParametricDarks = 62,
			ParametricHighlightSplit = 90,
			ParametricHighlights = 0,
			ParametricLights = 14,
			ParametricMidtoneSplit = 59,
			ParametricShadowSplit = 10,
			ParametricShadows = 0,
			PostCropVignetteAmount = -36,
			PostCropVignetteFeather = 95,
			PostCropVignetteHighlightContrast = 58,
			PostCropVignetteMidpoint = 36,
			PostCropVignetteRoundness = -33,
			PostCropVignetteStyle = 1,
			ProcessVersion = "6.7",
			RedHue = 0,
			RedSaturation = 0,
			Saturation = 3,
			SaturationAdjustmentAqua = 0,
			SaturationAdjustmentBlue = 0,
			SaturationAdjustmentGreen = -13,
			SaturationAdjustmentMagenta = 4,
			SaturationAdjustmentOrange = -27,
			SaturationAdjustmentPurple = -59,
			SaturationAdjustmentRed = -20,
			SaturationAdjustmentYellow = -33,
			ShadowTint = 0,
			Shadows2012 = 4,
			SharpenDetail = 25,
			SharpenEdgeMasking = 0,
			SharpenRadius = 1,
			Sharpness = 61,
			SplitToningBalance = -10,
			SplitToningHighlightHue = 99,
			SplitToningHighlightSaturation = 0,
			SplitToningShadowHue = 87,
			SplitToningShadowSaturation = 0,
			ToneCurveName2012 = "Custom",
			ToneCurvePV2012 = {
				0,
				32,
				26,
				35,
				104,
				95,
				195,
				179,
				255,
				229,
			},
			ToneCurvePV2012Blue = {
				0,
				0,
				255,
				255,
			},
			ToneCurvePV2012Green = {
				0,
				0,
				255,
				255,
			},
			ToneCurvePV2012Red = {
				0,
				0,
				255,
				255,
			},
			Vibrance = 27,
			VignetteAmount = 0,
			VignetteMidpoint = 50,
			WhiteBalance = "Custom",
			Whites2012 = -25,
		},
		uuid = "647E3AF7-C7DD-490C-93B9-A3BFB363691C",
	},
	version = 0,
}
