presets/lightroom/_presets/Develop Presets/Vintrochrome Lr4-Lr5/Vintrochrome Film - V16 ~ HQLightroomPresets _.lrtemplate
s = {
	id = "2C3B8C5F-1314-4C22-94F6-1D8699511A6B",
	internalName = "Vintrochrome Film : V16 ~ HQLightroomPresets 3",
	title = "Vintrochrome Film : V16 ~ HQLightroomPresets  ",
	type = "Develop",
	value = {
		settings = {
			AutoLateralCA = 0,
			Blacks2012 = -11,
			BlueHue = 0,
			BlueSaturation = 0,
			CameraProfile = "Embedded",
			ChromaticAberrationB = 0,
			ChromaticAberrationR = 0,
			Clarity2012 = 11,
			ColorNoiseReduction = 50,
			ColorNoiseReductionDetail = 51,
			Contrast2012 = 20,
			ConvertToGrayscale = false,
			Defringe = 0,
			EnableCalibration = true,
			EnableColorAdjustments = true,
			EnableDetail = true,
			EnableEffects = true,
			EnableLensCorrections = true,
			EnableSplitToning = true,
			Exposure2012 = 0.37,
			GrainAmount = 25,
			GrainFrequency = 45,
			GrainSize = 60,
			GreenHue = 79,
			GreenSaturation = 6,
			Highlights2012 = 10,
			HueAdjustmentAqua = -10,
			HueAdjustmentBlue = -27,
			HueAdjustmentGreen = -13,
			HueAdjustmentMagenta = 2,
			HueAdjustmentOrange = 13,
			HueAdjustmentPurple = -9,
			HueAdjustmentRed = 13,
			HueAdjustmentYellow = -10,
			IncrementalTemperature = 13,
			IncrementalTint = -3,
			LuminanceAdjustmentAqua = 0,
			LuminanceAdjustmentBlue = 0,
			LuminanceAdjustmentGreen = 0,
			LuminanceAdjustmentMagenta = 0,
			LuminanceAdjustmentOrange = -15,
			LuminanceAdjustmentPurple = 0,
			LuminanceAdjustmentRed = -22,
			LuminanceAdjustmentYellow = -1,
			LuminanceNoiseReductionContrast = 0,
			LuminanceNoiseReductionDetail = 50,
			LuminanceSmoothing = 10,
			ParametricDarks = -27,
			ParametricHighlightSplit = 75,
			ParametricHighlights = -30,
			ParametricLights = 0,
			ParametricMidtoneSplit = 50,
			ParametricShadowSplit = 25,
			ParametricShadows = 0,
			PostCropVignetteAmount = -11,
			PostCropVignetteFeather = 100,
			PostCropVignetteHighlightContrast = 0,
			PostCropVignetteMidpoint = 0,
			PostCropVignetteRoundness = -33,
			PostCropVignetteStyle = 1,
			ProcessVersion = "6.7",
			RedHue = 0,
			RedSaturation = 0,
			Saturation = 22,
			SaturationAdjustmentAqua = -25,
			SaturationAdjustmentBlue = 0,
			SaturationAdjustmentGreen = -30,
			SaturationAdjustmentMagenta = -30,
			SaturationAdjustmentOrange = -57,
			SaturationAdjustmentPurple = -23,
			SaturationAdjustmentRed = -48,
			SaturationAdjustmentYellow = -2,
			ShadowTint = 0,
			Shadows2012 = 12,
			SharpenDetail = 50,
			SharpenEdgeMasking = 0,
			SharpenRadius = 0.9,
			Sharpness = 71,
			SplitToningBalance = 85,
			SplitToningHighlightHue = 207,
			SplitToningHighlightSaturation = 15,
			SplitToningShadowHue = 302,
			SplitToningShadowSaturation = 0,
			ToneCurveName2012 = "Custom",
			ToneCurvePV2012 = {
				0,
				32,
				34,
				40,
				170,
				167,
				255,
				217,
			},
			ToneCurvePV2012Blue = {
				0,
				0,
				255,
				255,
			},
			ToneCurvePV2012Green = {
				0,
				0,
				255,
				255,
			},
			ToneCurvePV2012Red = {
				0,
				0,
				255,
				255,
			},
			Vibrance = 24,
			VignetteAmount = -1,
			VignetteMidpoint = 20,
			WhiteBalance = "Custom",
			Whites2012 = -24,
		},
		uuid = "4D02E1C3-BB8E-44C2-A299-DE75BAF510BC",
	},
	version = 0,
}
