presets/lightroom/_presets/Develop Presets/Vintrochrome Lr4-Lr5/Vintrochrome Film - V70 ~ HQLightroomPresets _.lrtemplate
s = {
	id = "F9D99C6D-9E2E-4F20-9E44-BE296A47F907",
	internalName = "Vintrochrome Film : V70 ~ HQLightroomPresets 3",
	title = "Vintrochrome Film : V70 ~ HQLightroomPresets  ",
	type = "Develop",
	value = {
		settings = {
			AutoLateralCA = 0,
			Blacks2012 = -11,
			BlueHue = 1,
			BlueSaturation = -17,
			CameraProfile = "Embedded",
			ChromaticAberrationB = 0,
			ChromaticAberrationR = 0,
			Clarity2012 = 0,
			ColorNoiseReduction = 0,
			ColorNoiseReductionDetail = 50,
			Contrast2012 = 0,
			ConvertToGrayscale = false,
			Defringe = 0,
			EnableCalibration = true,
			EnableColorAdjustments = true,
			EnableDetail = true,
			EnableEffects = true,
			EnableLensCorrections = true,
			EnableSplitToning = true,
			Exposure2012 = 0,
			GrainAmount = 30,
			GrainFrequency = 30,
			GrainSize = 70,
			GreenHue = 40,
			GreenSaturation = 6,
			Highlights2012 = -11,
			HueAdjustmentAqua = 0,
			HueAdjustmentBlue = 0,
			HueAdjustmentGreen = 0,
			HueAdjustmentMagenta = 0,
			HueAdjustmentOrange = 0,
			HueAdjustmentPurple = 0,
			HueAdjustmentRed = 0,
			HueAdjustmentYellow = 0,
			IncrementalTemperature = -6,
			IncrementalTint = 17,
			LuminanceAdjustmentAqua = 0,
			LuminanceAdjustmentBlue = 0,
			LuminanceAdjustmentGreen = 0,
			LuminanceAdjustmentMagenta = 0,
			LuminanceAdjustmentOrange = 0,
			LuminanceAdjustmentPurple = 0,
			LuminanceAdjustmentRed = 0,
			LuminanceAdjustmentYellow = 0,
			LuminanceNoiseReductionContrast = 0,
			LuminanceNoiseReductionDetail = 50,
			LuminanceSmoothing = 11,
			ParametricDarks = -13,
			ParametricHighlightSplit = 76,
			ParametricHighlights = -18,
			ParametricLights = 3,
			ParametricMidtoneSplit = 50,
			ParametricShadowSplit = 25,
			ParametricShadows = -19,
			PostCropVignetteAmount = -1,
			PostCropVignetteFeather = 84,
			PostCropVignetteHighlightContrast = 0,
			PostCropVignetteMidpoint = 24,
			PostCropVignetteRoundness = 45,
			PostCropVignetteStyle = 1,
			ProcessVersion = "6.7",
			RedHue = -10,
			RedSaturation = -22,
			Saturation = -22,
			SaturationAdjustmentAqua = -21,
			SaturationAdjustmentBlue = -26,
			SaturationAdjustmentGreen = -7,
			SaturationAdjustmentMagenta = 0,
			SaturationAdjustmentOrange = -18,
			SaturationAdjustmentPurple = 0,
			SaturationAdjustmentRed = -7,
			SaturationAdjustmentYellow = 0,
			ShadowTint = 0,
			Shadows2012 = 11,
			SharpenDetail = 25,
			SharpenEdgeMasking = 0,
			SharpenRadius = 1,
			Sharpness = 56,
			SplitToningBalance = 42,
			SplitToningHighlightHue = 54,
			SplitToningHighlightSaturation = 17,
			SplitToningShadowHue = 215,
			SplitToningShadowSaturation = 17,
			ToneCurveName2012 = "Custom",
			ToneCurvePV2012 = {
				0,
				14,
				32,
				43,
				125,
				140,
				192,
				190,
				252,
				202,
			},
			ToneCurvePV2012Blue = {
				0,
				0,
				255,
				255,
			},
			ToneCurvePV2012Green = {
				0,
				0,
				255,
				255,
			},
			ToneCurvePV2012Red = {
				0,
				0,
				255,
				255,
			},
			Vibrance = 22,
			VignetteAmount = 0,
			VignetteMidpoint = 23,
			WhiteBalance = "Custom",
			Whites2012 = -31,
		},
		uuid = "193AA1AA-FEF4-45A1-9A6B-622A9D828097",
	},
	version = 0,
}
