presets/lightroom/_presets/Develop Presets/Vintrochrome Lr4-Lr5/Vintrochrome Film - V116 ~ HQLightroomPresets _.lrtemplate
s = {
	id = "5AD78921-A2E1-424C-A2A3-C338A5EE1709",
	internalName = "Vintrochrome Film : V108 ~ HQLightroomPresets 3",
	title = "Vintrochrome Film : V116 ~ HQLightroomPresets  ",
	type = "Develop",
	value = {
		settings = {
			AutoLateralCA = 0,
			Blacks2012 = -15,
			BlueHue = 0,
			BlueSaturation = 0,
			CameraProfile = "Embedded",
			ChromaticAberrationB = 0,
			ChromaticAberrationR = 0,
			Clarity2012 = 26,
			ColorNoiseReduction = 25,
			ColorNoiseReductionDetail = 50,
			Contrast2012 = 5,
			ConvertToGrayscale = true,
			Defringe = 0,
			EnableCalibration = true,
			EnableDetail = true,
			EnableEffects = true,
			EnableGrayscaleMix = true,
			EnableLensCorrections = true,
			EnableSplitToning = true,
			Exposure2012 = -0.49,
			GrainAmount = 27,
			GrainFrequency = 76,
			GrainSize = 49,
			GrayMixerAqua = -12,
			GrayMixerBlue = 4,
			GrayMixerGreen = -9,
			GrayMixerMagenta = -1,
			GrayMixerOrange = -10,
			GrayMixerPurple = 9,
			GrayMixerRed = -1,
			GrayMixerYellow = -5,
			GreenHue = 0,
			GreenSaturation = 0,
			Highlights2012 = -12,
			IncrementalTemperature = 41,
			IncrementalTint = -36,
			LuminanceNoiseReductionContrast = 0,
			LuminanceNoiseReductionDetail = 50,
			LuminanceSmoothing = 7,
			ParametricDarks = 0,
			ParametricHighlightSplit = 75,
			ParametricHighlights = 0,
			ParametricLights = -2,
			ParametricMidtoneSplit = 50,
			ParametricShadowSplit = 25,
			ParametricShadows = 0,
			PostCropVignetteAmount = -15,
			PostCropVignetteFeather = 86,
			PostCropVignetteHighlightContrast = 0,
			PostCropVignetteMidpoint = 13,
			PostCropVignetteRoundness = -15,
			PostCropVignetteStyle = 1,
			ProcessVersion = "6.7",
			RedHue = 0,
			RedSaturation = 0,
			ShadowTint = 0,
			Shadows2012 = -22,
			SharpenDetail = 25,
			SharpenEdgeMasking = 0,
			SharpenRadius = 1,
			Sharpness = 57,
			SplitToningBalance = 53,
			SplitToningHighlightHue = 28,
			SplitToningHighlightSaturation = 5,
			SplitToningShadowHue = 245,
			SplitToningShadowSaturation = 0,
			ToneCurveName2012 = "Custom",
			ToneCurvePV2012 = {
				0,
				40,
				65,
				58,
				121,
				128,
				181,
				186,
				254,
				218,
			},
			ToneCurvePV2012Blue = {
				0,
				0,
				255,
				255,
			},
			ToneCurvePV2012Green = {
				0,
				0,
				255,
				255,
			},
			ToneCurvePV2012Red = {
				0,
				0,
				255,
				255,
			},
			VignetteAmount = -1,
			VignetteMidpoint = 20,
			WhiteBalance = "Custom",
			Whites2012 = -56,
		},
		uuid = "DC031C32-4985-4DE4-B017-37D53F994649",
	},
	version = 0,
}
