presets/lightroom/_presets/Develop Presets/Vintrochrome Lr4-Lr5/Vintrochrome Film - V107 ~ HQLighroomPresets.com.lrtemplate
s = {
	id = "2178FC0A-74E3-4075-878A-329FF2D1227E",
	internalName = "Copyrights © 2014 ~ HQLighroomPresets.com",
	title = "Vintrochrome Film : V107 ~ HQLighroomPresets.com",
	type = "Develop",
	value = {
		settings = {
			AutoLateralCA = 0,
			Blacks2012 = -26,
			BlueHue = 17,
			BlueSaturation = 15,
			CameraProfile = "Camera D2X Mode 1",
			ChromaticAberrationB = 0,
			ChromaticAberrationR = 0,
			Clarity2012 = 0,
			ColorNoiseReduction = 23,
			ColorNoiseReductionDetail = 33,
			ColorNoiseReductionSmoothness = 50,
			Contrast2012 = 0,
			ConvertToGrayscale = false,
			Defringe = 0,
			DefringeGreenAmount = 0,
			DefringeGreenHueHi = 60,
			DefringeGreenHueLo = 40,
			DefringePurpleAmount = 0,
			DefringePurpleHueHi = 70,
			DefringePurpleHueLo = 30,
			EnableCalibration = true,
			EnableColorAdjustments = true,
			EnableDetail = true,
			EnableEffects = true,
			EnableLensCorrections = true,
			EnableSplitToning = true,
			Exposure2012 = 1.07,
			GrainAmount = 29,
			GrainFrequency = 40,
			GrainSize = 55,
			GreenHue = 6,
			GreenSaturation = 17,
			Highlights2012 = -33,
			HueAdjustmentAqua = -36,
			HueAdjustmentBlue = -11,
			HueAdjustmentGreen = -36,
			HueAdjustmentMagenta = 20,
			HueAdjustmentOrange = -13,
			HueAdjustmentPurple = -13,
			HueAdjustmentRed = 4,
			HueAdjustmentYellow = -24,
			IncrementalTemperature = 3,
			IncrementalTint = 14,
			LuminanceAdjustmentAqua = -16,
			LuminanceAdjustmentBlue = 2,
			LuminanceAdjustmentGreen = -31,
			LuminanceAdjustmentMagenta = -2,
			LuminanceAdjustmentOrange = -11,
			LuminanceAdjustmentPurple = 9,
			LuminanceAdjustmentRed = -22,
			LuminanceAdjustmentYellow = -22,
			LuminanceNoiseReductionContrast = 13,
			LuminanceNoiseReductionDetail = 43,
			LuminanceSmoothing = 11,
			ParametricDarks = 0,
			ParametricHighlightSplit = 75,
			ParametricHighlights = 0,
			ParametricLights = 0,
			ParametricMidtoneSplit = 60,
			ParametricShadowSplit = 14,
			ParametricShadows = 0,
			PostCropVignetteAmount = -2,
			PostCropVignetteFeather = 50,
			PostCropVignetteHighlightContrast = 0,
			PostCropVignetteMidpoint = 35,
			PostCropVignetteRoundness = 0,
			PostCropVignetteStyle = 1,
			ProcessVersion = "6.7",
			RedHue = 0,
			RedSaturation = 8,
			Saturation = 12,
			SaturationAdjustmentAqua = -11,
			SaturationAdjustmentBlue = -29,
			SaturationAdjustmentGreen = 0,
			SaturationAdjustmentMagenta = -29,
			SaturationAdjustmentOrange = -16,
			SaturationAdjustmentPurple = -36,
			SaturationAdjustmentRed = -33,
			SaturationAdjustmentYellow = 2,
			ShadowTint = 0,
			Shadows2012 = -2,
			SharpenDetail = 31,
			SharpenEdgeMasking = 5,
			SharpenRadius = 1,
			Sharpness = 20,
			SplitToningBalance = 0,
			SplitToningHighlightHue = 54,
			SplitToningHighlightSaturation = 13,
			SplitToningShadowHue = 170,
			SplitToningShadowSaturation = 11,
			ToneCurveName2012 = "Custom",
			ToneCurvePV2012 = {
				0,
				32,
				40,
				46,
				216,
				212,
				255,
				236,
			},
			ToneCurvePV2012Blue = {
				0,
				0,
				255,
				255,
			},
			ToneCurvePV2012Green = {
				0,
				0,
				255,
				255,
			},
			ToneCurvePV2012Red = {
				0,
				0,
				255,
				255,
			},
			Vibrance = 14,
			VignetteAmount = 0,
			VignetteMidpoint = 50,
			WhiteBalance = "Custom",
			Whites2012 = -90,
		},
		uuid = "93826BA9-38EE-4FA3-A67B-E9F1ED5C3BF2",
	},
	version = 0,
}
