presets/lightroom/_presets/Develop Presets/Vintrochrome Lr4-Lr5/Vintrochrome Film - V15 ~ HQLightroomPresets _.lrtemplate
s = {
	id = "F5137FF4-E8CE-442C-A124-CEC7947AFF6A",
	internalName = "Vintrochrome Film : V15 ~ HQLightroomPresets 3",
	title = "Vintrochrome Film : V15 ~ HQLightroomPresets  ",
	type = "Develop",
	value = {
		settings = {
			AutoLateralCA = 0,
			Blacks2012 = -12,
			BlueHue = 0,
			BlueSaturation = -36,
			CameraProfile = "Embedded",
			ChromaticAberrationB = 0,
			ChromaticAberrationR = 0,
			Clarity2012 = 8,
			ColorNoiseReduction = 28,
			ColorNoiseReductionDetail = 50,
			Contrast2012 = 16,
			ConvertToGrayscale = false,
			Defringe = 0,
			EnableCalibration = true,
			EnableColorAdjustments = true,
			EnableDetail = true,
			EnableEffects = true,
			EnableLensCorrections = true,
			EnableSplitToning = true,
			Exposure2012 = 0.49,
			GrainAmount = 40,
			GrainFrequency = 40,
			GrainSize = 60,
			GreenHue = 0,
			GreenSaturation = -38,
			Highlights2012 = -24,
			HueAdjustmentAqua = 1,
			HueAdjustmentBlue = 0,
			HueAdjustmentGreen = -30,
			HueAdjustmentMagenta = 0,
			HueAdjustmentOrange = 12,
			HueAdjustmentPurple = -2,
			HueAdjustmentRed = -15,
			HueAdjustmentYellow = -16,
			IncrementalTemperature = 0,
			IncrementalTint = -4,
			LuminanceAdjustmentAqua = 0,
			LuminanceAdjustmentBlue = -34,
			LuminanceAdjustmentGreen = -30,
			LuminanceAdjustmentMagenta = 0,
			LuminanceAdjustmentOrange = 0,
			LuminanceAdjustmentPurple = 0,
			LuminanceAdjustmentRed = 0,
			LuminanceAdjustmentYellow = 32,
			LuminanceNoiseReductionContrast = 0,
			LuminanceNoiseReductionDetail = 50,
			LuminanceSmoothing = 18,
			ParametricDarks = -47,
			ParametricHighlightSplit = 75,
			ParametricHighlights = -30,
			ParametricLights = -15,
			ParametricMidtoneSplit = 50,
			ParametricShadowSplit = 25,
			ParametricShadows = 0,
			PostCropVignetteAmount = -8,
			PostCropVignetteFeather = 90,
			PostCropVignetteHighlightContrast = 11,
			PostCropVignetteMidpoint = 28,
			PostCropVignetteRoundness = 22,
			PostCropVignetteStyle = 1,
			ProcessVersion = "6.7",
			RedHue = 0,
			RedSaturation = -15,
			Saturation = 17,
			SaturationAdjustmentAqua = 0,
			SaturationAdjustmentBlue = -39,
			SaturationAdjustmentGreen = -34,
			SaturationAdjustmentMagenta = 0,
			SaturationAdjustmentOrange = 43,
			SaturationAdjustmentPurple = 7,
			SaturationAdjustmentRed = 16,
			SaturationAdjustmentYellow = 33,
			ShadowTint = 0,
			Shadows2012 = 7,
			SharpenDetail = 50,
			SharpenEdgeMasking = 0,
			SharpenRadius = 1,
			Sharpness = 76,
			SplitToningBalance = 85,
			SplitToningHighlightHue = 240,
			SplitToningHighlightSaturation = 9,
			SplitToningShadowHue = 132,
			SplitToningShadowSaturation = 68,
			ToneCurveName2012 = "Custom",
			ToneCurvePV2012 = {
				0,
				31,
				50,
				67,
				129,
				139,
				194,
				197,
				255,
				237,
			},
			ToneCurvePV2012Blue = {
				0,
				0,
				255,
				255,
			},
			ToneCurvePV2012Green = {
				0,
				0,
				255,
				255,
			},
			ToneCurvePV2012Red = {
				0,
				0,
				255,
				255,
			},
			Vibrance = 27,
			VignetteAmount = 2,
			VignetteMidpoint = 20,
			WhiteBalance = "Custom",
			Whites2012 = -39,
		},
		uuid = "29CCC1BC-AE3C-4848-8787-0301E61858DA",
	},
	version = 0,
}
