presets/lightroom/_presets/Develop Presets/Vintrochrome Lr4-Lr5/Vintrochrome Film - V5 ~ HQLightroomPresets _.lrtemplate
s = {
	id = "91B50408-579F-4208-9E33-F20A04DEC128",
	internalName = "Vintrochrome Film : V5 ~ HQLightroomPresets 3",
	title = "Vintrochrome Film : V5 ~ HQLightroomPresets  ",
	type = "Develop",
	value = {
		settings = {
			AutoLateralCA = 0,
			Blacks2012 = -10,
			BlueHue = 0,
			BlueSaturation = 0,
			CameraProfile = "Embedded",
			ChromaticAberrationB = 0,
			ChromaticAberrationR = 0,
			Clarity2012 = 0,
			ColorNoiseReduction = 0,
			ColorNoiseReductionDetail = 50,
			Contrast2012 = 0,
			ConvertToGrayscale = false,
			Defringe = 0,
			EnableCalibration = true,
			EnableColorAdjustments = true,
			EnableDetail = true,
			EnableEffects = true,
			EnableLensCorrections = true,
			EnableSplitToning = true,
			Exposure2012 = 0.74,
			GrainAmount = 32,
			GrainFrequency = 40,
			GrainSize = 60,
			GreenHue = -5,
			GreenSaturation = 10,
			Highlights2012 = -13,
			HueAdjustmentAqua = 0,
			HueAdjustmentBlue = 0,
			HueAdjustmentGreen = 0,
			HueAdjustmentMagenta = 0,
			HueAdjustmentOrange = 0,
			HueAdjustmentPurple = 0,
			HueAdjustmentRed = 0,
			HueAdjustmentYellow = 0,
			IncrementalTemperature = 0,
			IncrementalTint = 0,
			LuminanceAdjustmentAqua = 0,
			LuminanceAdjustmentBlue = 0,
			LuminanceAdjustmentGreen = 0,
			LuminanceAdjustmentMagenta = 0,
			LuminanceAdjustmentOrange = 0,
			LuminanceAdjustmentPurple = 0,
			LuminanceAdjustmentRed = 0,
			LuminanceAdjustmentYellow = 0,
			LuminanceNoiseReductionContrast = 0,
			LuminanceNoiseReductionDetail = 50,
			LuminanceSmoothing = 12,
			ParametricDarks = 0,
			ParametricHighlightSplit = 75,
			ParametricHighlights = 0,
			ParametricLights = 0,
			ParametricMidtoneSplit = 48,
			ParametricShadowSplit = 20,
			ParametricShadows = 0,
			PostCropVignetteAmount = -19,
			PostCropVignetteFeather = 50,
			PostCropVignetteHighlightContrast = 0,
			PostCropVignetteMidpoint = 50,
			PostCropVignetteRoundness = 0,
			PostCropVignetteStyle = 1,
			ProcessVersion = "6.7",
			RedHue = 0,
			RedSaturation = 31,
			Saturation = 29,
			SaturationAdjustmentAqua = -67,
			SaturationAdjustmentBlue = -16,
			SaturationAdjustmentGreen = -40,
			SaturationAdjustmentMagenta = -36,
			SaturationAdjustmentOrange = -31,
			SaturationAdjustmentPurple = -44,
			SaturationAdjustmentRed = -31,
			SaturationAdjustmentYellow = -33,
			ShadowTint = 0,
			Shadows2012 = 13,
			SharpenDetail = 25,
			SharpenEdgeMasking = 0,
			SharpenRadius = 1,
			Sharpness = 34,
			SplitToningBalance = 0,
			SplitToningHighlightHue = 313,
			SplitToningHighlightSaturation = 23,
			SplitToningShadowHue = 124,
			SplitToningShadowSaturation = 18,
			ToneCurveName2012 = "Custom",
			ToneCurvePV2012 = {
				0,
				32,
				40,
				46,
				216,
				212,
				255,
				236,
			},
			ToneCurvePV2012Blue = {
				0,
				0,
				255,
				255,
			},
			ToneCurvePV2012Green = {
				0,
				0,
				255,
				255,
			},
			ToneCurvePV2012Red = {
				0,
				0,
				255,
				255,
			},
			Vibrance = -15,
			VignetteAmount = 0,
			VignetteMidpoint = 50,
			WhiteBalance = "Custom",
			Whites2012 = -54,
		},
		uuid = "1DDD067C-9B6C-43DC-A8CD-7D0CB7B069AF",
	},
	version = 0,
}
