presets/lightroom/_presets/Develop Presets/Vintrochrome Lr4-Lr5/Vintrochrome Film - V79 ~ HQLightroomPresets _.lrtemplate
s = {
	id = "962059EB-3EC3-4151-9489-DE9E3AA40AA0",
	internalName = "Vintrochrome Film : V79 ~ HQLightroomPresets 3",
	title = "Vintrochrome Film : V79 ~ HQLightroomPresets  ",
	type = "Develop",
	value = {
		settings = {
			AutoLateralCA = 0,
			Blacks2012 = -34,
			BlueHue = -30,
			BlueSaturation = 20,
			CameraProfile = "Embedded",
			ChromaticAberrationB = 0,
			ChromaticAberrationR = 0,
			Clarity2012 = 16,
			ColorNoiseReduction = 0,
			ColorNoiseReductionDetail = 50,
			Contrast2012 = 17,
			ConvertToGrayscale = false,
			Defringe = 0,
			EnableCalibration = true,
			EnableColorAdjustments = true,
			EnableDetail = true,
			EnableEffects = true,
			EnableLensCorrections = true,
			EnableSplitToning = true,
			Exposure2012 = -0.61,
			GrainAmount = 30,
			GrainFrequency = 50,
			GrainSize = 70,
			GreenHue = 0,
			GreenSaturation = -20,
			Highlights2012 = -15,
			HueAdjustmentAqua = -5,
			HueAdjustmentBlue = 0,
			HueAdjustmentGreen = 0,
			HueAdjustmentMagenta = 0,
			HueAdjustmentOrange = 0,
			HueAdjustmentPurple = 0,
			HueAdjustmentRed = 0,
			HueAdjustmentYellow = 0,
			IncrementalTemperature = 9,
			IncrementalTint = -6,
			LuminanceAdjustmentAqua = -16,
			LuminanceAdjustmentBlue = 0,
			LuminanceAdjustmentGreen = -27,
			LuminanceAdjustmentMagenta = 0,
			LuminanceAdjustmentOrange = 0,
			LuminanceAdjustmentPurple = 0,
			LuminanceAdjustmentRed = 0,
			LuminanceAdjustmentYellow = -4,
			LuminanceNoiseReductionContrast = 0,
			LuminanceNoiseReductionDetail = 50,
			LuminanceSmoothing = 5,
			ParametricDarks = 32,
			ParametricHighlightSplit = 90,
			ParametricHighlights = 0,
			ParametricLights = 0,
			ParametricMidtoneSplit = 59,
			ParametricShadowSplit = 10,
			ParametricShadows = 0,
			PostCropVignetteAmount = -10,
			PostCropVignetteFeather = 77,
			PostCropVignetteHighlightContrast = 0,
			PostCropVignetteMidpoint = 20,
			PostCropVignetteRoundness = 10,
			PostCropVignetteStyle = 1,
			ProcessVersion = "6.7",
			RedHue = 17,
			RedSaturation = -17,
			Saturation = -31,
			SaturationAdjustmentAqua = 0,
			SaturationAdjustmentBlue = 0,
			SaturationAdjustmentGreen = 27,
			SaturationAdjustmentMagenta = 0,
			SaturationAdjustmentOrange = 0,
			SaturationAdjustmentPurple = 0,
			SaturationAdjustmentRed = 0,
			SaturationAdjustmentYellow = 0,
			ShadowTint = 0,
			Shadows2012 = 24,
			SharpenDetail = 25,
			SharpenEdgeMasking = 0,
			SharpenRadius = 1,
			Sharpness = 61,
			SplitToningBalance = 52,
			SplitToningHighlightHue = 217,
			SplitToningHighlightSaturation = 19,
			SplitToningShadowHue = 244,
			SplitToningShadowSaturation = 21,
			ToneCurveName2012 = "Custom",
			ToneCurvePV2012 = {
				0,
				25,
				56,
				53,
				77,
				68,
				128,
				134,
				198,
				204,
				255,
				250,
			},
			ToneCurvePV2012Blue = {
				0,
				0,
				255,
				255,
			},
			ToneCurvePV2012Green = {
				0,
				0,
				255,
				255,
			},
			ToneCurvePV2012Red = {
				0,
				0,
				255,
				255,
			},
			Vibrance = 31,
			VignetteAmount = 0,
			VignetteMidpoint = 50,
			WhiteBalance = "Custom",
			Whites2012 = -57,
		},
		uuid = "CB247534-FE73-467B-B586-16E2D58A0D95",
	},
	version = 0,
}
