presets/lightroom/_presets/Develop Presets/Vintrochrome Lr4-Lr5/Vintrochrome Film - V30 ~ HQLightroomPresets _.lrtemplate
s = {
	id = "1F76C3C3-B53E-4D17-A930-C40B293E5B7F",
	internalName = "Vintrochrome Film : V30 ~ HQLightroomPresets 3",
	title = "Vintrochrome Film : V30 ~ HQLightroomPresets  ",
	type = "Develop",
	value = {
		settings = {
			AutoLateralCA = 0,
			Blacks2012 = -11,
			BlueHue = 0,
			BlueSaturation = -59,
			CameraProfile = "Embedded",
			ChromaticAberrationB = 0,
			ChromaticAberrationR = 0,
			Clarity2012 = 6,
			ColorNoiseReduction = 18,
			ColorNoiseReductionDetail = 12,
			Contrast2012 = 24,
			ConvertToGrayscale = false,
			Defringe = 0,
			EnableCalibration = true,
			EnableColorAdjustments = true,
			EnableDetail = true,
			EnableEffects = true,
			EnableLensCorrections = true,
			EnableSplitToning = true,
			Exposure2012 = -0.24,
			GrainAmount = 31,
			GrainFrequency = 51,
			GrainSize = 68,
			GreenHue = 0,
			GreenSaturation = -43,
			Highlights2012 = -10,
			HueAdjustmentAqua = 14,
			HueAdjustmentBlue = -2,
			HueAdjustmentGreen = 0,
			HueAdjustmentMagenta = 0,
			HueAdjustmentOrange = 0,
			HueAdjustmentPurple = 0,
			HueAdjustmentRed = 0,
			HueAdjustmentYellow = 0,
			IncrementalTemperature = 0,
			IncrementalTint = 0,
			LuminanceAdjustmentAqua = 61,
			LuminanceAdjustmentBlue = 57,
			LuminanceAdjustmentGreen = 0,
			LuminanceAdjustmentMagenta = 63,
			LuminanceAdjustmentOrange = 0,
			LuminanceAdjustmentPurple = 57,
			LuminanceAdjustmentRed = -24,
			LuminanceAdjustmentYellow = 0,
			LuminanceNoiseReductionContrast = 0,
			LuminanceNoiseReductionDetail = 50,
			LuminanceSmoothing = 0,
			ParametricDarks = 52,
			ParametricHighlightSplit = 90,
			ParametricHighlights = 0,
			ParametricLights = 0,
			ParametricMidtoneSplit = 59,
			ParametricShadowSplit = 10,
			ParametricShadows = 0,
			PostCropVignetteAmount = -15,
			PostCropVignetteFeather = 100,
			PostCropVignetteHighlightContrast = 21,
			PostCropVignetteMidpoint = 10,
			PostCropVignetteRoundness = 29,
			PostCropVignetteStyle = 1,
			ProcessVersion = "6.7",
			RedHue = 0,
			RedSaturation = -38,
			Saturation = 47,
			SaturationAdjustmentAqua = 0,
			SaturationAdjustmentBlue = 0,
			SaturationAdjustmentGreen = 0,
			SaturationAdjustmentMagenta = -15,
			SaturationAdjustmentOrange = -11,
			SaturationAdjustmentPurple = -11,
			SaturationAdjustmentRed = 0,
			SaturationAdjustmentYellow = 2,
			ShadowTint = 0,
			Shadows2012 = 10,
			SharpenDetail = 28,
			SharpenEdgeMasking = 0,
			SharpenRadius = 1.5,
			Sharpness = 67,
			SplitToningBalance = 100,
			SplitToningHighlightHue = 87,
			SplitToningHighlightSaturation = 15,
			SplitToningShadowHue = 360,
			SplitToningShadowSaturation = 53,
			ToneCurveName2012 = "Custom",
			ToneCurvePV2012 = {
				1,
				38,
				23,
				39,
				119,
				115,
				199,
				200,
				255,
				202,
			},
			ToneCurvePV2012Blue = {
				0,
				0,
				255,
				255,
			},
			ToneCurvePV2012Green = {
				0,
				0,
				255,
				255,
			},
			ToneCurvePV2012Red = {
				0,
				0,
				255,
				255,
			},
			Vibrance = -13,
			VignetteAmount = 1,
			VignetteMidpoint = 50,
			WhiteBalance = "Custom",
			Whites2012 = -57,
		},
		uuid = "53DE3CBD-091F-4CA2-9151-82A563221808",
	},
	version = 0,
}
