presets/lightroom/_presets/Develop Presets/Vintrochrome Lr4-Lr5/Vintrochrome Film - V9 ~ HQLightroomPresets _.lrtemplate
s = {
	id = "47A359FA-D41D-47A3-8F76-5DA6EED09D5C",
	internalName = "Vintrochrome Film : V9 ~ HQLightroomPresets 3",
	title = "Vintrochrome Film : V9 ~ HQLightroomPresets  ",
	type = "Develop",
	value = {
		settings = {
			AutoLateralCA = 0,
			Blacks2012 = -32,
			BlueHue = -58,
			BlueSaturation = -25,
			CameraProfile = "Embedded",
			ChromaticAberrationB = 0,
			ChromaticAberrationR = 0,
			Clarity2012 = 10,
			ColorNoiseReduction = 28,
			ColorNoiseReductionDetail = 50,
			Contrast2012 = 21,
			ConvertToGrayscale = false,
			Defringe = 0,
			EnableCalibration = true,
			EnableColorAdjustments = true,
			EnableDetail = true,
			EnableEffects = true,
			EnableLensCorrections = true,
			EnableSplitToning = true,
			Exposure2012 = 0,
			GrainAmount = 28,
			GrainFrequency = 46,
			GrainSize = 56,
			GreenHue = 0,
			GreenSaturation = -6,
			Highlights2012 = 2,
			HueAdjustmentAqua = 21,
			HueAdjustmentBlue = 23,
			HueAdjustmentGreen = 24,
			HueAdjustmentMagenta = 2,
			HueAdjustmentOrange = 26,
			HueAdjustmentPurple = 12,
			HueAdjustmentRed = 9,
			HueAdjustmentYellow = 33,
			IncrementalTemperature = 15,
			IncrementalTint = 36,
			LuminanceAdjustmentAqua = -12,
			LuminanceAdjustmentBlue = -9,
			LuminanceAdjustmentGreen = -7,
			LuminanceAdjustmentMagenta = -4,
			LuminanceAdjustmentOrange = -9,
			LuminanceAdjustmentPurple = -7,
			LuminanceAdjustmentRed = -9,
			LuminanceAdjustmentYellow = -12,
			LuminanceNoiseReductionContrast = 0,
			LuminanceNoiseReductionDetail = 43,
			LuminanceSmoothing = 8,
			ParametricDarks = 0,
			ParametricHighlightSplit = 75,
			ParametricHighlights = -40,
			ParametricLights = 0,
			ParametricMidtoneSplit = 50,
			ParametricShadowSplit = 25,
			ParametricShadows = -1,
			PostCropVignetteAmount = 0,
			PostCropVignetteFeather = 100,
			PostCropVignetteHighlightContrast = 0,
			PostCropVignetteMidpoint = 23,
			PostCropVignetteRoundness = -39,
			PostCropVignetteStyle = 1,
			ProcessVersion = "6.7",
			RedHue = 0,
			RedSaturation = -25,
			Saturation = -7,
			SaturationAdjustmentAqua = -24,
			SaturationAdjustmentBlue = -21,
			SaturationAdjustmentGreen = -30,
			SaturationAdjustmentMagenta = 10,
			SaturationAdjustmentOrange = 21,
			SaturationAdjustmentPurple = -10,
			SaturationAdjustmentRed = 67,
			SaturationAdjustmentYellow = -4,
			ShadowTint = 56,
			Shadows2012 = 7,
			SharpenDetail = 50,
			SharpenEdgeMasking = 0,
			SharpenRadius = 1,
			Sharpness = 41,
			SplitToningBalance = 85,
			SplitToningHighlightHue = 239,
			SplitToningHighlightSaturation = 0,
			SplitToningShadowHue = 153,
			SplitToningShadowSaturation = 85,
			ToneCurveName2012 = "Custom",
			ToneCurvePV2012 = {
				0,
				42,
				70,
				94,
				156,
				164,
				255,
				224,
			},
			ToneCurvePV2012Blue = {
				0,
				0,
				255,
				255,
			},
			ToneCurvePV2012Green = {
				0,
				0,
				255,
				255,
			},
			ToneCurvePV2012Red = {
				0,
				0,
				255,
				255,
			},
			Vibrance = 0,
			VignetteAmount = 0,
			VignetteMidpoint = 48,
			WhiteBalance = "Custom",
			Whites2012 = -34,
		},
		uuid = "E21EB56E-25EB-4BC8-8FA1-F3BB5B298475",
	},
	version = 0,
}
