presets/lightroom/_presets/Develop Presets/Vintrochrome Lr4-Lr5/Vintrochrome Film - V72 ~ HQLightroomPresets _.lrtemplate
s = {
	id = "150C314E-A06F-4D3C-9EA3-A36270AF75EE",
	internalName = "Vintrochrome Film : V72 ~ HQLightroomPresets 3",
	title = "Vintrochrome Film : V72 ~ HQLightroomPresets  ",
	type = "Develop",
	value = {
		settings = {
			AutoLateralCA = 0,
			Blacks2012 = -10,
			BlueHue = 0,
			BlueSaturation = -10,
			CameraProfile = "Embedded",
			ChromaticAberrationB = 0,
			ChromaticAberrationR = 0,
			Clarity2012 = 27,
			ColorNoiseReduction = 28,
			ColorNoiseReductionDetail = 50,
			Contrast2012 = 56,
			ConvertToGrayscale = false,
			Defringe = 0,
			EnableCalibration = true,
			EnableColorAdjustments = true,
			EnableDetail = true,
			EnableEffects = true,
			EnableLensCorrections = true,
			EnableSplitToning = true,
			Exposure2012 = -0.12,
			GrainAmount = 23,
			GrainFrequency = 52,
			GrainSize = 69,
			GreenHue = 6,
			GreenSaturation = -38,
			Highlights2012 = -46,
			HueAdjustmentAqua = 0,
			HueAdjustmentBlue = 0,
			HueAdjustmentGreen = 0,
			HueAdjustmentMagenta = 0,
			HueAdjustmentOrange = 0,
			HueAdjustmentPurple = 0,
			HueAdjustmentRed = 0,
			HueAdjustmentYellow = 0,
			IncrementalTemperature = 2,
			IncrementalTint = -26,
			LuminanceAdjustmentAqua = 0,
			LuminanceAdjustmentBlue = 0,
			LuminanceAdjustmentGreen = 0,
			LuminanceAdjustmentMagenta = 0,
			LuminanceAdjustmentOrange = 0,
			LuminanceAdjustmentPurple = 0,
			LuminanceAdjustmentRed = 0,
			LuminanceAdjustmentYellow = 0,
			LuminanceNoiseReductionContrast = 0,
			LuminanceNoiseReductionDetail = 50,
			LuminanceSmoothing = 17,
			ParametricDarks = -12,
			ParametricHighlightSplit = 75,
			ParametricHighlights = -30,
			ParametricLights = 17,
			ParametricMidtoneSplit = 50,
			ParametricShadowSplit = 25,
			ParametricShadows = 0,
			PostCropVignetteAmount = 0,
			PostCropVignetteFeather = 74,
			PostCropVignetteHighlightContrast = 0,
			PostCropVignetteMidpoint = 5,
			PostCropVignetteRoundness = -52,
			PostCropVignetteStyle = 1,
			ProcessVersion = "6.7",
			RedHue = 0,
			RedSaturation = -15,
			Saturation = -29,
			SaturationAdjustmentAqua = 0,
			SaturationAdjustmentBlue = 0,
			SaturationAdjustmentGreen = 0,
			SaturationAdjustmentMagenta = 0,
			SaturationAdjustmentOrange = 0,
			SaturationAdjustmentPurple = 0,
			SaturationAdjustmentRed = 0,
			SaturationAdjustmentYellow = 0,
			ShadowTint = 15,
			Shadows2012 = 34,
			SharpenDetail = 50,
			SharpenEdgeMasking = 0,
			SharpenRadius = 1,
			Sharpness = 57,
			SplitToningBalance = 85,
			SplitToningHighlightHue = 50,
			SplitToningHighlightSaturation = 0,
			SplitToningShadowHue = 51,
			SplitToningShadowSaturation = 26,
			ToneCurveName2012 = "!fadelembutfilm",
			ToneCurvePV2012 = {
				0,
				39,
				28,
				51,
				136,
				133,
				197,
				173,
				255,
				210,
			},
			ToneCurvePV2012Blue = {
				0,
				0,
				255,
				255,
			},
			ToneCurvePV2012Green = {
				0,
				0,
				255,
				255,
			},
			ToneCurvePV2012Red = {
				0,
				0,
				255,
				255,
			},
			Vibrance = 29,
			VignetteAmount = 0,
			VignetteMidpoint = 20,
			WhiteBalance = "Custom",
			Whites2012 = -20,
		},
		uuid = "B1972B30-CDBA-4152-8063-083DD2E223B4",
	},
	version = 0,
}
