presets/lightroom/_presets/Develop Presets/Vintrochrome Lr4-Lr5/Vintrochrome Film - V85 ~ HQLightroomPresets _.lrtemplate
s = {
	id = "A8207E0E-1C72-46B5-92F6-40CE911F34A1",
	internalName = "Vintrochrome Film : V85 ~ HQLightroomPresets 3",
	title = "Vintrochrome Film : V85 ~ HQLightroomPresets  ",
	type = "Develop",
	value = {
		settings = {
			AutoLateralCA = 0,
			Blacks2012 = -10,
			BlueHue = 0,
			BlueSaturation = 0,
			CameraProfile = "Embedded",
			ChromaticAberrationB = 0,
			ChromaticAberrationR = 0,
			Clarity2012 = 6,
			ColorNoiseReduction = 18,
			ColorNoiseReductionDetail = 12,
			Contrast2012 = 0,
			ConvertToGrayscale = false,
			Defringe = 0,
			EnableCalibration = true,
			EnableColorAdjustments = true,
			EnableDetail = true,
			EnableEffects = true,
			EnableLensCorrections = true,
			EnableSplitToning = true,
			Exposure2012 = 0,
			GrainAmount = 39,
			GrainFrequency = 46,
			GrainSize = 61,
			GreenHue = 0,
			GreenSaturation = 0,
			Highlights2012 = -9,
			HueAdjustmentAqua = 0,
			HueAdjustmentBlue = -2,
			HueAdjustmentGreen = 0,
			HueAdjustmentMagenta = 0,
			HueAdjustmentOrange = 0,
			HueAdjustmentPurple = 0,
			HueAdjustmentRed = 0,
			HueAdjustmentYellow = 0,
			IncrementalTemperature = -33,
			IncrementalTint = -43,
			LuminanceAdjustmentAqua = 0,
			LuminanceAdjustmentBlue = 0,
			LuminanceAdjustmentGreen = 55,
			LuminanceAdjustmentMagenta = 0,
			LuminanceAdjustmentOrange = 68,
			LuminanceAdjustmentPurple = 0,
			LuminanceAdjustmentRed = -24,
			LuminanceAdjustmentYellow = 43,
			LuminanceNoiseReductionContrast = 0,
			LuminanceNoiseReductionDetail = 50,
			LuminanceSmoothing = 15,
			ParametricDarks = 52,
			ParametricHighlightSplit = 90,
			ParametricHighlights = 0,
			ParametricLights = 0,
			ParametricMidtoneSplit = 59,
			ParametricShadowSplit = 10,
			ParametricShadows = 0,
			PostCropVignetteAmount = 0,
			PostCropVignetteFeather = 100,
			PostCropVignetteHighlightContrast = 21,
			PostCropVignetteMidpoint = 10,
			PostCropVignetteRoundness = -27,
			PostCropVignetteStyle = 1,
			ProcessVersion = "6.7",
			RedHue = 0,
			RedSaturation = 0,
			Saturation = -40,
			SaturationAdjustmentAqua = 11,
			SaturationAdjustmentBlue = 0,
			SaturationAdjustmentGreen = 32,
			SaturationAdjustmentMagenta = -15,
			SaturationAdjustmentOrange = 41,
			SaturationAdjustmentPurple = -11,
			SaturationAdjustmentRed = 27,
			SaturationAdjustmentYellow = 36,
			ShadowTint = 0,
			Shadows2012 = 9,
			SharpenDetail = 28,
			SharpenEdgeMasking = 0,
			SharpenRadius = 1.5,
			Sharpness = 67,
			SplitToningBalance = 100,
			SplitToningHighlightHue = 26,
			SplitToningHighlightSaturation = 29,
			SplitToningShadowHue = 231,
			SplitToningShadowSaturation = 0,
			ToneCurveName2012 = "Custom",
			ToneCurvePV2012 = {
				0,
				33,
				76,
				70,
				173,
				162,
				255,
				219,
			},
			ToneCurvePV2012Blue = {
				0,
				0,
				255,
				255,
			},
			ToneCurvePV2012Green = {
				0,
				0,
				255,
				255,
			},
			ToneCurvePV2012Red = {
				0,
				0,
				255,
				255,
			},
			Vibrance = 50,
			VignetteAmount = 0,
			VignetteMidpoint = 50,
			WhiteBalance = "Custom",
			Whites2012 = 0,
		},
		uuid = "2E1F6C05-0AE6-4623-B3B9-19864E3B0B1D",
	},
	version = 0,
}
