presets/lightroom/_presets/Develop Presets/Vintrochrome Lr4-Lr5/Vintrochrome Film - V20 ~ HQLightroomPresets _.lrtemplate
s = {
	id = "C42C26E0-7314-4BA7-95C5-A0C657E0D75E",
	internalName = "Vintrochrome Film : V20 ~ HQLightroomPresets 3",
	title = "Vintrochrome Film : V20 ~ HQLightroomPresets  ",
	type = "Develop",
	value = {
		settings = {
			AutoLateralCA = 0,
			Blacks2012 = 0,
			BlueHue = 5,
			BlueSaturation = -14,
			CameraProfile = "Embedded",
			ChromaticAberrationB = 0,
			ChromaticAberrationR = 0,
			Clarity2012 = 0,
			ColorNoiseReduction = 25,
			ColorNoiseReductionDetail = 50,
			Contrast2012 = 0,
			ConvertToGrayscale = false,
			Defringe = 0,
			EnableCalibration = true,
			EnableColorAdjustments = true,
			EnableDetail = true,
			EnableEffects = true,
			EnableLensCorrections = true,
			EnableSplitToning = true,
			Exposure2012 = 0.12,
			GrainAmount = 33,
			GrainFrequency = 40,
			GrainSize = 64,
			GreenHue = 33,
			GreenSaturation = -10,
			Highlights2012 = -20,
			HueAdjustmentAqua = -4,
			HueAdjustmentBlue = -5,
			HueAdjustmentGreen = 22,
			HueAdjustmentMagenta = 0,
			HueAdjustmentOrange = 11,
			HueAdjustmentPurple = 0,
			HueAdjustmentRed = 29,
			HueAdjustmentYellow = 22,
			IncrementalTemperature = -7,
			IncrementalTint = 5,
			LuminanceAdjustmentAqua = 20,
			LuminanceAdjustmentBlue = 0,
			LuminanceAdjustmentGreen = 33,
			LuminanceAdjustmentMagenta = 0,
			LuminanceAdjustmentOrange = 20,
			LuminanceAdjustmentPurple = 0,
			LuminanceAdjustmentRed = -2,
			LuminanceAdjustmentYellow = 24,
			LuminanceNoiseReductionContrast = 0,
			LuminanceNoiseReductionDetail = 50,
			LuminanceSmoothing = 0,
			ParametricDarks = -13,
			ParametricHighlightSplit = 75,
			ParametricHighlights = 0,
			ParametricLights = 0,
			ParametricMidtoneSplit = 48,
			ParametricShadowSplit = 20,
			ParametricShadows = 0,
			PostCropVignetteAmount = 0,
			PostCropVignetteFeather = 50,
			PostCropVignetteHighlightContrast = 0,
			PostCropVignetteMidpoint = 50,
			PostCropVignetteRoundness = 0,
			PostCropVignetteStyle = 1,
			ProcessVersion = "6.7",
			RedHue = 12,
			RedSaturation = 12,
			Saturation = 19,
			SaturationAdjustmentAqua = -40,
			SaturationAdjustmentBlue = -27,
			SaturationAdjustmentGreen = -44,
			SaturationAdjustmentMagenta = -4,
			SaturationAdjustmentOrange = -16,
			SaturationAdjustmentPurple = -9,
			SaturationAdjustmentRed = 0,
			SaturationAdjustmentYellow = -27,
			ShadowTint = 0,
			Shadows2012 = 20,
			SharpenDetail = 25,
			SharpenEdgeMasking = 0,
			SharpenRadius = 1,
			Sharpness = 0,
			SplitToningBalance = 0,
			SplitToningHighlightHue = 0,
			SplitToningHighlightSaturation = 14,
			SplitToningShadowHue = 99,
			SplitToningShadowSaturation = 21,
			ToneCurveName2012 = "Custom",
			ToneCurvePV2012 = {
				0,
				32,
				40,
				46,
				216,
				212,
				255,
				236,
			},
			ToneCurvePV2012Blue = {
				0,
				0,
				255,
				255,
			},
			ToneCurvePV2012Green = {
				0,
				0,
				255,
				255,
			},
			ToneCurvePV2012Red = {
				0,
				0,
				255,
				255,
			},
			Vibrance = -10,
			VignetteAmount = 0,
			VignetteMidpoint = 50,
			WhiteBalance = "Custom",
			Whites2012 = -61,
		},
		uuid = "6BC9B28D-F18B-40E7-A631-609E287CA710",
	},
	version = 0,
}
