presets/lightroom/_presets/Develop Presets/Vintrochrome Lr4-Lr5/Vintrochrome Film - V108 ~ HQLighroomPresets.com.lrtemplate
s = {
	id = "C5237AAB-490D-42FF-987B-4E0FF01F3662",
	internalName = "Copyrights © 2014 ~ HQLighroomPresets.com",
	title = "Vintrochrome Film : V108 ~ HQLighroomPresets.com",
	type = "Develop",
	value = {
		settings = {
			AutoLateralCA = 0,
			Blacks2012 = -2,
			BlueHue = 8,
			BlueSaturation = -31,
			CameraProfile = "Embedded",
			ChromaticAberrationB = 0,
			ChromaticAberrationR = 0,
			Clarity2012 = 6,
			ColorNoiseReduction = 18,
			ColorNoiseReductionDetail = 12,
			ColorNoiseReductionSmoothness = 50,
			Contrast2012 = 24,
			ConvertToGrayscale = false,
			Defringe = 0,
			DefringeGreenAmount = 0,
			DefringeGreenHueHi = 60,
			DefringeGreenHueLo = 40,
			DefringePurpleAmount = 0,
			DefringePurpleHueHi = 70,
			DefringePurpleHueLo = 30,
			EnableCalibration = true,
			EnableColorAdjustments = true,
			EnableDetail = true,
			EnableEffects = true,
			EnableLensCorrections = true,
			EnableSplitToning = true,
			Exposure2012 = 0.17,
			GrainAmount = 25,
			GrainFrequency = 47,
			GrainSize = 62,
			GreenHue = 0,
			GreenSaturation = -36,
			Highlights2012 = -10,
			HueAdjustmentAqua = 14,
			HueAdjustmentBlue = -5,
			HueAdjustmentGreen = 0,
			HueAdjustmentMagenta = 0,
			HueAdjustmentOrange = 0,
			HueAdjustmentPurple = 0,
			HueAdjustmentRed = 0,
			HueAdjustmentYellow = 0,
			IncrementalTemperature = -20,
			IncrementalTint = 0,
			LuminanceAdjustmentAqua = 34,
			LuminanceAdjustmentBlue = 25,
			LuminanceAdjustmentGreen = 55,
			LuminanceAdjustmentMagenta = 63,
			LuminanceAdjustmentOrange = 50,
			LuminanceAdjustmentPurple = 57,
			LuminanceAdjustmentRed = -24,
			LuminanceAdjustmentYellow = 32,
			LuminanceNoiseReductionContrast = 0,
			LuminanceNoiseReductionDetail = 50,
			LuminanceSmoothing = 0,
			ParametricDarks = 52,
			ParametricHighlightSplit = 90,
			ParametricHighlights = 0,
			ParametricLights = 0,
			ParametricMidtoneSplit = 59,
			ParametricShadowSplit = 10,
			ParametricShadows = 0,
			PostCropVignetteAmount = -15,
			PostCropVignetteFeather = 100,
			PostCropVignetteHighlightContrast = 21,
			PostCropVignetteMidpoint = 10,
			PostCropVignetteRoundness = 29,
			PostCropVignetteStyle = 1,
			ProcessVersion = "6.7",
			RedHue = 0,
			RedSaturation = -38,
			Saturation = 69,
			SaturationAdjustmentAqua = 16,
			SaturationAdjustmentBlue = 27,
			SaturationAdjustmentGreen = 0,
			SaturationAdjustmentMagenta = -15,
			SaturationAdjustmentOrange = -11,
			SaturationAdjustmentPurple = -11,
			SaturationAdjustmentRed = 0,
			SaturationAdjustmentYellow = 2,
			ShadowTint = 0,
			Shadows2012 = -10,
			SharpenDetail = 28,
			SharpenEdgeMasking = 0,
			SharpenRadius = 1.5,
			Sharpness = 67,
			SplitToningBalance = 100,
			SplitToningHighlightHue = 137,
			SplitToningHighlightSaturation = 0,
			SplitToningShadowHue = 58,
			SplitToningShadowSaturation = 49,
			ToneCurveName2012 = "Custom",
			ToneCurvePV2012 = {
				0,
				26,
				23,
				39,
				129,
				132,
				255,
				229,
			},
			ToneCurvePV2012Blue = {
				0,
				0,
				255,
				255,
			},
			ToneCurvePV2012Green = {
				0,
				0,
				255,
				255,
			},
			ToneCurvePV2012Red = {
				0,
				0,
				255,
				255,
			},
			Vibrance = 33,
			VignetteAmount = 1,
			VignetteMidpoint = 50,
			WhiteBalance = "Custom",
			Whites2012 = -81,
		},
		uuid = "D31512DD-8C0A-4A74-9DE0-999DB5F86EAB",
	},
	version = 0,
}
