presets/lightroom/_presets/Develop Presets/Vintrochrome Lr4-Lr5/Vintrochrome Film - V33 ~ HQLightroomPresets _.lrtemplate
s = {
	id = "991FD51F-88D1-4CED-9D4B-99C1C946A7F0",
	internalName = "Vintrochrome Film : V33 ~ HQLightroomPresets 3",
	title = "Vintrochrome Film : V33 ~ HQLightroomPresets  ",
	type = "Develop",
	value = {
		settings = {
			AutoLateralCA = 0,
			Blacks2012 = -11,
			BlueHue = 0,
			BlueSaturation = -52,
			CameraProfile = "Embedded",
			ChromaticAberrationB = 0,
			ChromaticAberrationR = 0,
			Clarity2012 = 6,
			ColorNoiseReduction = 18,
			ColorNoiseReductionDetail = 12,
			Contrast2012 = 5,
			ConvertToGrayscale = false,
			Defringe = 0,
			EnableCalibration = true,
			EnableColorAdjustments = true,
			EnableDetail = true,
			EnableEffects = true,
			EnableLensCorrections = true,
			EnableSplitToning = true,
			Exposure2012 = -0.24,
			GrainAmount = 26,
			GrainFrequency = 64,
			GrainSize = 49,
			GreenHue = 0,
			GreenSaturation = -17,
			Highlights2012 = -27,
			HueAdjustmentAqua = 0,
			HueAdjustmentBlue = 7,
			HueAdjustmentGreen = 0,
			HueAdjustmentMagenta = 0,
			HueAdjustmentOrange = 9,
			HueAdjustmentPurple = 0,
			HueAdjustmentRed = 0,
			HueAdjustmentYellow = 0,
			IncrementalTemperature = 8,
			IncrementalTint = 0,
			LuminanceAdjustmentAqua = 14,
			LuminanceAdjustmentBlue = -48,
			LuminanceAdjustmentGreen = 2,
			LuminanceAdjustmentMagenta = -18,
			LuminanceAdjustmentOrange = 23,
			LuminanceAdjustmentPurple = 11,
			LuminanceAdjustmentRed = 11,
			LuminanceAdjustmentYellow = -2,
			LuminanceNoiseReductionContrast = 0,
			LuminanceNoiseReductionDetail = 50,
			LuminanceSmoothing = 0,
			ParametricDarks = -11,
			ParametricHighlightSplit = 75,
			ParametricHighlights = -7,
			ParametricLights = 13,
			ParametricMidtoneSplit = 50,
			ParametricShadowSplit = 25,
			ParametricShadows = -34,
			PostCropVignetteAmount = 0,
			PostCropVignetteFeather = 100,
			PostCropVignetteHighlightContrast = 21,
			PostCropVignetteMidpoint = 10,
			PostCropVignetteRoundness = 29,
			PostCropVignetteStyle = 1,
			ProcessVersion = "6.7",
			RedHue = 0,
			RedSaturation = 3,
			Saturation = 0,
			SaturationAdjustmentAqua = -7,
			SaturationAdjustmentBlue = -14,
			SaturationAdjustmentGreen = 20,
			SaturationAdjustmentMagenta = -7,
			SaturationAdjustmentOrange = -7,
			SaturationAdjustmentPurple = -18,
			SaturationAdjustmentRed = 9,
			SaturationAdjustmentYellow = -23,
			ShadowTint = 0,
			Shadows2012 = 2,
			SharpenDetail = 28,
			SharpenEdgeMasking = 0,
			SharpenRadius = 1.5,
			Sharpness = 67,
			SplitToningBalance = 0,
			SplitToningHighlightHue = 228,
			SplitToningHighlightSaturation = 33,
			SplitToningShadowHue = 239,
			SplitToningShadowSaturation = 8,
			ToneCurveName2012 = "Custom",
			ToneCurvePV2012 = {
				0,
				30,
				23,
				41,
				116,
				119,
				199,
				200,
				255,
				221,
			},
			ToneCurvePV2012Blue = {
				0,
				0,
				255,
				255,
			},
			ToneCurvePV2012Green = {
				0,
				0,
				255,
				255,
			},
			ToneCurvePV2012Red = {
				0,
				0,
				255,
				255,
			},
			Vibrance = 24,
			VignetteAmount = 1,
			VignetteMidpoint = 50,
			WhiteBalance = "Custom",
			Whites2012 = -63,
		},
		uuid = "043DBECD-7AF4-4D95-9890-FB30F8755258",
	},
	version = 0,
}
