presets/lightroom/_presets/Develop Presets/Vintrochrome Lr4-Lr5/Vintrochrome Film - V114 ~ HQLightroomPresets _.lrtemplate
s = {
	id = "0DD238DA-1666-4E33-9EF3-339F1E9A89BE",
	internalName = "Vintrochrome Film : V106 ~ HQLightroomPresets 3",
	title = "Vintrochrome Film : V114 ~ HQLightroomPresets  ",
	type = "Develop",
	value = {
		settings = {
			AutoLateralCA = 0,
			Blacks2012 = -11,
			BlueHue = 0,
			BlueSaturation = -100,
			CameraProfile = "Embedded",
			ChromaticAberrationB = 0,
			ChromaticAberrationR = 0,
			Clarity2012 = 26,
			ColorNoiseReduction = 25,
			ColorNoiseReductionDetail = 50,
			Contrast2012 = -19,
			ConvertToGrayscale = false,
			Defringe = 0,
			EnableCalibration = true,
			EnableColorAdjustments = true,
			EnableDetail = true,
			EnableEffects = true,
			EnableLensCorrections = true,
			EnableSplitToning = true,
			Exposure2012 = 0.83,
			GrainAmount = 16,
			GrainFrequency = 37,
			GrainSize = 30,
			GreenHue = 0,
			GreenSaturation = 0,
			Highlights2012 = -12,
			HueAdjustmentAqua = 27,
			HueAdjustmentBlue = -27,
			HueAdjustmentGreen = 0,
			HueAdjustmentMagenta = 0,
			HueAdjustmentOrange = 1,
			HueAdjustmentPurple = 0,
			HueAdjustmentRed = 0,
			HueAdjustmentYellow = 0,
			IncrementalTemperature = 0,
			IncrementalTint = -2,
			LuminanceAdjustmentAqua = -48,
			LuminanceAdjustmentBlue = -57,
			LuminanceAdjustmentGreen = 0,
			LuminanceAdjustmentMagenta = 0,
			LuminanceAdjustmentOrange = 16,
			LuminanceAdjustmentPurple = 0,
			LuminanceAdjustmentRed = 9,
			LuminanceAdjustmentYellow = 16,
			LuminanceNoiseReductionContrast = 0,
			LuminanceNoiseReductionDetail = 50,
			LuminanceSmoothing = 7,
			ParametricDarks = 0,
			ParametricHighlightSplit = 75,
			ParametricHighlights = 0,
			ParametricLights = -2,
			ParametricMidtoneSplit = 50,
			ParametricShadowSplit = 25,
			ParametricShadows = 0,
			PostCropVignetteAmount = -41,
			PostCropVignetteFeather = 79,
			PostCropVignetteHighlightContrast = 0,
			PostCropVignetteMidpoint = 22,
			PostCropVignetteRoundness = 0,
			PostCropVignetteStyle = 1,
			ProcessVersion = "6.7",
			RedHue = 0,
			RedSaturation = 0,
			Saturation = -8,
			SaturationAdjustmentAqua = 0,
			SaturationAdjustmentBlue = 0,
			SaturationAdjustmentGreen = 0,
			SaturationAdjustmentMagenta = 0,
			SaturationAdjustmentOrange = -25,
			SaturationAdjustmentPurple = 0,
			SaturationAdjustmentRed = -18,
			SaturationAdjustmentYellow = -25,
			ShadowTint = 0,
			Shadows2012 = 12,
			SharpenDetail = 25,
			SharpenEdgeMasking = 0,
			SharpenRadius = 1,
			Sharpness = 57,
			SplitToningBalance = 40,
			SplitToningHighlightHue = 87,
			SplitToningHighlightSaturation = 44,
			SplitToningShadowHue = 291,
			SplitToningShadowSaturation = 73,
			ToneCurveName2012 = "Custom",
			ToneCurvePV2012 = {
				14,
				18,
				64,
				56,
				141,
				141,
				187,
				180,
				253,
				226,
			},
			ToneCurvePV2012Blue = {
				0,
				0,
				255,
				255,
			},
			ToneCurvePV2012Green = {
				0,
				0,
				255,
				255,
			},
			ToneCurvePV2012Red = {
				0,
				0,
				255,
				255,
			},
			Vibrance = 26,
			VignetteAmount = -1,
			VignetteMidpoint = 20,
			WhiteBalance = "Custom",
			Whites2012 = -12,
		},
		uuid = "6C811E33-9375-4652-9CD1-3F7C827EAF54",
	},
	version = 0,
}
