presets/lightroom/_presets/Develop Presets/Vintrochrome Lr4-Lr5/Vintrochrome Film - V49 ~ HQLightroomPresets _.lrtemplate
s = {
	id = "C1ABE7A2-5096-4915-9318-DC6A5511CE69",
	internalName = "Vintrochrome Film : V49 ~ HQLightroomPresets 3",
	title = "Vintrochrome Film : V49 ~ HQLightroomPresets  ",
	type = "Develop",
	value = {
		settings = {
			AutoLateralCA = 0,
			Blacks2012 = -29,
			BlueHue = 0,
			BlueSaturation = -98,
			CameraProfile = "ACR 2.4",
			ChromaticAberrationB = 0,
			ChromaticAberrationR = 0,
			Clarity2012 = 6,
			ColorNoiseReduction = 28,
			ColorNoiseReductionDetail = 50,
			Contrast2012 = 7,
			ConvertToGrayscale = false,
			Defringe = 0,
			EnableCalibration = true,
			EnableColorAdjustments = true,
			EnableDetail = true,
			EnableEffects = true,
			EnableLensCorrections = true,
			EnableSplitToning = true,
			Exposure2012 = -0.49,
			GrainAmount = 31,
			GrainFrequency = 40,
			GrainSize = 60,
			GreenHue = 38,
			GreenSaturation = -1,
			Highlights2012 = -37,
			HueAdjustmentAqua = 0,
			HueAdjustmentBlue = 0,
			HueAdjustmentGreen = 0,
			HueAdjustmentMagenta = 0,
			HueAdjustmentOrange = -13,
			HueAdjustmentPurple = 0,
			HueAdjustmentRed = 0,
			HueAdjustmentYellow = 4,
			IncrementalTemperature = -8,
			IncrementalTint = 38,
			LuminanceAdjustmentAqua = -5,
			LuminanceAdjustmentBlue = 0,
			LuminanceAdjustmentGreen = -2,
			LuminanceAdjustmentMagenta = 0,
			LuminanceAdjustmentOrange = 11,
			LuminanceAdjustmentPurple = 0,
			LuminanceAdjustmentRed = 7,
			LuminanceAdjustmentYellow = 27,
			LuminanceNoiseReductionContrast = 0,
			LuminanceNoiseReductionDetail = 50,
			LuminanceSmoothing = 11,
			ParametricDarks = 62,
			ParametricHighlightSplit = 75,
			ParametricHighlights = -30,
			ParametricLights = 19,
			ParametricMidtoneSplit = 50,
			ParametricShadowSplit = 25,
			ParametricShadows = -6,
			PostCropVignetteAmount = -10,
			PostCropVignetteFeather = 56,
			PostCropVignetteHighlightContrast = 0,
			PostCropVignetteMidpoint = 25,
			PostCropVignetteRoundness = 67,
			PostCropVignetteStyle = 1,
			ProcessVersion = "6.7",
			RedHue = -10,
			RedSaturation = -3,
			Saturation = 17,
			SaturationAdjustmentAqua = 0,
			SaturationAdjustmentBlue = 0,
			SaturationAdjustmentGreen = 0,
			SaturationAdjustmentMagenta = 0,
			SaturationAdjustmentOrange = 0,
			SaturationAdjustmentPurple = 0,
			SaturationAdjustmentRed = -6,
			SaturationAdjustmentYellow = 1,
			ShadowTint = -38,
			Shadows2012 = 2,
			SharpenDetail = 50,
			SharpenEdgeMasking = 0,
			SharpenRadius = 1,
			Sharpness = 60,
			SplitToningBalance = 54,
			SplitToningHighlightHue = 34,
			SplitToningHighlightSaturation = 8,
			SplitToningShadowHue = 86,
			SplitToningShadowSaturation = 27,
			ToneCurveName2012 = "Custom",
			ToneCurvePV2012 = {
				0,
				40,
				34,
				42,
				134,
				124,
				225,
				217,
				255,
				221,
			},
			ToneCurvePV2012Blue = {
				0,
				0,
				255,
				255,
			},
			ToneCurvePV2012Green = {
				0,
				0,
				255,
				255,
			},
			ToneCurvePV2012Red = {
				0,
				0,
				255,
				255,
			},
			Vibrance = 7,
			VignetteAmount = -3,
			VignetteMidpoint = 20,
			WhiteBalance = "Custom",
			Whites2012 = -93,
		},
		uuid = "BE8240E8-EA4B-4CAB-BEB0-41F86EBD249A",
	},
	version = 0,
}
