presets/lightroom/_presets/Develop Presets/Vintrochrome Lr4-Lr5/Vintrochrome Film - V14 ~ HQLightroomPresets _.lrtemplate
s = {
	id = "84BF9378-E8C5-4402-81C1-D6F6C018A33F",
	internalName = "Vintrochrome Film : V14 ~ HQLightroomPresets 3",
	title = "Vintrochrome Film : V14 ~ HQLightroomPresets  ",
	type = "Develop",
	value = {
		settings = {
			AutoLateralCA = 0,
			Blacks2012 = 0,
			BlueHue = -56,
			BlueSaturation = 6,
			CameraProfile = "Embedded",
			ChromaticAberrationB = 0,
			ChromaticAberrationR = 0,
			Clarity2012 = 12,
			ColorNoiseReduction = 0,
			ColorNoiseReductionDetail = 50,
			Contrast2012 = 7,
			ConvertToGrayscale = false,
			Defringe = 0,
			EnableCalibration = true,
			EnableColorAdjustments = true,
			EnableDetail = true,
			EnableEffects = true,
			EnableLensCorrections = true,
			EnableSplitToning = true,
			Exposure2012 = -0.61,
			GrainAmount = 30,
			GrainFrequency = 40,
			GrainSize = 60,
			GreenHue = 24,
			GreenSaturation = -7,
			Highlights2012 = -8,
			HueAdjustmentAqua = 0,
			HueAdjustmentBlue = 0,
			HueAdjustmentGreen = 0,
			HueAdjustmentMagenta = -31,
			HueAdjustmentOrange = 0,
			HueAdjustmentPurple = 0,
			HueAdjustmentRed = 0,
			HueAdjustmentYellow = 1,
			IncrementalTemperature = 2,
			IncrementalTint = 15,
			LuminanceAdjustmentAqua = 0,
			LuminanceAdjustmentBlue = 0,
			LuminanceAdjustmentGreen = 2,
			LuminanceAdjustmentMagenta = 0,
			LuminanceAdjustmentOrange = -16,
			LuminanceAdjustmentPurple = 0,
			LuminanceAdjustmentRed = 16,
			LuminanceAdjustmentYellow = 11,
			LuminanceNoiseReductionContrast = 0,
			LuminanceNoiseReductionDetail = 50,
			LuminanceSmoothing = 5,
			ParametricDarks = 62,
			ParametricHighlightSplit = 90,
			ParametricHighlights = 0,
			ParametricLights = 14,
			ParametricMidtoneSplit = 59,
			ParametricShadowSplit = 10,
			ParametricShadows = 0,
			PostCropVignetteAmount = 0,
			PostCropVignetteFeather = 95,
			PostCropVignetteHighlightContrast = 58,
			PostCropVignetteMidpoint = 36,
			PostCropVignetteRoundness = -33,
			PostCropVignetteStyle = 1,
			ProcessVersion = "6.7",
			RedHue = 29,
			RedSaturation = -7,
			Saturation = -7,
			SaturationAdjustmentAqua = -46,
			SaturationAdjustmentBlue = -4,
			SaturationAdjustmentGreen = -44,
			SaturationAdjustmentMagenta = 4,
			SaturationAdjustmentOrange = -9,
			SaturationAdjustmentPurple = -38,
			SaturationAdjustmentRed = 2,
			SaturationAdjustmentYellow = 20,
			ShadowTint = 0,
			Shadows2012 = 0,
			SharpenDetail = 25,
			SharpenEdgeMasking = 0,
			SharpenRadius = 1,
			Sharpness = 61,
			SplitToningBalance = 2,
			SplitToningHighlightHue = 167,
			SplitToningHighlightSaturation = 11,
			SplitToningShadowHue = 219,
			SplitToningShadowSaturation = 22,
			ToneCurveName2012 = "Custom",
			ToneCurvePV2012 = {
				0,
				25,
				75,
				60,
				137,
				137,
				255,
				234,
			},
			ToneCurvePV2012Blue = {
				0,
				0,
				255,
				255,
			},
			ToneCurvePV2012Green = {
				0,
				0,
				255,
				255,
			},
			ToneCurvePV2012Red = {
				0,
				0,
				255,
				255,
			},
			Vibrance = -7,
			VignetteAmount = 0,
			VignetteMidpoint = 50,
			WhiteBalance = "Custom",
			Whites2012 = -61,
		},
		uuid = "462ACE26-8E61-4D23-B736-96B5B57C66E4",
	},
	version = 0,
}
