presets/lightroom/_presets/Develop Presets/Vintrochrome Lr4-Lr5/Vintrochrome Film - V11 ~ HQLightroomPresets _.lrtemplate
s = {
	id = "5742689B-A9E2-4431-B49A-69349CF45534",
	internalName = "Vintrochrome Film : V11 ~ HQLightroomPresets 3",
	title = "Vintrochrome Film : V11 ~ HQLightroomPresets  ",
	type = "Develop",
	value = {
		settings = {
			AutoLateralCA = 0,
			Blacks2012 = -5,
			BlueHue = -56,
			BlueSaturation = 6,
			CameraProfile = "Embedded",
			ChromaticAberrationB = 0,
			ChromaticAberrationR = 0,
			Clarity2012 = 16,
			ColorNoiseReduction = 0,
			ColorNoiseReductionDetail = 50,
			Contrast2012 = 6,
			ConvertToGrayscale = false,
			Defringe = 0,
			EnableCalibration = true,
			EnableColorAdjustments = true,
			EnableDetail = true,
			EnableEffects = true,
			EnableLensCorrections = true,
			EnableSplitToning = true,
			Exposure2012 = 0.46,
			GrainAmount = 19,
			GrainFrequency = 40,
			GrainSize = 48,
			GreenHue = 45,
			GreenSaturation = -30,
			Highlights2012 = -15,
			HueAdjustmentAqua = 0,
			HueAdjustmentBlue = 0,
			HueAdjustmentGreen = 0,
			HueAdjustmentMagenta = 0,
			HueAdjustmentOrange = 0,
			HueAdjustmentPurple = 0,
			HueAdjustmentRed = 0,
			HueAdjustmentYellow = 1,
			IncrementalTemperature = 0,
			IncrementalTint = 0,
			LuminanceAdjustmentAqua = 0,
			LuminanceAdjustmentBlue = 0,
			LuminanceAdjustmentGreen = 0,
			LuminanceAdjustmentMagenta = 0,
			LuminanceAdjustmentOrange = 0,
			LuminanceAdjustmentPurple = 0,
			LuminanceAdjustmentRed = 0,
			LuminanceAdjustmentYellow = 0,
			LuminanceNoiseReductionContrast = 0,
			LuminanceNoiseReductionDetail = 50,
			LuminanceSmoothing = 5,
			ParametricDarks = 62,
			ParametricHighlightSplit = 90,
			ParametricHighlights = 0,
			ParametricLights = 14,
			ParametricMidtoneSplit = 59,
			ParametricShadowSplit = 10,
			ParametricShadows = 0,
			PostCropVignetteAmount = -17,
			PostCropVignetteFeather = 95,
			PostCropVignetteHighlightContrast = 58,
			PostCropVignetteMidpoint = 36,
			PostCropVignetteRoundness = -33,
			PostCropVignetteStyle = 1,
			ProcessVersion = "6.7",
			RedHue = 25,
			RedSaturation = 2,
			Saturation = -10,
			SaturationAdjustmentAqua = -46,
			SaturationAdjustmentBlue = -24,
			SaturationAdjustmentGreen = -13,
			SaturationAdjustmentMagenta = 4,
			SaturationAdjustmentOrange = -27,
			SaturationAdjustmentPurple = -43,
			SaturationAdjustmentRed = -20,
			SaturationAdjustmentYellow = -33,
			ShadowTint = 0,
			Shadows2012 = -2,
			SharpenDetail = 25,
			SharpenEdgeMasking = 0,
			SharpenRadius = 1,
			Sharpness = 61,
			SplitToningBalance = 2,
			SplitToningHighlightHue = 41,
			SplitToningHighlightSaturation = 17,
			SplitToningShadowHue = 132,
			SplitToningShadowSaturation = 22,
			ToneCurveName2012 = "Custom",
			ToneCurvePV2012 = {
				0,
				27,
				34,
				28,
				138,
				118,
				195,
				177,
				250,
				212,
			},
			ToneCurvePV2012Blue = {
				0,
				0,
				255,
				255,
			},
			ToneCurvePV2012Green = {
				0,
				0,
				255,
				255,
			},
			ToneCurvePV2012Red = {
				0,
				0,
				255,
				255,
			},
			Vibrance = 47,
			VignetteAmount = 0,
			VignetteMidpoint = 50,
			WhiteBalance = "Custom",
			Whites2012 = -49,
		},
		uuid = "D5F438E7-11EF-48E6-913E-67B895313DC0",
	},
	version = 0,
}
