presets/lightroom/05-00 LEGACY - MIXOLOGY/33. SC Yellow-Violet Crush.lrtemplate
s = {
	id = "EE69595C-5910-4475-9ACD-2FCFA1C941C6",
	internalName = "33 Yellow/Violet Crush",
	title = "33. SC Yellow/Violet Crush",
	type = "Develop",
	value = {
		settings = {
			Blacks2012 = -30,
			Clarity2012 = 20,
			ColorNoiseReduction = 25,
			ColorNoiseReductionDetail = 50,
			Contrast2012 = 0,
			ConvertToGrayscale = false,
			EnableColorAdjustments = true,
			EnableDetail = true,
			EnableEffects = true,
			EnableGradientBasedCorrections = true,
			EnableLensCorrections = true,
			EnableSplitToning = true,
			GrainAmount = 0,
			GrainFrequency = 50,
			GrainSize = 25,
			Highlights2012 = -20,
			HueAdjustmentAqua = 0,
			HueAdjustmentBlue = 0,
			HueAdjustmentGreen = 0,
			HueAdjustmentMagenta = 0,
			HueAdjustmentOrange = 0,
			HueAdjustmentPurple = 0,
			HueAdjustmentRed = 0,
			HueAdjustmentYellow = 0,
			LuminanceAdjustmentAqua = 0,
			LuminanceAdjustmentBlue = 0,
			LuminanceAdjustmentGreen = 0,
			LuminanceAdjustmentMagenta = 0,
			LuminanceAdjustmentOrange = 0,
			LuminanceAdjustmentPurple = 0,
			LuminanceAdjustmentRed = 0,
			LuminanceAdjustmentYellow = 0,
			LuminanceNoiseReductionContrast = 0,
			LuminanceNoiseReductionDetail = 50,
			LuminanceSmoothing = 0,
			ParametricDarks = 0,
			ParametricHighlightSplit = 75,
			ParametricHighlights = 0,
			ParametricLights = 0,
			ParametricMidtoneSplit = 50,
			ParametricShadowSplit = 25,
			ParametricShadows = 0,
			PostCropVignetteAmount = 0,
			PostCropVignetteFeather = 50,
			PostCropVignetteHighlightContrast = 0,
			PostCropVignetteMidpoint = 50,
			PostCropVignetteRoundness = 0,
			PostCropVignetteStyle = 1,
			ProcessVersion = "6.7",
			Saturation = 10,
			SaturationAdjustmentAqua = 0,
			SaturationAdjustmentBlue = 0,
			SaturationAdjustmentGreen = 0,
			SaturationAdjustmentMagenta = 0,
			SaturationAdjustmentOrange = 0,
			SaturationAdjustmentPurple = 0,
			SaturationAdjustmentRed = 0,
			SaturationAdjustmentYellow = 0,
			Shadows2012 = -15,
			SharpenDetail = 10,
			SharpenEdgeMasking = 30,
			SharpenRadius = 1.5,
			Sharpness = 70,
			SplitToningBalance = 40,
			SplitToningHighlightHue = 60,
			SplitToningHighlightSaturation = 30,
			SplitToningShadowHue = 265,
			SplitToningShadowSaturation = 30,
			ToneCurveName2012 = "Custom",
			ToneCurvePV2012 = {
				0,
				0,
				38,
				29,
				96,
				96,
				160,
				174,
				223,
				232,
				255,
				255,
			},
			ToneCurvePV2012Blue = {
				0,
				0,
				255,
				255,
			},
			ToneCurvePV2012Green = {
				0,
				0,
				255,
				255,
			},
			ToneCurvePV2012Red = {
				0,
				0,
				255,
				255,
			},
			Vibrance = 30,
			VignetteAmount = -15,
			VignetteMidpoint = 10,
			Whites2012 = 10,
			orientation = "AB",
		},
		uuid = "7C6B9536-4052-47CB-9E3A-FDC2D697334C",
	},
	version = 0,
}
