presets/lightroom/_presets/Develop Presets/02-00 CURVES - NEUTRAL/02d. Neutral Wash - Desat Cross.lrtemplate
s = {
	id = "A47CBEF0-37EF-45FB-A0BD-AF800CB226F3",
	internalName = "07_Crimson Neutral Wash",
	title = "02d. Neutral Wash - Desat Cross",
	type = "Develop",
	value = {
		settings = {
			ConvertToGrayscale = false,
			EnableColorAdjustments = true,
			HueAdjustmentAqua = 0,
			HueAdjustmentBlue = 0,
			HueAdjustmentGreen = 0,
			HueAdjustmentMagenta = 0,
			HueAdjustmentOrange = 0,
			HueAdjustmentPurple = 0,
			HueAdjustmentRed = 0,
			HueAdjustmentYellow = 0,
			LuminanceAdjustmentAqua = 0,
			LuminanceAdjustmentBlue = 0,
			LuminanceAdjustmentGreen = 0,
			LuminanceAdjustmentMagenta = 0,
			LuminanceAdjustmentOrange = 0,
			LuminanceAdjustmentPurple = 0,
			LuminanceAdjustmentRed = 0,
			LuminanceAdjustmentYellow = 0,
			ParametricDarks = 0,
			ParametricHighlightSplit = 75,
			ParametricHighlights = 0,
			ParametricLights = 0,
			ParametricMidtoneSplit = 50,
			ParametricShadowSplit = 25,
			ParametricShadows = 0,
			ProcessVersion = "6.7",
			Saturation = -20,
			SaturationAdjustmentAqua = 0,
			SaturationAdjustmentBlue = 0,
			SaturationAdjustmentGreen = 0,
			SaturationAdjustmentMagenta = 0,
			SaturationAdjustmentOrange = 0,
			SaturationAdjustmentPurple = 0,
			SaturationAdjustmentRed = 0,
			SaturationAdjustmentYellow = 0,
			ToneCurveName2012 = "Custom",
			ToneCurvePV2012 = {
				0,
				34,
				59,
				70,
				105,
				113,
				150,
				156,
				192,
				194,
				255,
				227,
			},
			ToneCurvePV2012Blue = {
				0,
				0,
				64,
				69,
				128,
				128,
				191,
				186,
				255,
				255,
			},
			ToneCurvePV2012Green = {
				0,
				0,
				71,
				67,
				128,
				130,
				184,
				190,
				255,
				255,
			},
			ToneCurvePV2012Red = {
				0,
				0,
				64,
				59,
				128,
				128,
				192,
				199,
				255,
				255,
			},
			Vibrance = -10,
		},
		uuid = "CE3D1C1C-8137-43C9-AFFC-0726D8AD1155",
	},
	version = 0,
}
