presets/lightroom/_presets/Develop Presets/02-00 CURVES - NEUTRAL/03a. Neutral Punch - Standard.lrtemplate
s = {
	id = "40473691-3E20-4F56-A23B-8008F78DD89F",
	internalName = "07_Ivory + Neutral Punch",
	title = "03a. Neutral Punch - Standard",
	type = "Develop",
	value = {
		settings = {
			ConvertToGrayscale = false,
			ParametricDarks = 0,
			ParametricHighlightSplit = 75,
			ParametricHighlights = 0,
			ParametricLights = 0,
			ParametricMidtoneSplit = 50,
			ParametricShadowSplit = 25,
			ParametricShadows = 0,
			ProcessVersion = "6.7",
			Saturation = 0,
			ToneCurveName2012 = "Custom",
			ToneCurvePV2012 = {
				0,
				0,
				36,
				29,
				96,
				96,
				160,
				171,
				217,
				227,
				255,
				255,
			},
			ToneCurvePV2012Blue = {
				0,
				0,
				255,
				255,
			},
			ToneCurvePV2012Green = {
				0,
				0,
				255,
				255,
			},
			ToneCurvePV2012Red = {
				0,
				0,
				255,
				255,
			},
			Vibrance = 15,
		},
		uuid = "591FA313-224F-474A-AC7C-1A43C1143BFF",
	},
	version = 0,
}
