presets/lightroom/_presets/Develop Presets/02-00 CURVES - NEUTRAL/03b. Neutral Punch - Skin Desat.lrtemplate
s = {
	id = "7B609FDD-BAF6-4D62-9327-17AE01C4B169",
	internalName = "32 Skin Desaturated Neutral Punch",
	title = "03b. Neutral Punch - Skin Desat",
	type = "Develop",
	value = {
		settings = {
			ConvertToGrayscale = false,
			ParametricDarks = 0,
			ParametricHighlightSplit = 75,
			ParametricHighlights = 0,
			ParametricLights = 0,
			ParametricMidtoneSplit = 50,
			ParametricShadowSplit = 25,
			ParametricShadows = 0,
			ProcessVersion = "6.7",
			Saturation = -5,
			ToneCurveName2012 = "Custom",
			ToneCurvePV2012 = {
				0,
				0,
				36,
				29,
				96,
				96,
				160,
				171,
				217,
				227,
				255,
				255,
			},
			ToneCurvePV2012Blue = {
				0,
				0,
				255,
				255,
			},
			ToneCurvePV2012Green = {
				0,
				0,
				255,
				255,
			},
			ToneCurvePV2012Red = {
				0,
				0,
				255,
				255,
			},
			Vibrance = -5,
		},
		uuid = "31851787-F9EC-406B-B71F-B2375BE7FCFC",
	},
	version = 0,
}
