presets/lightroom/_presets/Develop Presets/02-00 CURVES - NEUTRAL/04d. Vintage Punch - Desat Cross.lrtemplate
s = {
	id = "986BFFB8-C58F-416A-80E7-78E67EF0D395",
	internalName = "44 Desaturated Cross",
	title = "04d. Vintage Punch - Desat Cross",
	type = "Develop",
	value = {
		settings = {
			ConvertToGrayscale = false,
			EnableColorAdjustments = true,
			HueAdjustmentAqua = 0,
			HueAdjustmentBlue = 0,
			HueAdjustmentGreen = 0,
			HueAdjustmentMagenta = 0,
			HueAdjustmentOrange = 0,
			HueAdjustmentPurple = 0,
			HueAdjustmentRed = 0,
			HueAdjustmentYellow = 0,
			LuminanceAdjustmentAqua = 0,
			LuminanceAdjustmentBlue = 0,
			LuminanceAdjustmentGreen = 0,
			LuminanceAdjustmentMagenta = 0,
			LuminanceAdjustmentOrange = 0,
			LuminanceAdjustmentPurple = 0,
			LuminanceAdjustmentRed = 0,
			LuminanceAdjustmentYellow = 0,
			ParametricDarks = 0,
			ParametricHighlightSplit = 75,
			ParametricHighlights = 0,
			ParametricLights = 0,
			ParametricMidtoneSplit = 50,
			ParametricShadowSplit = 25,
			ParametricShadows = 0,
			ProcessVersion = "6.7",
			Saturation = -20,
			SaturationAdjustmentAqua = 0,
			SaturationAdjustmentBlue = 0,
			SaturationAdjustmentGreen = 0,
			SaturationAdjustmentMagenta = 0,
			SaturationAdjustmentOrange = 0,
			SaturationAdjustmentPurple = 0,
			SaturationAdjustmentRed = 0,
			SaturationAdjustmentYellow = 0,
			ToneCurveName2012 = "Custom",
			ToneCurvePV2012 = {
				0,
				25,
				35,
				36,
				94,
				95,
				163,
				173,
				212,
				212,
				255,
				230,
			},
			ToneCurvePV2012Blue = {
				0,
				0,
				64,
				69,
				128,
				128,
				191,
				186,
				255,
				255,
			},
			ToneCurvePV2012Green = {
				0,
				0,
				64,
				60,
				128,
				128,
				192,
				198,
				255,
				255,
			},
			ToneCurvePV2012Red = {
				0,
				0,
				64,
				59,
				128,
				128,
				192,
				199,
				255,
				255,
			},
			Vibrance = -10,
		},
		uuid = "8468AE71-3B49-4D0B-84B3-729AC187BAC0",
	},
	version = 0,
}
