presets/lightroom/_presets/Develop Presets/02-00 CURVES - NEUTRAL/05b. Dark Wash - Skin Desat.lrtemplate
s = {
	id = "B2131F3C-20FF-4DD8-8B2B-4D0C33D70712",
	internalName = "52 Skin Desaturated Dark Wash",
	title = "05b. Dark Wash - Skin Desat",
	type = "Develop",
	value = {
		settings = {
			ConvertToGrayscale = false,
			ParametricDarks = 0,
			ParametricHighlightSplit = 75,
			ParametricHighlights = 0,
			ParametricLights = 0,
			ParametricMidtoneSplit = 50,
			ParametricShadowSplit = 25,
			ParametricShadows = 0,
			ProcessVersion = "6.7",
			Saturation = -5,
			ToneCurveName2012 = "Custom",
			ToneCurvePV2012 = {
				0,
				39,
				43,
				53,
				94,
				81,
				159,
				131,
				212,
				178,
				255,
				217,
			},
			ToneCurvePV2012Blue = {
				0,
				0,
				255,
				255,
			},
			ToneCurvePV2012Green = {
				0,
				0,
				255,
				255,
			},
			ToneCurvePV2012Red = {
				0,
				0,
				255,
				255,
			},
			Vibrance = -5,
		},
		uuid = "1E24D051-36B7-4853-BE23-A8ACEF30C64A",
	},
	version = 0,
}
