presets/lightroom/_presets/Develop Presets/02-00 CURVES - NEUTRAL/05c. Dark Wash - Light Desat.lrtemplate
s = {
	id = "688B2C07-7783-4EA7-A002-C2144A8E430D",
	internalName = "10_Apricot Dark Wash",
	title = "05c. Dark Wash - Light Desat",
	type = "Develop",
	value = {
		settings = {
			ConvertToGrayscale = false,
			ParametricDarks = 0,
			ParametricHighlightSplit = 75,
			ParametricHighlights = 0,
			ParametricLights = 0,
			ParametricMidtoneSplit = 50,
			ParametricShadowSplit = 25,
			ParametricShadows = 0,
			ProcessVersion = "6.7",
			Saturation = -30,
			ToneCurveName2012 = "Custom",
			ToneCurvePV2012 = {
				0,
				39,
				43,
				53,
				94,
				81,
				159,
				131,
				212,
				178,
				255,
				217,
			},
			ToneCurvePV2012Blue = {
				0,
				0,
				255,
				255,
			},
			ToneCurvePV2012Green = {
				0,
				0,
				255,
				255,
			},
			ToneCurvePV2012Red = {
				0,
				0,
				255,
				255,
			},
			Vibrance = -10,
		},
		uuid = "3E3F4AE3-D37E-4134-9564-D6DD91AEFEA8",
	},
	version = 0,
}
